/* XPM */
static char * tryagain_xpm[] = {
"400 94 1566 2",
"  	c #000001",
". 	c #FED727",
"+ 	c #FED529",
"@ 	c #FFE430",
"# 	c #FFDF33",
"$ 	c #FFD836",
"% 	c #FFD639",
"& 	c #FFD73D",
"* 	c #FFD840",
"= 	c #FFD943",
"- 	c #FFD945",
"; 	c #FFDA48",
"> 	c #FFDA49",
", 	c #FFDB4A",
"' 	c #FFDB4C",
") 	c #FFDB4B",
"! 	c #FFDA4A",
"~ 	c #FFD73C",
"{ 	c #FFD838",
"] 	c #FFE035",
"^ 	c #FFE431",
"/ 	c #FED52A",
"( 	c #FED627",
"_ 	c #FED729",
": 	c #FFD934",
"< 	c #FFD638",
"[ 	c #FFD944",
"} 	c #FFDC4E",
"| 	c #FFDD51",
"1 	c #FFDE53",
"2 	c #FFDE55",
"3 	c #FFDF57",
"4 	c #FFDF58",
"5 	c #FFDF56",
"6 	c #FFDE54",
"7 	c #FFDD52",
"8 	c #FFDC50",
"9 	c #FFD740",
"0 	c #FFD63B",
"a 	c #FFDA37",
"b 	c #FFE432",
"c 	c #FED72A",
"d 	c #FED626",
"e 	c #FFD728",
"f 	c #FFD833",
"g 	c #FFD538",
"h 	c #FFD842",
"i 	c #FFD946",
"j 	c #FFDC4F",
"k 	c #FFDF59",
"l 	c #FFE05C",
"m 	c #FFE15F",
"n 	c #FFE162",
"o 	c #FFE263",
"p 	c #FFE265",
"q 	c #FFE266",
"r 	c #FFE264",
"s 	c #FFE262",
"t 	c #FFDA47",
"u 	c #FFD841",
"v 	c #FFD936",
"w 	c #FFE532",
"x 	c #FFD82A",
"y 	c #FFE42E",
"z 	c #FFDA32",
"A 	c #FFD536",
"B 	c #FFE05D",
"C 	c #FFE161",
"D 	c #FFE368",
"E 	c #FFE46C",
"F 	c #FFE56F",
"G 	c #FFE571",
"H 	c #FFE672",
"I 	c #FFE673",
"J 	c #FFE46D",
"K 	c #FFE369",
"L 	c #FFDB4D",
"M 	c #FFD63A",
"N 	c #FFDB35",
"O 	c #FFE530",
"P 	c #FED628",
"Q 	c #FED928",
"R 	c #FFE230",
"S 	c #FFD533",
"T 	c #FFD73F",
"U 	c #FFE05E",
"V 	c #FFE367",
"W 	c #FFE570",
"X 	c #FFE674",
"Y 	c #FFE777",
"Z 	c #FFE778",
"` 	c #FFE779",
" .	c #FFE676",
"..	c #FFE46E",
"+.	c #FFD73E",
"@.	c #FFD637",
"#.	c #FFE232",
"$.	c #FED929",
"%.	c #FED425",
"&.	c #FFE12C",
"*.	c #FFDB31",
"=.	c #FFD73B",
"-.	c #FFD947",
";.	c #FFE572",
">.	c #FFE776",
",.	c #FFDB34",
"'.	c #FFE12D",
").	c #FED324",
"!.	c #FED327",
"~.	c #FFD632",
"{.	c #FFE05A",
"].	c #FFE160",
"^.	c #FFE46B",
"/.	c #FFE366",
"(.	c #FFD843",
"_.	c #FFD63C",
":.	c #FFD735",
"<.	c #FED428",
"[.	c #FFD433",
"}.	c #FFD439",
"|.	c #FFD63F",
"1.	c #FFD845",
"2.	c #FFDA4B",
"3.	c #FFDE56",
"4.	c #FFE05B",
"5.	c #FFDD53",
"6.	c #FFDA4C",
"7.	c #FFD846",
"8.	c #FFD63D",
"9.	c #FFD436",
"0.	c #FFE531",
"a.	c #FED228",
"b.	c #FFE330",
"c.	c #FFD334",
"d.	c #FFD53A",
"e.	c #FFD640",
"f.	c #FFD94C",
"g.	c #FFDC51",
"h.	c #FFDD57",
"i.	c #FFDF5D",
"j.	c #FFE163",
"k.	c #FFE775",
"l.	c #FFE46A",
"m.	c #FFE164",
"n.	c #FFDF5C",
"o.	c #FFDD54",
"p.	c #FFDA4D",
"q.	c #FFD437",
"r.	c #FFE433",
"s.	c #FED328",
"t.	c #FED027",
"u.	c #FFE331",
"v.	c #FFD234",
"w.	c #FFD43A",
"x.	c #FFD94D",
"y.	c #FFDC52",
"z.	c #FFDE58",
"A.	c #FFE064",
"B.	c #FFE36A",
"C.	c #FFDD55",
"D.	c #FFDA4F",
"E.	c #FFD847",
"F.	c #FFD53F",
"G.	c #FFD337",
"H.	c #FFE333",
"I.	c #FED029",
"J.	c #FECE28",
"K.	c #FFD540",
"L.	c #FFD647",
"M.	c #FFDB52",
"N.	c #FFDF5E",
"O.	c #FFE36B",
"P.	c #FFDC55",
"Q.	c #FFD94E",
"R.	c #FFD746",
"S.	c #FFE130",
"T.	c #FFD33A",
"U.	c #FFD84C",
"V.	c #FFDA52",
"W.	c #FFDC57",
"X.	c #FFDE5D",
"Y.	c #FFE269",
"Z.	c #FFE470",
"`.	c #FFE675",
" +	c #FFE573",
".+	c #FFE26B",
"++	c #FFDE5C",
"@+	c #FFDB55",
"#+	c #FFD646",
"$+	c #FFD43F",
"%+	c #FFE132",
"&+	c #FFD82F",
"*+	c #FFD434",
"=+	c #FFD239",
"-+	c #FFD84B",
";+	c #FFDA51",
">+	c #FFDD5D",
",+	c #FFDF62",
"'+	c #FFE268",
")+	c #FFE36E",
"!+	c #FFE472",
"~+	c #FFE26A",
"{+	c #FFE062",
"]+	c #FFDD5B",
"^+	c #FFDB54",
"/+	c #FFD84D",
"(+	c #FFD545",
"_+	c #FFD33D",
":+	c #FFD537",
"<+	c #FFD930",
"[+	c #FED12C",
"}+	c #FFD834",
"|+	c #FFD038",
"1+	c #FFD33F",
"2+	c #FFD64B",
"3+	c #FFD851",
"4+	c #FFDD5C",
"5+	c #FFE168",
"6+	c #FFE36D",
"7+	c #FFDF61",
"8+	c #FFDD59",
"9+	c #FFD952",
"0+	c #FFD74B",
"a+	c #FFD544",
"b+	c #FFD23C",
"c+	c #FED22D",
"d+	c #FECB2C",
"e+	c #FFDF34",
"f+	c #FFCF37",
"g+	c #FFD23E",
"h+	c #FFD443",
"i+	c #FFD649",
"j+	c #FFD74F",
"k+	c #FFDA55",
"l+	c #FFDC5A",
"m+	c #FFDE60",
"n+	c #FFE066",
"o+	c #FFE36C",
"p+	c #FFDE5F",
"q+	c #FFDB58",
"r+	c #FFD64A",
"s+	c #FFD342",
"t+	c #FFD03A",
"u+	c #FFE036",
"v+	c #FECB2B",
"w+	c #FFDD32",
"x+	c #FFD036",
"y+	c #FFD13C",
"z+	c #FFD241",
"A+	c #FFD448",
"B+	c #FFD74D",
"C+	c #FFD954",
"D+	c #FFDD5E",
"E+	c #FFDF64",
"F+	c #FFE16A",
"G+	c #FFE36F",
"H+	c #FFDC5D",
"I+	c #FFDA56",
"J+	c #FFD240",
"K+	c #FFD139",
"L+	c #FFDD34",
"M+	c #FECF2E",
"N+	c #FFD636",
"O+	c #FFCF3A",
"P+	c #FFD140",
"Q+	c #FFD446",
"R+	c #FFD54C",
"S+	c #FFD751",
"T+	c #FFDA57",
"U+	c #FFDC5C",
"V+	c #FFDE62",
"W+	c #FFE068",
"X+	c #FFE26D",
"Y+	c #FFDD61",
"Z+	c #FFDB5A",
"`+	c #FFD853",
" @	c #FFD64D",
".@	c #FFD345",
"+@	c #FFD03E",
"@@	c #FFD738",
"#@	c #FECE2F",
"$@	c #FEC92C",
"%@	c #FFDE36",
"&@	c #FFCE38",
"*@	c #FFD244",
"=@	c #FFD54A",
"-@	c #FFD650",
";@	c #FFD855",
">@	c #FFDD60",
",@	c #FFDF66",
"'@	c #FFE16B",
")@	c #FFE473",
"!@	c #FFE26C",
"~@	c #FFDF65",
"{@	c #FFDC5E",
"]@	c #FFD958",
"^@	c #FFD44A",
"/@	c #FFD243",
"(@	c #FFCF3B",
"_@	c #FFDE38",
":@	c #FECA2C",
"<@	c #FED131",
"[@	c #FFD037",
"}@	c #FFCE3D",
"|@	c #FFD142",
"1@	c #FFD348",
"2@	c #FFD54E",
"3@	c #FFD753",
"4@	c #FFDA58",
"5@	c #FFDB5E",
"6@	c #FFDE64",
"7@	c #FFE069",
"8@	c #FFE26E",
"9@	c #FFE370",
"0@	c #FFDD63",
"a@	c #FFDB5C",
"b@	c #FFD54F",
"c@	c #FFD040",
"d@	c #FFD13A",
"e@	c #FED132",
"f@	c #FEC82F",
"g@	c #FFDB38",
"h@	c #FFCE3A",
"i@	c #FFD246",
"j@	c #FFD44B",
"k@	c #FFD551",
"l@	c #FFD856",
"m@	c #FFDA5C",
"n@	c #FFDC61",
"o@	c #FFDE66",
"p@	c #FFE371",
"q@	c #FFE575",
"r@	c #FFE16C",
"s@	c #FFDC5F",
"t@	c #FFD959",
"u@	c #FFD653",
"v@	c #FFD44C",
"w@	c #FFD145",
"x@	c #FFDB3A",
"y@	c #FEC92E",
"z@	c #FFCE39",
"A@	c #FFCE3E",
"B@	c #FFD043",
"C@	c #FFD249",
"D@	c #FFD44F",
"E@	c #FFD654",
"F@	c #FFDC63",
"G@	c #FFDF68",
"H@	c #FFE677",
"I@	c #FFE26F",
"J@	c #FFD756",
"K@	c #FFD550",
"L@	c #FFCF42",
"M@	c #FFD335",
"N@	c #FEC72F",
"O@	c #FFDA39",
"P@	c #FFCD3B",
"Q@	c #FFCE41",
"R@	c #FFD147",
"S@	c #FFD24C",
"T@	c #FFD552",
"U@	c #FFD757",
"V@	c #FFD95C",
"W@	c #FFDB61",
"X@	c #FFE06B",
"Y@	c #FFE574",
"Z@	c #FFE471",
"`@	c #FFDA60",
" #	c #FFD859",
".#	c #FFD553",
"+#	c #FFD045",
"@#	c #FFCD3E",
"##	c #FFDA3B",
"$#	c #FEC730",
"%#	c #FECD33",
"&#	c #FFCD3F",
"*#	c #FFCF44",
"=#	c #FFD14A",
"-#	c #FFD34F",
";#	c #FFD554",
">#	c #FFDA5E",
",#	c #FFDB63",
"'#	c #FFDE68",
")#	c #FFE06D",
"!#	c #FFE474",
"~#	c #FFE16E",
"{#	c #FFDB62",
"]#	c #FFD656",
"^#	c #FFD149",
"/#	c #FFCE42",
"(#	c #FFCE3C",
"_#	c #FECE35",
":#	c #FEC932",
"<#	c #FFDA3A",
"[#	c #FFCC3C",
"}#	c #FFCD41",
"|#	c #FFCF47",
"1#	c #FFD14C",
"2#	c #FFD451",
"3#	c #FFD85B",
"4#	c #FFDA61",
"5#	c #FFDC65",
"6#	c #FFDF6A",
"7#	c #FFE373",
"8#	c #FFE576",
"9#	c #FFE270",
"0#	c #FFD95F",
"a#	c #FFD659",
"b#	c #FFD452",
"c#	c #FFCF45",
"d#	c #FFCC3F",
"e#	c #FFDA3C",
"f#	c #FEC731",
"g#	c #FEC733",
"h#	c #FFD03B",
"i#	c #FFCE44",
"j#	c #FFD049",
"k#	c #FFD24F",
"l#	c #FFD454",
"m#	c #FFD85E",
"n#	c #FFDA62",
"o#	c #FFDD67",
"p#	c #FFE06C",
"q#	c #FFDC67",
"r#	c #FFD555",
"s#	c #FFD048",
"t#	c #FFCD42",
"u#	c #FFD03D",
"v#	c #FEC833",
"w#	c #FFD73A",
"x#	c #FFCA3C",
"y#	c #FFCC41",
"z#	c #FFCE46",
"A#	c #FFD04C",
"B#	c #FFD251",
"C#	c #FFD456",
"D#	c #FFD75B",
"E#	c #FFD960",
"F#	c #FFDB64",
"G#	c #FFDD69",
"H#	c #FFE271",
"I#	c #FFE678",
"J#	c #FFDA63",
"K#	c #FFD558",
"L#	c #FFD352",
"M#	c #FFD04B",
"N#	c #FFCD45",
"O#	c #FFCB3E",
"P#	c #FEC534",
"Q#	c #FFD53C",
"R#	c #FFCA3E",
"S#	c #FFCC44",
"T#	c #FFCF49",
"U#	c #FFD04E",
"V#	c #FFD253",
"W#	c #FFD75C",
"X#	c #FFD961",
"Y#	c #FFDB66",
"Z#	c #FFDE6A",
"`#	c #FFE06E",
" $	c #FFE272",
".$	c #FFE475",
"+$	c #FFE16F",
"@$	c #FFDB65",
"#$	c #FFD85F",
"$$	c #FFD65A",
"%$	c #FFD354",
"&$	c #FFCE48",
"*$	c #FFCB41",
"=$	c #FFD63E",
"-$	c #FEC634",
";$	c #FEC736",
">$	c #FFCA41",
",$	c #FFCC46",
"'$	c #FFCF4B",
")$	c #FFD150",
"!$	c #FFD355",
"~$	c #FFD55A",
"{$	c #FFD75F",
"]$	c #FFD962",
"^$	c #FFDB67",
"/$	c #FFDE6B",
"($	c #FFE171",
"_$	c #FFDF6C",
":$	c #FFD861",
"<$	c #FFD65C",
"[$	c #FFD356",
"}$	c #FFCE4A",
"|$	c #FFCB44",
"1$	c #FEC836",
"2$	c #FFC83E",
"3$	c #FFCB43",
"4$	c #FFCC48",
"5$	c #FFCF4D",
"6$	c #FFD152",
"7$	c #FFD357",
"8$	c #FFD55B",
"9$	c #FFD760",
"0$	c #FFD964",
"a$	c #FFDC68",
"b$	c #FFDE6C",
"c$	c #FFE070",
"d$	c #FFE374",
"e$	c #FFDF6D",
"f$	c #FFDB68",
"g$	c #FFD963",
"h$	c #FFD65E",
"i$	c #FFD358",
"j$	c #FFCE4D",
"k$	c #FFC940",
"l$	c #FEC435",
"m$	c #FFD53E",
"n$	c #FFCA45",
"o$	c #FFCD4A",
"p$	c #FFCF4F",
"q$	c #FFD154",
"r$	c #FFD55D",
"s$	c #FFD761",
"t$	c #FFD965",
"u$	c #FFDC6A",
"v$	c #FFDF6E",
"w$	c #FFD65F",
"x$	c #FFD45A",
"y$	c #FFCF4E",
"z$	c #FFCC49",
"A$	c #FFC943",
"B$	c #FEC537",
"C$	c #FEC437",
"D$	c #FFC942",
"E$	c #FFCB47",
"F$	c #FFCD4C",
"G$	c #FFCF51",
"H$	c #FFD155",
"I$	c #FFD35A",
"J$	c #FFD55E",
"K$	c #FFD763",
"L$	c #FFD966",
"M$	c #FFDC6B",
"N$	c #FFE273",
"O$	c #FFDF6F",
"P$	c #FFD661",
"Q$	c #FFD45B",
"R$	c #FFD156",
"S$	c #FFCF50",
"T$	c #FFCC4B",
"U$	c #FFCD40",
"V$	c #FFCD3C",
"W$	c #FFC83F",
"X$	c #FFC844",
"Y$	c #FFCB49",
"Z$	c #FFCD4D",
"`$	c #FFCF52",
" %	c #FFD35B",
".%	c #FFD55F",
"+%	c #FFD967",
"@%	c #FFE372",
"#%	c #FFE06F",
"$%	c #FFD662",
"%%	c #FFD45D",
"&%	c #FFD157",
"*%	c #FFCA47",
"=%	c #FFC941",
"-%	c #FFD440",
";%	c #FFC741",
">%	c #FFC946",
",%	c #FFCA4A",
"'%	c #FFCD4F",
")%	c #FFCF54",
"!%	c #FFD158",
"~%	c #FFD35C",
"{%	c #FFD560",
"]%	c #FFD764",
"^%	c #FFD968",
"/%	c #FFDC6C",
"(%	c #ECCF6B",
"_%	c #D3AF59",
":%	c #B68442",
"<%	c #A46732",
"[%	c #994E24",
"}%	c #8D250E",
"|%	c #903215",
"1%	c #AA7037",
"2%	c #C0944A",
"3%	c #D5B25B",
"4%	c #F0D46E",
"5%	c #FFDD6C",
"6%	c #FFD663",
"7%	c #FFD45E",
"8%	c #FFD159",
"9%	c #FFCD4E",
"0%	c #FFCA48",
"a%	c #FFC843",
"b%	c #FFD541",
"c%	c #FEC338",
"d%	c #FFD341",
"e%	c #FFC642",
"f%	c #FFC847",
"g%	c #FFCB4C",
"h%	c #FFCD50",
"i%	c #FFD35D",
"j%	c #FFD561",
"k%	c #FFD765",
"l%	c #FFD969",
"m%	c #FFDD6B",
"n%	c #890000",
"o%	c #EFD36D",
"p%	c #D1AC58",
"q%	c #943D1B",
"r%	c #A15E2D",
"s%	c #B48241",
"t%	c #F2D76F",
"u%	c #C59C4F",
"v%	c #E8CA68",
"w%	c #FAE074",
"x%	c #B38040",
"y%	c #EDD16C",
"z%	c #A96D35",
"A%	c #FEE577",
"B%	c #DDBD61",
"C%	c #A46431",
"D%	c #9A5126",
"E%	c #CAA353",
"F%	c #C49A4E",
"G%	c #B07B3D",
"H%	c #8A1205",
"I%	c #EFD46D",
"J%	c #AE773B",
"K%	c #FFD664",
"L%	c #FFD45F",
"M%	c #FFD15A",
"N%	c #FFCF55",
"O%	c #FFC745",
"P%	c #FFD343",
"Q%	c #FEC43A",
"R%	c #FEC33A",
"S%	c #FFC744",
"T%	c #FFC849",
"U%	c #FFCB4D",
"V%	c #FFCD52",
"W%	c #FFD35E",
"X%	c #FFD562",
"Y%	c #FFD766",
"Z%	c #BF924A",
"`%	c #FBE275",
" &	c #FAE175",
".&	c #A2622F",
"+&	c #FDE577",
"@&	c #C49B4E",
"#&	c #8F2F13",
"$&	c #F3D970",
"%&	c #C79F50",
"&&	c #F5DB71",
"*&	c #AA6F37",
"=&	c #E5C666",
"-&	c #B78542",
";&	c #FFD665",
">&	c #FFD460",
",&	c #FFD15B",
"'&	c #FFCF56",
")&	c #FFCD51",
"!&	c #FFCA4C",
"~&	c #FFC746",
"{&	c #FFCD43",
"]&	c #FEC23A",
"^&	c #FEC33B",
"/&	c #FFC842",
"(&	c #FFC645",
"_&	c #FFC84A",
":&	c #FFCA4E",
"<&	c #FFCD53",
"[&	c #FFCF57",
"}&	c #FFD35F",
"|&	c #FFD463",
"1&	c #FFE170",
"2&	c #F9E074",
"3&	c #DFBF62",
"4&	c #D0AB57",
"5&	c #EBCF6B",
"6&	c #974921",
"7&	c #EBCE6A",
"8&	c #964720",
"9&	c #8F2C12",
"0&	c #C0944B",
"a&	c #E0C063",
"b&	c #F3D870",
"c&	c #FBE175",
"d&	c #E4C566",
"e&	c #CDA755",
"f&	c #AB7238",
"g&	c #E1C163",
"h&	c #8C1D0A",
"i&	c #EACD6A",
"j&	c #FFD461",
"k&	c #FFD15C",
"l&	c #FFCA4D",
"m&	c #FFC748",
"n&	c #FEC23C",
"o&	c #FFCA40",
"p&	c #FFC647",
"q&	c #FFC84B",
"r&	c #FFCB4F",
"s&	c #FFCC54",
"t&	c #FFD360",
"u&	c #FFDA68",
"v&	c #BE9149",
"w&	c #923B1A",
"x&	c #B98945",
"y&	c #A66A34",
"z&	c #E3C565",
"A&	c #B98A45",
"B&	c #FEE678",
"C&	c #F4D970",
"D&	c #95451F",
"E&	c #BB8C46",
"F&	c #F2D870",
"G&	c #C1964C",
"H&	c #8C220C",
"I&	c #F1D66F",
"J&	c #E3C365",
"K&	c #AC753A",
"L&	c #AE763A",
"M&	c #FFD462",
"N&	c #FFD15D",
"O&	c #FFCF58",
"P&	c #FFCC53",
"Q&	c #FFC749",
"R&	c #FFC644",
"S&	c #FFCB40",
"T&	c #FFC443",
"U&	c #FFC648",
"V&	c #FFC84C",
"W&	c #FFCA50",
"X&	c #FFCC55",
"Y&	c #FFCE59",
"Z&	c #FFD05C",
"`&	c #FFD260",
" *	c #F1D56E",
".*	c #D4B05A",
"+*	c #ECD06B",
"@*	c #B98844",
"#*	c #E7C867",
"$*	c #CCA554",
"%*	c #E2C264",
"&*	c #E4C666",
"**	c #E3C465",
"=*	c #FFD362",
"-*	c #FFD15E",
";*	c #FFCA4F",
">*	c #FFC74B",
",*	c #FFC545",
"'*	c #FFD143",
")*	c #FFD144",
"!*	c #FFC444",
"~*	c #FFC549",
"{*	c #FFC84D",
"]*	c #FFCA51",
"^*	c #FFCC56",
"/*	c #FFD05D",
"(*	c #FFD867",
"_*	c #FFDB6A",
":*	c #DCBB60",
"<*	c #D2AD58",
"[*	c #D0AA57",
"}*	c #F5DA71",
"|*	c #903416",
"1*	c #C79E50",
"2*	c #8D2910",
"3*	c #9B5227",
"4*	c #DBBA5F",
"5*	c #AF793C",
"6*	c #A56832",
"7*	c #FFD15F",
"8*	c #FFC950",
"9*	c #FFC74C",
"0*	c #FFC546",
"a*	c #FFC446",
"b*	c #FFC54A",
"c*	c #FFC74E",
"d*	c #FFCA52",
"e*	c #FFCE5A",
"f*	c #FFD05E",
"g*	c #FFD25F",
"h*	c #FFD866",
"i*	c #B78643",
"j*	c #9B5427",
"k*	c #DAB85E",
"l*	c #FCE476",
"m*	c #C9A152",
"n*	c #A05C2C",
"o*	c #DCBC60",
"p*	c #FFE577",
"q*	c #FFD865",
"r*	c #FFD563",
"s*	c #FFCE5B",
"t*	c #FFC951",
"u*	c #FFC64C",
"v*	c #FFC448",
"w*	c #FFD046",
"x*	c #FEC03E",
"y*	c #FFCC45",
"z*	c #FFC346",
"A*	c #FFC54B",
"B*	c #FFC74F",
"C*	c #FFC953",
"D*	c #FFCC57",
"E*	c #FFCD5A",
"F*	c #FFD361",
"G*	c #8A1807",
"H*	c #BD9048",
"I*	c #EED26C",
"J*	c #B88743",
"K*	c #9D582A",
"L*	c #FDE476",
"M*	c #FFCB57",
"N*	c #FFC952",
"O*	c #FFC64E",
"P*	c #FFCD46",
"Q*	c #FFC945",
"R*	c #FFC347",
"S*	c #FFC54C",
"T*	c #FFC750",
"U*	c #FFC954",
"V*	c #FFCF5C",
"W*	c #FFDA67",
"X*	c #FBE376",
"Y*	c #C69D50",
"Z*	c #BA8B46",
"`*	c #E7C967",
" =	c #A36330",
".=	c #B27D3E",
"+=	c #CFAA57",
"@=	c #EFD46E",
"#=	c #D6B35B",
"$=	c #FFDD6A",
"%=	c #FFC64F",
"&=	c #FFC449",
"*=	c #FFC03F",
"==	c #FFC348",
"-=	c #FFC44D",
";=	c #FFC650",
">=	c #FFCB58",
",=	c #FFCD59",
"'=	c #FFCF5B",
")=	c #FFDC69",
"!=	c #E9CC69",
"~=	c #F8DE73",
"{=	c #933F1C",
"]=	c #AB7138",
"^=	c #F6DC72",
"/=	c #CFA956",
"(=	c #FEE677",
"_=	c #B27E3F",
":=	c #95411D",
"<=	c #FFD25E",
"[=	c #FFC853",
"}=	c #FFC54F",
"|=	c #FFC34A",
"1=	c #FEBF40",
"2=	c #FFC246",
"3=	c #FFC249",
"4=	c #FFC651",
"5=	c #FFC855",
"6=	c #FFCA56",
"7=	c #FFCC58",
"8=	c #D9B75E",
"9=	c #D8B65D",
"0=	c #A05D2D",
"a=	c #C8A051",
"b=	c #CEA956",
"c=	c #FFD762",
"d=	c #FFC854",
"e=	c #FFC550",
"f=	c #FFC34B",
"g=	c #FFC146",
"h=	c #FFC24A",
"i=	c #FFC34E",
"j=	c #FFC552",
"k=	c #FFD864",
"l=	c #FFDA66",
"m=	c #BE9047",
"n=	c #A46530",
"o=	c #D1A955",
"p=	c #D3AD57",
"q=	c #C79C4E",
"r=	c #AC7338",
"s=	c #943C1A",
"t=	c #A66732",
"u=	c #AC7438",
"v=	c #EACA67",
"w=	c #EDCE69",
"x=	c #AB7237",
"y=	c #A4632F",
"z=	c #974720",
"A=	c #B78441",
"B=	c #F1D36C",
"C=	c #E3C162",
"D=	c #AE7539",
"E=	c #C79D4F",
"F=	c #923617",
"G=	c #F8DB70",
"H=	c #FFCF5A",
"I=	c #FFC955",
"J=	c #FFC754",
"K=	c #FFC451",
"L=	c #FFC24C",
"M=	c #FFC147",
"N=	c #FEBE41",
"O=	c #FFC047",
"P=	c #FFC14B",
"Q=	c #FFC34F",
"R=	c #FFCE58",
"S=	c #FFD05A",
"T=	c #FFD25D",
"U=	c #FFD863",
"V=	c #D1A954",
"W=	c #FBE072",
"X=	c #F2D56C",
"Y=	c #DEBC5E",
"Z=	c #B27C3C",
"`=	c #A86D34",
" -	c #EFD16A",
".-	c #8C1D09",
"+-	c #8C210B",
"@-	c #F0D26A",
"#-	c #C3974A",
"$-	c #A25F2D",
"%-	c #D7B259",
"&-	c #EDCE68",
"*-	c #8F2B11",
"=-	c #BC8D45",
"--	c #F5D96E",
";-	c #DFBD5F",
">-	c #F1D36B",
",-	c #E3C161",
"'-	c #F8DC70",
")-	c #913818",
"!-	c #C79C4D",
"~-	c #FFCF59",
"{-	c #FFC753",
"]-	c #FFC048",
"^-	c #FEBD42",
"/-	c #FFBF47",
"(-	c #FFC04B",
"_-	c #FFC24F",
":-	c #FFC551",
"<-	c #FFC752",
"[-	c #FFCB55",
"}-	c #FFCD57",
"|-	c #BE8F45",
"1-	c #A4652F",
"2-	c #D1A953",
"3-	c #B27B3B",
"4-	c #F9DC6E",
"5-	c #C99E4E",
"6-	c #CDA450",
"7-	c #FDE071",
"8-	c #933E1A",
"9-	c #D0A752",
"0-	c #F8DA6D",
"a-	c #C79B4C",
"b-	c #994A21",
"c-	c #B4803E",
"d-	c #F5D86C",
"e-	c #DFBC5D",
"f-	c #F1D269",
"g-	c #E3C05F",
"h-	c #AE7538",
"i-	c #CFA752",
"j-	c #8D240D",
"k-	c #F4D56B",
"l-	c #FFC652",
"m-	c #FFC450",
"n-	c #FFC14D",
"o-	c #FEBD43",
"p-	c #FFC24E",
"q-	c #FFC751",
"r-	c #FFCB54",
"s-	c #FFDA65",
"t-	c #BE8E44",
"u-	c #A4642E",
"v-	c #D1A851",
"w-	c #A05A28",
"x-	c #DBB659",
"y-	c #FBDD6D",
"z-	c #9C5325",
"A-	c #994A20",
"B-	c #FCDF6E",
"C-	c #E1BD5C",
"D-	c #F3D368",
"E-	c #B47F3C",
"F-	c #96451E",
"G-	c #FDE06F",
"H-	c #AB6F33",
"I-	c #F5D76A",
"J-	c #DFBB5C",
"K-	c #F1D267",
"L-	c #E3BF5E",
"M-	c #AE7436",
"N-	c #97481F",
"O-	c #BF8F44",
"P-	c #FFC049",
"Q-	c #FFC852",
"R-	c #FFCA54",
"S-	c #FFCE57",
"T-	c #FFD059",
"U-	c #FFD25B",
"V-	c #AC7335",
"W-	c #FCDE6E",
"X-	c #B7833E",
"Y-	c #AB7034",
"Z-	c #DDB95A",
"`-	c #E3C05E",
" ;	c #B27C3A",
".;	c #8F2E11",
"+;	c #F7D86B",
"@;	c #D6B056",
"#;	c #8A1204",
"$;	c #EFCF66",
"%;	c #FFDF6B",
"&;	c #FFC851",
"*;	c #FFC14C",
"=;	c #FFC04A",
"-;	c #FEBC44",
";;	c #FFC14A",
">;	c #FFBF4A",
",;	c #FFC34D",
"';	c #FFC850",
");	c #FFCD56",
"!;	c #FFD25C",
"~;	c #FFD660",
"{;	c #FFDD68",
"];	c #FFDE69",
"^;	c #BE8C41",
"/;	c #A4632C",
"(;	c #D1A64E",
"_;	c #BD8A40",
":;	c #B9833D",
"<;	c #FEDE6B",
"[;	c #F8D768",
"};	c #8C1C08",
"|;	c #BA863E",
"1;	c #CDA14C",
"2;	c #EBC760",
"3;	c #F7D567",
"4;	c #DFB958",
"5;	c #F1CF64",
"6;	c #E3BD5A",
"7;	c #AE7334",
"8;	c #FDDD6B",
"9;	c #9E5726",
"0;	c #B6803B",
"a;	c #FFC54E",
"b;	c #FFC24D",
"c;	c #FEBB44",
"d;	c #FFC44A",
"e;	c #FFBE49",
"f;	c #FFC34C",
"g;	c #FFCB53",
"h;	c #FFD862",
"i;	c #FDDC6B",
"j;	c #B07536",
"k;	c #C49446",
"l;	c #D6AD52",
"m;	c #8D270D",
"n;	c #F9D869",
"o;	c #E9C55F",
"p;	c #C39345",
"q;	c #DDB657",
"r;	c #EAC55F",
"s;	c #FFCD55",
"t;	c #FFBB46",
"u;	c #FFC74A",
"v;	c #FFBE48",
"w;	c #FFC24B",
"x;	c #FFDA64",
"y;	c #BE8C3F",
"z;	c #A4622B",
"A;	c #D1A54C",
"B;	c #F9D766",
"C;	c #A35F29",
"D;	c #D0A44C",
"E;	c #A86A2E",
"F;	c #D9B052",
"G;	c #FDDC68",
"H;	c #97471D",
"I;	c #F5D363",
"J;	c #F7D464",
"K;	c #DFB856",
"L;	c #F1CE61",
"M;	c #E3BC58",
"N;	c #AE7233",
"O;	c #FEDD69",
"P;	c #A6652C",
"Q;	c #AE7132",
"R;	c #FFD058",
"S;	c #FFCE56",
"T;	c #FFCB51",
"U;	c #FFBF49",
"V;	c #FEBA45",
"W;	c #FFC94A",
"X;	c #FFBE47",
"Y;	c #FFC64D",
"Z;	c #FFCB52",
"`;	c #BE8B3F",
" >	c #A4622A",
".>	c #D1A44B",
"+>	c #F4D062",
"@>	c #99481D",
"#>	c #DCB353",
"$>	c #F1CC5F",
"%>	c #FDDB67",
"&>	c #96431B",
"*>	c #D5AA4E",
"=>	c #B07433",
"->	c #FEDB67",
";>	c #F7D463",
">>	c #DFB755",
",>	c #F1CD60",
"'>	c #E3BB57",
")>	c #AE7232",
"!>	c #E4BD58",
"~>	c #E3BC57",
"{>	c #FFD45C",
"]>	c #FFCD54",
"^>	c #FFC54D",
"/>	c #FEBA44",
"(>	c #FFBD46",
"_>	c #FFBF48",
":>	c #FFC84F",
"<>	c #FFCC52",
"[>	c #FFCE55",
"}>	c #FFDC66",
"|>	c #BE8A3E",
"1>	c #A4612A",
"2>	c #D1A34B",
"3>	c #EDC75D",
"4>	c #903112",
"5>	c #8C1B07",
"6>	c #E5BD58",
"7>	c #CB9C47",
"8>	c #902F10",
"9>	c #FBD765",
"0>	c #C69644",
"a>	c #F3CE60",
"b>	c #FCD965",
"c>	c #9C5121",
"d>	c #FDD966",
"e>	c #F7D362",
"f>	c #DFB654",
"g>	c #E3BA56",
"h>	c #AC6F31",
"i>	c #FFD25A",
"j>	c #FFD057",
"k>	c #FFC848",
"l>	c #FFBD45",
"m>	c #FFBE46",
"n>	c #FFC84E",
"o>	c #BE893C",
"p>	c #A46028",
"q>	c #D1A248",
"r>	c #E4BA54",
"s>	c #8A1605",
"t>	c #903111",
"u>	c #EDC55A",
"v>	c #FED964",
"w>	c #9B4E1F",
"x>	c #ECC559",
"y>	c #CE9F47",
"z>	c #8F2C0E",
"A>	c #AC6E2F",
"B>	c #EEC65A",
"C>	c #EFC85B",
"D>	c #DFB452",
"E>	c #F1CA5C",
"F>	c #E3B853",
"G>	c #AE7030",
"H>	c #EBC258",
"I>	c #FFC149",
"J>	c #FFC948",
"K>	c #FFC245",
"L>	c #FFBD44",
"M>	c #FFBE45",
"N>	c #FFC148",
"O>	c #FFC349",
"P>	c #FFC64B",
"Q>	c #FFC74D",
"R>	c #FFC94E",
"S>	c #FFCB50",
"T>	c #FFCC51",
"U>	c #FFD259",
"V>	c #D9AC4E",
"W>	c #97461B",
"X>	c #F3CC5D",
"Y>	c #E7BE56",
"Z>	c #E7BD56",
"`>	c #A45F28",
" ,	c #9E5523",
".,	c #E2B853",
"+,	c #8D260B",
"@,	c #B47B35",
"#,	c #D7AB4D",
"$,	c #F8D260",
"%,	c #FED863",
"&,	c #FBD662",
"*,	c #F5CE5E",
"=,	c #D1A249",
"-,	c #B07432",
";,	c #8A1103",
">,	c #B87F37",
",,	c #FFBF46",
"',	c #FFC345",
"),	c #FEB940",
"!,	c #FFBF43",
"~,	c #FFBF45",
"{,	c #FFC248",
"],	c #FFCE54",
"^,	c #FFD056",
"/,	c #FFD55C",
"(,	c #FFD65D",
"_,	c #BE873A",
":,	c #A45F27",
"<,	c #D19F46",
"[,	c #CB9843",
"},	c #A15723",
"|,	c #F8CF5D",
"1,	c #BF883B",
"2,	c #9B4C1E",
"3,	c #FED661",
"4,	c #D2A247",
"5,	c #EABE55",
"6,	c #EEC458",
"7,	c #A25A24",
"8,	c #EEC357",
"9,	c #C48F3E",
"0,	c #B07230",
"a,	c #AE6E2E",
"b,	c #F0C659",
"c,	c #8A1003",
"d,	c #FFC046",
"e,	c #FFBE44",
"f,	c #FFBF44",
"g,	c #FEB941",
"h,	c #FFC343",
"i,	c #FFBC43",
"j,	c #A45F26",
"k,	c #D19F45",
"l,	c #BD8539",
"m,	c #AB692B",
"n,	c #FBD35E",
"o,	c #923211",
"p,	c #CB9842",
"q,	c #F5CC5B",
"r,	c #C28D3C",
"s,	c #D5A548",
"t,	c #9E5220",
"u,	c #923613",
"v,	c #BF883A",
"w,	c #E7BB52",
"x,	c #C48F3D",
"y,	c #B0722F",
"z,	c #C0893B",
"A,	c #FFC344",
"B,	c #FEB83E",
"C,	c #FFBC41",
"D,	c #FFBD43",
"E,	c #FFC64A",
"F,	c #FFC94D",
"G,	c #FFCC50",
"H,	c #FFCE53",
"I,	c #FFD055",
"J,	c #FFD258",
"K,	c #BE8638",
"L,	c #A45F25",
"M,	c #D19F44",
"N,	c #FDD35D",
"O,	c #B0702E",
"P,	c #B67A32",
"Q,	c #FED55D",
"R,	c #DDAF4B",
"S,	c #F0C556",
"T,	c #B27530",
"U,	c #943813",
"V,	c #FCD35D",
"W,	c #E8BC52",
"X,	c #D09E44",
"Y,	c #B47932",
"Z,	c #A25A23",
"`,	c #974318",
" '	c #8C1E07",
".'	c #913411",
"+'	c #9E5320",
"@'	c #CD9B42",
"#'	c #E6B950",
"$'	c #C48E3C",
"%'	c #B0712E",
"&'	c #AE6E2D",
"*'	c #F5CA58",
"='	c #8D250A",
"-'	c #FFC247",
";'	c #FFC045",
">'	c #FFBE43",
",'	c #FFBC42",
"''	c #FFBB40",
")'	c #FFBD41",
"!'	c #FFC447",
"~'	c #FFCE52",
"{'	c #FFD359",
"]'	c #FFCB4E",
"^'	c #FFC548",
"/'	c #FFBE42",
"('	c #FFC040",
"_'	c #FFBB3F",
":'	c #FFBC40",
"<'	c #FFBC3F",
"['	c #FEB73C",
"}'	c #FFBF3F",
"|'	c #FFC043",
"1'	c #FFC144",
"2'	c #FFC94C",
"3'	c #FFCC4F",
"4'	c #FFBF42",
"5'	c #FEB83B",
"6'	c #FEB73A",
"7'	c #FFC640",
"8'	c #FFBA3D",
"9'	c #FFBD40",
"0'	c #FFC244",
"a'	c #FFC547",
"b'	c #FFC94B",
"c'	c #FFCF53",
"d'	c #FFD257",
"e'	c #FFCC4E",
"f'	c #FFC143",
"g'	c #FFBE41",
"h'	c #FFBA3E",
"i'	c #FFC53F",
"j'	c #FFBA3C",
"k'	c #FFBB3E",
"l'	c #FFBD3F",
"m'	c #FFBE40",
"n'	c #FFBF41",
"o'	c #FFCA4B",
"p'	c #FFC042",
"q'	c #FFBC3E",
"r'	c #FFC63F",
"s'	c #FEB739",
"t'	c #FFBC3B",
"u'	c #FFBB3D",
"v'	c #FFC142",
"w'	c #FFC445",
"x'	c #FFCE51",
"y'	c #FFBE3F",
"z'	c #FFBD3C",
"A'	c #FEB839",
"B'	c #FEB638",
"C'	c #FFC43D",
"D'	c #FFB93A",
"E'	c #FFBC3D",
"F'	c #FFBD3E",
"G'	c #FFBF40",
"H'	c #FFC041",
"I'	c #FFC242",
"J'	c #FFC243",
"K'	c #FFC949",
"L'	c #FFBD3D",
"M'	c #FFBB3C",
"N'	c #FFBA3B",
"O'	c #FFC43C",
"P'	c #FFB839",
"Q'	c #FFBA3A",
"R'	c #FFBE3E",
"S'	c #FFC646",
"T'	c #FFC747",
"U'	c #FFC141",
"V'	c #FFBC3C",
"W'	c #FEB537",
"X'	c #FFBD39",
"Y'	c #FFB939",
"Z'	c #FFC241",
"`'	c #FFBB3B",
" )	c #FEB536",
".)	c #FEB635",
"+)	c #FFC63A",
"@)	c #FFB837",
"#)	c #FFBA39",
"$)	c #FFBE3D",
"%)	c #FFBF3E",
"&)	c #FFC240",
"*)	c #FFC342",
"=)	c #FFC544",
"-)	c #FFBB3A",
";)	c #FFC63B",
">)	c #FEB735",
",)	c #FEB935",
"')	c #FFBA36",
"))	c #FFB938",
"!)	c #FFBC3A",
"~)	c #FFBF3D",
"{)	c #FFC13F",
"])	c #FFC442",
"^)	c #FFC341",
"/)	c #FFC03E",
"()	c #FFBA38",
"_)	c #FFB937",
":)	c #FEBA36",
"<)	c #FEB432",
"[)	c #FFC338",
"})	c #FFB735",
"|)	c #FFBB39",
"1)	c #FFBE3C",
"2)	c #FFC13E",
"3)	c #FFC543",
"4)	c #FFC340",
"5)	c #FFC03D",
"6)	c #FFBF3C",
"7)	c #FFBD3B",
"8)	c #FEB332",
"9)	c #FFBC35",
"0)	c #FFB834",
"a)	c #FFB936",
"b)	c #FFBA37",
"c)	c #FFBB38",
"d)	c #FFBE3B",
"e)	c #FFC23F",
"f)	c #FFB835",
"g)	c #FFBD35",
"h)	c #FEB331",
"i)	c #FFC336",
"j)	c #FFB733",
"k)	c #FFBC39",
"l)	c #FFC13D",
"m)	c #FFC846",
"n)	c #FFBF3B",
"o)	c #FFBD3A",
"p)	c #FFB734",
"q)	c #FEB231",
"r)	c #FEB932",
"s)	c #FFB833",
"t)	c #FFB633",
"u)	c #FFB935",
"v)	c #FFBB37",
"w)	c #FFBC38",
"x)	c #FFBE3A",
"y)	c #FFC03C",
"z)	c #FFC441",
"A)	c #FEB22E",
"B)	c #FFC434",
"C)	c #FFB531",
"D)	c #FFB732",
"E)	c #FFB934",
"F)	c #FFBA35",
"G)	c #FFBE39",
"H)	c #FFC03B",
"I)	c #FFC13C",
"J)	c #FFBF3A",
"K)	c #FFC435",
"L)	c #FEB12F",
"M)	c #FEB62F",
"N)	c #FFBC32",
"O)	c #FFB631",
"P)	c #FFBA34",
"Q)	c #FFBB36",
"R)	c #FFBD38",
"S)	c #FFC23E",
"T)	c #FFBC37",
"U)	c #FFC231",
"V)	c #FFB62F",
"W)	c #FFB630",
"X)	c #FFB731",
"Y)	c #FFB933",
"Z)	c #FFBB35",
"`)	c #FFBC36",
" !	c #FFBD37",
".!	c #FFBE38",
"+!	c #FFC232",
"@!	c #FEB22D",
"#!	c #FFB42F",
"$!	c #FFB52F",
"%!	c #FFB932",
"&!	c #FEB12D",
"*!	c #FEB62C",
"=!	c #FFBC2F",
"-!	c #FFB52E",
";!	c #FFB730",
">!	c #FFB831",
",!	c #FFBA33",
"'!	c #FFBB34",
")!	c #FFB62E",
"!!	c #FEB52C",
"~!	c #FFBB2D",
"{!	c #FFB72D",
"]!	c #FFB52D",
"^!	c #FFB931",
"/!	c #FFBF39",
"(!	c #FFC03A",
"_!	c #FFB830",
":!	c #FFBC2D",
"<!	c #FFC12E",
"[!	c #FFB42B",
"}!	c #FFB52C",
"|!	c #FFB72F",
"1!	c #FEB228",
"2!	c #FFC22D",
"3!	c #FFB32A",
"4!	c #FFB62D",
"5!	c #FFB72E",
"6!	c #FFB82F",
"7!	c #FFB930",
"8!	c #FFBA32",
"9!	c #FFB42C",
"0!	c #FFB32B",
"a!	c #FEB229",
"b!	c #FEB329",
"c!	c #FFC12C",
"d!	c #FFB329",
"e!	c #FFB42A",
"f!	c #FFB52B",
"g!	c #FEB328",
"h!	c #FEB428",
"i!	c #FFC02A",
"j!	c #FFB228",
"k!	c #FFB429",
"l!	c #FFB327",
"m!	c #FFB227",
"n!	c #FFB328",
"o!	c #FFB62C",
"p!	c #FFB52A",
"q!	c #FFB427",
"r!	c #FEB325",
"s!	c #FFC129",
"t!	c #FFB326",
"u!	c #FEB224",
"v!	c #FFBD27",
"w!	c #FFB626",
"x!	c #FFB126",
"y!	c #FFB428",
"z!	c #FEB324",
"A!	c #FEB524",
"B!	c #FFBC26",
"C!	c #FFB124",
"D!	c #FFB226",
"E!	c #FFBF26",
"F!	c #FFB524",
"G!	c #FFB024",
"H!	c #FEB423",
"I!	c #FFBE26",
"J!	c #FFB323",
"K!	c #FFB324",
"L!	c #FFB424",
"M!	c #FFB125",
"N!	c #FFBE25",
"O!	c #FEB323",
"P!	c #FFB925",
"Q!	c #FFB223",
"R!	c #FFB225",
"S!	c #FFB924",
"T!	c #FFBD25",
"U!	c #FFBB25",
"V!	c #FFB624",
"W!	c #FFB123",
"X!	c #FFB023",
"Y!	c #FEB123",
"Z!	c #FEB023",
"`!	c #FFB824",
" ~	c #FFBC25",
".~	c #FFBD26",
"                                                . + @ # $ % & * = - ; > , ' ' ' ' ' ' ' ' ' ' ' ' ' ' ' ' ' ' ' ' ' ' ' ' ' ' ' ' ' ' ' ' ' ' ' ' ' ' ' ' ' ' ' ' ' ' ' ' ' ' ' ' ' ' ' ' ' ' ' ' ' ' ' ' ' ' ' ' ' ' ' ' ' ' ' ' ' ' ' ' ' ' ' ' ' ' ' ' ' ' ' ' ' ' ' ' ' ' ' ' ' ' ' ' ' ' ' ' ' ' ' ' ' ' ' ' ' ' ' ' ' ' ' ' ' ' ' ' ' ' ' ' ' ' ' ' ' ' ' ' ' ' ' ' ' ' ' ' ' ' ' ' ' ' ' ' ' ' ' ' ' ' ' ' ' ' ' ' ' ' ' ' ' ' ' ' ' ' ' ' ' ' ' ' ' ' ' ' ' ' ' ' ' ' ' ' ' ' ' ' ' ' ' ' ' ' ' ' ' ' ' ' ' ' ' ' ' ' ' ' ' ' ' ' ' ' ' ' ' ' ' ' ' ' ' ' ' ' ' ' ' ' ' ' ' ' ' ' ' ' ' ' ' ' ' ' ' ' ' ' ' ' ' ' ' ' ' ' ' ' ' ' ' ' ' ' ' ' ' ' ' ' ' ' ' ' ' ' ' ' ' ' ' ' ' ' ' ' ' ' ' ' ' ' ' ' ' ' ' ' ' ' ' ' ' ' ' ' ' ' ' ' ' ' ' ) ! ; - = * ~ { ] ^ / (                                                     ",
"                                            . _ ^ : < ~ * [ ; ' } | 1 2 3 4 4 4 4 4 4 4 4 4 4 4 4 4 4 4 4 4 4 4 4 4 4 4 4 4 4 4 4 4 4 4 4 4 4 4 4 4 4 4 4 4 4 4 4 4 4 4 4 4 4 4 4 4 4 4 4 4 4 4 4 4 4 4 4 4 4 4 4 4 4 4 4 4 4 4 4 4 4 4 4 4 4 4 4 4 4 4 4 4 4 4 4 4 4 4 4 4 4 4 4 4 4 4 4 4 4 4 4 4 4 4 4 4 4 4 4 4 4 4 4 4 4 4 4 4 4 4 4 4 4 4 4 4 4 4 4 4 4 4 4 4 4 4 4 4 4 4 4 4 4 4 4 4 4 4 4 4 4 4 4 4 4 4 4 4 4 4 4 4 4 4 4 4 4 4 4 4 4 4 4 4 4 4 4 4 4 4 4 4 4 4 4 4 4 4 4 4 4 4 4 4 4 4 4 4 4 4 4 4 4 4 4 4 4 4 4 4 4 4 4 4 4 4 4 4 4 4 4 4 4 4 4 4 4 4 4 4 4 4 4 4 4 4 4 4 4 4 4 4 4 4 4 4 4 4 4 4 4 4 4 4 4 4 4 4 4 4 4 4 4 4 4 4 4 4 4 4 4 4 4 4 4 4 4 4 4 4 4 4 4 4 4 4 4 4 4 4 4 4 4 4 4 4 4 4 4 4 4 4 4 4 4 4 4 4 4 4 4 4 4 4 4 4 4 4 3 5 6 7 8 ' > - 9 0 a b c d                                                 ",
"                                          e @ f g & h i ) j 7 5 k l m n o p q q q q q q q q q q q q q q q q q q q q q q q q q q q q q q q q q q q q q q q q q q q q q q q q q q q q q q q q q q q q q q q q q q q q q q q q q q q q q q q q q q q q q q q q q q q q q q q q q q q q q q q q q q q q q q q q q q q q q q q q q q q q q q q q q q q q q q q q q q q q q q q q q q q q q q q q q q q q q q q q q q q q q q q q q q q q q q q q q q q q q q q q q q q q q q q q q q q q q q q q q q q q q q q q q q q q q q q q q q q q q q q q q q q q q q q q q q q q q q q q q q q q q q q q q q q q q q q q q q q q q q q q q q q q q q q q q q q q q q q q q q q q q q q q q q q q q q q q q q q q q q q q q q q q q q q q q q q q q q q q q q q q p r s m l 4 6 8 ) t u 0 v w x                                               ",
"                                      ( y z A ~ u i ) 8 6 k B C p D E F G H I I I I I I I I I I I I I I I I I I I I I I I I I I I I I I I I I I I I I I I I I I I I I I I I I I I I I I I I I I I I I I I I I I I I I I I I I I I I I I I I I I I I I I I I I I I I I I I I I I I I I I I I I I I I I I I I I I I I I I I I I I I I I I I I I I I I I I I I I I I I I I I I I I I I I I I I I I I I I I I I I I I I I I I I I I I I I I I I I I I I I I I I I I I I I I I I I I I I I I I I I I I I I I I I I I I I I I I I I I I I I I I I I I I I I I I I I I I I I I I I I I I I I I I I I I I I I I I I I I I I I I I I I I I I I I I I I I I I I I I I I I I I I I I I I I I I I I I I I I I I I I I I I I I I I I I I I I I I I I I I I I I I I G F J K p C l 3 7 L t u M N O P                                           ",
"                                    Q R S % T - ! j 1 4 U o V E W X Y Z Z ` ` ` ` ` ` ` ` ` ` ` ` ` ` ` ` ` ` ` ` ` ` ` ` ` ` ` ` ` ` ` ` ` ` ` ` ` ` ` ` ` ` ` ` ` ` ` ` ` ` ` ` ` ` ` ` ` ` ` ` ` ` ` ` ` ` ` ` ` ` ` ` ` ` ` ` ` ` ` ` ` ` ` ` ` ` ` ` ` ` ` ` ` ` ` ` ` ` ` ` ` ` ` ` ` ` ` ` ` ` ` ` ` ` ` ` ` ` ` ` ` ` ` ` ` ` ` ` ` ` ` ` ` ` ` ` ` ` ` ` ` ` ` ` ` ` ` ` ` ` ` ` ` ` ` ` ` ` ` ` ` ` ` ` ` ` ` ` ` ` ` ` ` ` ` ` ` ` ` ` ` ` ` ` ` ` ` ` ` ` ` ` ` ` ` ` ` ` ` ` ` ` ` ` ` ` ` ` ` ` ` ` ` ` ` ` ` ` ` ` ` ` ` ` ` ` ` ` ` ` ` ` ` ` ` ` ` ` ` ` ` ` ` ` ` ` ` ` ` ` ` ` ` ` ` ` ` ` ` ` ` ` ` ` ` ` ` ` ` ` ` ` ` ` ` ` ` ` ` ` ` ` ` ` ` ` ` ` ` ` ` ` ` ` ` ` ` ` ` ` ` ` ` ` ` ` ` ` ` ` ` ` ` ` ` ` ` ` ` ` ` ` ` ` ` ` ` Z Z  .H ..D s B 3 | ) - +.@.#.$.                                        ",
"                                %.&.*.A =.u -.L 7 3 B s V E ;.>.Z ` Z Z Z Z Z Z Z Z Z Z Z Z Z Z Z Z Z Z Z Z Z Z Z Z Z Z Z Z Z Z Z Z Z Z Z Z Z Z Z Z Z Z Z Z Z Z Z Z Z Z Z Z Z Z Z Z Z Z Z Z Z Z Z Z Z Z Z Z Z Z Z Z Z Z Z Z Z Z Z Z Z Z Z Z Z Z Z Z Z Z Z Z Z Z Z Z Z Z Z Z Z Z Z Z Z Z Z Z Z Z Z Z Z Z Z Z Z Z Z Z Z Z Z Z Z Z Z Z Z Z Z Z Z Z Z Z Z Z Z Z Z Z Z Z Z Z Z Z Z Z Z Z Z Z Z Z Z Z Z Z Z Z Z Z Z Z Z Z Z Z Z Z Z Z Z Z Z Z Z Z Z Z Z Z Z Z Z Z Z Z Z Z Z Z Z Z Z Z Z Z Z Z Z Z Z Z Z Z Z Z Z Z Z Z Z Z Z Z Z Z Z Z Z Z Z Z Z Z Z Z Z Z Z Z Z Z Z Z Z Z Z Z Z Z Z Z Z Z Z Z Z Z Z Z Z Z Z Z Z Z Z Z Z Z Z Z Z Z Z Z Z Z Z Z Z Z Z Z Z Z Z Z Z Z Z Z Z Z Z Z Z Z Z Z Z Z Z Z Z Z Z Z Z Z Z Z Z Z Z Z Z Z Z Z Z Z Z Z Z Z Z Z Z Z Z Z Z Z Z Z Z Z ` ` Y X ..K s l 2 } ; u M ,.'.).                                    ",
"                              !.y ~.g & = > } 6 {.].p ^.W >.Z Z Z Z Z Z Z Z Z Z Z Z Z Z Z Z Z Z Z Z Z Z Z Z Z Z Z Z Z Z Z Z Z Z Z Z Z Z Z Z Z Z Z Z Z Z Z Z Z Z Z Z Z Z Z Z Z Z Z Z Z Z Z Z Z Z Z Z Z Z Z Z Z Z Z Z Z Z Z Z Z Z Z Z Z Z Z Z Z Z Z Z Z Z Z Z Z Z Z Z Z Z Z Z Z Z Z Z Z Z Z Z Z Z Z Z Z Z Z Z Z Z Z Z Z Z Z Z Z Z Z Z Z Z Z Z Z Z Z Z Z Z Z Z Z Z Z Z Z Z Z Z Z Z Z Z Z Z Z Z Z Z Z Z Z Z Z Z Z Z Z Z Z Z Z Z Z Z Z Z Z Z Z Z Z Z Z Z Z Z Z Z Z Z Z Z Z Z Z Z Z Z Z Z Z Z Z Z Z Z Z Z Z Z Z Z Z Z Z Z Z Z Z Z Z Z Z Z Z Z Z Z Z Z Z Z Z Z Z Z Z Z Z Z Z Z Z Z Z Z Z Z Z Z Z Z Z Z Z Z Z Z Z Z Z Z Z Z Z Z Z Z Z Z Z Z Z Z Z Z Z Z Z Z Z Z Z Z Z Z Z Z Z Z Z Z Z Z Z Z Z Z Z Z Z Z Z Z Z Z Z Z Z Z Z Z Z Z Z Z Z Z Z Z Z Z Z Z Z Z Z Z Z Z Z Z Z Z Z ` Z X J /.m 4 | , (._.:.O !.                                  ",
"                            <.@ [.}.|.1.2.8 3.4.C V J I Z Z Z Z Z Z Z Z Z Z Z Z Z Z Z Z Z Z Z Z Z Z Z Z Z Z Z Z Z Z Z Z Z Z Z Z Z Z Z Z Z Z Z Z Z Z Z Z Z Z Z Z Z Z Z Z Z Z Z Z Z Z Z Z Z Z Z Z Z Z Z Z Z Z Z Z Z Z Z Z Z Z Z Z Z Z Z Z Z Z Z Z Z Z Z Z Z Z Z Z Z Z Z Z Z Z Z Z Z Z Z Z Z Z Z Z Z Z Z Z Z Z Z Z Z Z Z Z Z Z Z Z Z Z Z Z Z Z Z Z Z Z Z Z Z Z Z Z Z Z Z Z Z Z Z Z Z Z Z Z Z Z Z Z Z Z Z Z Z Z Z Z Z Z Z Z Z Z Z Z Z Z Z Z Z Z Z Z Z Z Z Z Z Z Z Z Z Z Z Z Z Z Z Z Z Z Z Z Z Z Z Z Z Z Z Z Z Z Z Z Z Z Z Z Z Z Z Z Z Z Z Z Z Z Z Z Z Z Z Z Z Z Z Z Z Z Z Z Z Z Z Z Z Z Z Z Z Z Z Z Z Z Z Z Z Z Z Z Z Z Z Z Z Z Z Z Z Z Z Z Z Z Z Z Z Z Z Z Z Z Z Z Z Z Z Z Z Z Z Z Z Z Z Z Z Z Z Z Z Z Z Z Z Z Z Z Z Z Z Z Z Z Z Z Z Z Z Z Z Z Z Z Z Z Z Z Z Z Z Z Z Z Z Z >.W D C {.5.6.7.8.9.0.<.                                ",
"                          a.b.c.d.e.7.f.g.h.i.j.K F k.Z Z Z Z Z Z Z Z Z Z Z Z Z Z Z Z Z Z Z Z Z Z Z Z Z Z Z Z Z Z Z Z Z Z Z Z Z Z Z Z Z Z Z Z Z Z Z Z Z Z Z Z Z Z Z Z Z Z Z Z Z Z Z Z Z Z Z Z Z Z Z Z Z Z Z Z Z Z Z Z Z Z Z Z Z Z Z Z Z Z Z Z Z Z Z Z Z Z Z Z Z Z Z Z Z Z Z Z Z Z Z Z Z Z Z Z Z Z Z Z Z Z Z Z Z Z Z Z Z Z Z Z Z Z Z Z Z Z Z Z Z Z Z Z Z Z Z Z Z Z Z Z Z Z Z Z Z Z Z Z Z Z Z Z Z Z Z Z Z Z Z Z Z Z Z Z Z Z Z Z Z Z Z Z Z Z Z Z Z Z Z Z Z Z Z Z Z Z Z Z Z Z Z Z Z Z Z Z Z Z Z Z Z Z Z Z Z Z Z Z Z Z Z Z Z Z Z Z Z Z Z Z Z Z Z Z Z Z Z Z Z Z Z Z Z Z Z Z Z Z Z Z Z Z Z Z Z Z Z Z Z Z Z Z Z Z Z Z Z Z Z Z Z Z Z Z Z Z Z Z Z Z Z Z Z Z Z Z Z Z Z Z Z Z Z Z Z Z Z Z Z Z Z Z Z Z Z Z Z Z Z Z Z Z Z Z Z Z Z Z Z Z Z Z Z Z Z Z Z Z Z Z Z Z Z Z Z Z Z Z Z Z Z Z Z Z Y H l.m.n.o.p.7.|.q.r.s.                              ",
"                        t.u.v.w.e.7.x.y.z.i.A.B.W  .Z Z Z Z Z Z Z Z Z Z Z Z Z Z Z Z Z Z Z Z Z Z Z Z Z Z Z Z Z Z Z Z Z Z Z Z Z Z Z Z Z Z Z Z Z Z Z Z Z Z Z Z Z Z Z Z Z Z Z Z Z Z Z Z Z Z Z Z Z Z Z Z Z Z Z Z Z Z Z Z Z Z Z Z Z Z Z Z Z Z Z Z Z Z Z Z Z Z Z Z Z Z Z Z Z Z Z Z Z Z Z Z Z Z Z Z Z Z Z Z Z Z Z Z Z Z Z Z Z Z Z Z Z Z Z Z Z Z Z Z Z Z Z Z Z Z Z Z Z Z Z Z Z Z Z Z Z Z Z Z Z Z Z Z Z Z Z Z Z Z Z Z Z Z Z Z Z Z Z Z Z Z Z Z Z Z Z Z Z Z Z Z Z Z Z Z Z Z Z Z Z Z Z Z Z Z Z Z Z Z Z Z Z Z Z Z Z Z Z Z Z Z Z Z Z Z Z Z Z Z Z Z Z Z Z Z Z Z Z Z Z Z Z Z Z Z Z Z Z Z Z Z Z Z Z Z Z Z Z Z Z Z Z Z Z Z Z Z Z Z Z Z Z Z Z Z Z Z Z Z Z Z Z Z Z Z Z Z Z Z Z Z Z Z Z Z Z Z Z Z Z Z Z Z Z Z Z Z Z Z Z Z Z Z Z Z Z Z Z Z Z Z Z Z Z Z Z Z Z Z Z Z Z Z Z Z Z Z Z Z Z Z Z Z Z Z Z Z Z I E m.n.C.D.E.F.G.H.I.                            ",
"                      J.u.v.w.K.L.f.M.z.N.A.B.W >.Z Z Z Z Z Z Z Z Z Z Z Z Z Z Z Z Z Z Z Z Z Z Z Z Z Z Z Z Z Z Z Z Z Z Z Z Z Z Z Z Z Z Z Z Z Z Z Z Z Z Z Z Z Z Z Z Z Z Z Z Z Z Z Z Z Z Z Z Z Z Z Z Z Z Z Z Z Z Z Z Z Z Z Z Z Z Z Z Z Z Z Z Z Z Z Z Z Z Z Z Z Z Z Z Z Z Z Z Z Z Z Z Z Z Z Z Z Z Z Z Z Z Z Z Z Z Z Z Z Z Z Z Z Z Z Z Z Z Z Z Z Z Z Z Z Z Z Z Z Z Z Z Z Z Z Z Z Z Z Z Z Z Z Z Z Z Z Z Z Z Z Z Z Z Z Z Z Z Z Z Z Z Z Z Z Z Z Z Z Z Z Z Z Z Z Z Z Z Z Z Z Z Z Z Z Z Z Z Z Z Z Z Z Z Z Z Z Z Z Z Z Z Z Z Z Z Z Z Z Z Z Z Z Z Z Z Z Z Z Z Z Z Z Z Z Z Z Z Z Z Z Z Z Z Z Z Z Z Z Z Z Z Z Z Z Z Z Z Z Z Z Z Z Z Z Z Z Z Z Z Z Z Z Z Z Z Z Z Z Z Z Z Z Z Z Z Z Z Z Z Z Z Z Z Z Z Z Z Z Z Z Z Z Z Z Z Z Z Z Z Z Z Z Z Z Z Z Z Z Z Z Z Z Z Z Z Z Z Z Z Z Z Z Z Z Z Z Z Z Z Z I O.A.n.P.Q.R.F.G.H.J.                          ",
"                      S.v.T.K.R.U.V.W.X.A.Y.Z.`.Z Z Z Z Z Z Z Z Z Z Z Z Z Z Z Z Z Z Z Z Z Z Z Z Z Z Z Z Z Z Z Z Z Z Z Z Z Z Z Z Z Z Z Z Z Z Z Z Z Z Z Z Z Z Z Z Z Z Z Z Z Z Z Z Z Z Z Z Z Z Z Z Z Z Z Z Z Z Z Z Z Z Z Z Z Z Z Z Z Z Z Z Z Z Z Z Z Z Z Z Z Z Z Z Z Z Z Z Z Z Z Z Z Z Z Z Z Z Z Z Z Z Z Z Z Z Z Z Z Z Z Z Z Z Z Z Z Z Z Z Z Z Z Z Z Z Z Z Z Z Z Z Z Z Z Z Z Z Z Z Z Z Z Z Z Z Z Z Z Z Z Z Z Z Z Z Z Z Z Z Z Z Z Z Z Z Z Z Z Z Z Z Z Z Z Z Z Z Z Z Z Z Z Z Z Z Z Z Z Z Z Z Z Z Z Z Z Z Z Z Z Z Z Z Z Z Z Z Z Z Z Z Z Z Z Z Z Z Z Z Z Z Z Z Z Z Z Z Z Z Z Z Z Z Z Z Z Z Z Z Z Z Z Z Z Z Z Z Z Z Z Z Z Z Z Z Z Z Z Z Z Z Z Z Z Z Z Z Z Z Z Z Z Z Z Z Z Z Z Z Z Z Z Z Z Z Z Z Z Z Z Z Z Z Z Z Z Z Z Z Z Z Z Z Z Z Z Z Z Z Z Z Z Z Z Z Z Z Z Z Z Z Z Z Z Z Z Z Z Z Z Z Z  +.+j.++@+Q.#+$+G.%+                          ",
"                    &+*+=+$+#+-+;+W.>+,+'+)+`.Z Z Z Z Z Z Z Z Z Z Z Z Z Z Z Z Z Z Z Z Z Z Z Z Z Z Z Z Z Z Z Z Z Z Z Z Z Z Z Z Z Z Z Z Z Z Z Z Z Z Z Z Z Z Z Z Z Z Z Z Z Z Z Z Z Z Z Z Z Z Z Z Z Z Z Z Z Z Z Z Z Z Z Z Z Z Z Z Z Z Z Z Z Z Z Z Z Z Z Z Z Z Z Z Z Z Z Z Z Z Z Z Z Z Z Z Z Z Z Z Z Z Z Z Z Z Z Z Z Z Z Z Z Z Z Z Z Z Z Z Z Z Z Z Z Z Z Z Z Z Z Z Z Z Z Z Z Z Z Z Z Z Z Z Z Z Z Z Z Z Z Z Z Z Z Z Z Z Z Z Z Z Z Z Z Z Z Z Z Z Z Z Z Z Z Z Z Z Z Z Z Z Z Z Z Z Z Z Z Z Z Z Z Z Z Z Z Z Z Z Z Z Z Z Z Z Z Z Z Z Z Z Z Z Z Z Z Z Z Z Z Z Z Z Z Z Z Z Z Z Z Z Z Z Z Z Z Z Z Z Z Z Z Z Z Z Z Z Z Z Z Z Z Z Z Z Z Z Z Z Z Z Z Z Z Z Z Z Z Z Z Z Z Z Z Z Z Z Z Z Z Z Z Z Z Z Z Z Z Z Z Z Z Z Z Z Z Z Z Z Z Z Z Z Z Z Z Z Z Z Z Z Z Z Z Z Z Z Z Z Z Z Z Z Z Z Z Z Z Z Z Z Z Z Z !+~+{+]+^+/+(+_+:+<+                        ",
"                  [+}+|+1+(+2+3+@+4+,+5+6+ +Z Z Z Z Z Z Z Z Z Z Z Z Z Z Z Z Z Z Z Z Z Z Z Z Z Z Z Z Z Z Z Z Z Z Z Z Z Z Z Z Z Z Z Z Z Z Z Z Z Z Z Z Z Z Z Z Z Z Z Z Z Z Z Z Z Z Z Z Z Z Z Z Z Z Z Z Z Z Z Z Z Z Z Z Z Z Z Z Z Z Z Z Z Z Z Z Z Z Z Z Z Z Z Z Z Z Z Z Z Z Z Z Z Z Z Z Z Z Z Z Z Z Z Z Z Z Z Z Z Z Z Z Z Z Z Z Z Z Z Z Z Z Z Z Z Z Z Z Z Z Z Z Z Z Z Z Z Z Z Z Z Z Z Z Z Z Z Z Z Z Z Z Z Z Z Z Z Z Z Z Z Z Z Z Z Z Z Z Z Z Z Z Z Z Z Z Z Z Z Z Z Z Z Z Z Z Z Z Z Z Z Z Z Z Z Z Z Z Z Z Z Z Z Z Z Z Z Z Z Z Z Z Z Z Z Z Z Z Z Z Z Z Z Z Z Z Z Z Z Z Z Z Z Z Z Z Z Z Z Z Z Z Z Z Z Z Z Z Z Z Z Z Z Z Z Z Z Z Z Z Z Z Z Z Z Z Z Z Z Z Z Z Z Z Z Z Z Z Z Z Z Z Z Z Z Z Z Z Z Z Z Z Z Z Z Z Z Z Z Z Z Z Z Z Z Z Z Z Z Z Z Z Z Z Z Z Z Z Z Z Z Z Z Z Z Z Z Z Z Z Z Z Z Z Z Z Y Z.'+7+8+9+0+a+b+v c+                      ",
"                d+e+f+g+h+i+j+k+l+m+n+o+!+Y Z Z Z Z Z Z Z Z Z Z Z Z Z Z Z Z Z Z Z Z Z Z Z Z Z Z Z Z Z Z Z Z Z Z Z Z Z Z Z Z Z Z Z Z Z Z Z Z Z Z Z Z Z Z Z Z Z Z Z Z Z Z Z Z Z Z Z Z Z Z Z Z Z Z Z Z Z Z Z Z Z Z Z Z Z Z Z Z Z Z Z Z Z Z Z Z Z Z Z Z Z Z Z Z Z Z Z Z Z Z Z Z Z Z Z Z Z Z Z Z Z Z Z Z Z Z Z Z Z Z Z Z Z Z Z Z Z Z Z Z Z Z Z Z Z Z Z Z Z Z Z Z Z Z Z Z Z Z Z Z Z Z Z Z Z Z Z Z Z Z Z Z Z Z Z Z Z Z Z Z Z Z Z Z Z Z Z Z Z Z Z Z Z Z Z Z Z Z Z Z Z Z Z Z Z Z Z Z Z Z Z Z Z Z Z Z Z Z Z Z Z Z Z Z Z Z Z Z Z Z Z Z Z Z Z Z Z Z Z Z Z Z Z Z Z Z Z Z Z Z Z Z Z Z Z Z Z Z Z Z Z Z Z Z Z Z Z Z Z Z Z Z Z Z Z Z Z Z Z Z Z Z Z Z Z Z Z Z Z Z Z Z Z Z Z Z Z Z Z Z Z Z Z Z Z Z Z Z Z Z Z Z Z Z Z Z Z Z Z Z Z Z Z Z Z Z Z Z Z Z Z Z Z Z Z Z Z Z Z Z Z Z Z Z Z Z Z Z Z Z Z Z Z Z Z Z Z `.6+n+p+q+3+r+s+t+u+v+                    ",
"                w+x+y+z+A+B+C+q+D+E+F+G+`.Z Z Z Z Z Z Z Z Z Z Z Z Z Z Z Z Z Z Z Z Z Z Z Z Z Z Z Z Z Z Z Z Z Z Z Z Z Z Z Z Z Z Z Z Z Z Z Z Z Z Z Z Z Z Z Z Z Z Z Z Z Z Z Z Z Z Z Z Z Z Z Z Z Z Z Z Z Z Z Z Z Z Z Z Z Z Z Z Z Z Z Z Z Z Z Z Z Z Z Z Z Z Z Z Z Z Z Z Z Z Z Z Z Z Z Z Z Z Z Z Z Z Z Z Z Z Z Z Z Z Z Z Z Z Z Z Z Z Z Z Z Z Z Z Z Z Z Z Z Z Z Z Z Z Z Z Z Z Z Z Z Z Z Z Z Z Z Z Z Z Z Z Z Z Z Z Z Z Z Z Z Z Z Z Z Z Z Z Z Z Z Z Z Z Z Z Z Z Z Z Z Z Z Z Z Z Z Z Z Z Z Z Z Z Z Z Z Z Z Z Z Z Z Z Z Z Z Z Z Z Z Z Z Z Z Z Z Z Z Z Z Z Z Z Z Z Z Z Z Z Z Z Z Z Z Z Z Z Z Z Z Z Z Z Z Z Z Z Z Z Z Z Z Z Z Z Z Z Z Z Z Z Z Z Z Z Z Z Z Z Z Z Z Z Z Z Z Z Z Z Z Z Z Z Z Z Z Z Z Z Z Z Z Z Z Z Z Z Z Z Z Z Z Z Z Z Z Z Z Z Z Z Z Z Z Z Z Z Z Z Z Z Z Z Z Z Z Z Z Z Z Z Z Z Z Z Z Z Z !+.+E+H+I+j+A+J+K+L+                    ",
"              M+N+O+P+Q+R+S+T+U+V+W+X+ +Z Z Z Z Z Z Z Z Z Z Z Z Z Z Z Z Z Z Z Z Z Z Z Z Z Z Z Z Z Z Z Z Z Z Z Z Z Z Z Z Z Z Z Z Z Z Z Z Z Z Z Z Z Z Z Z Z Z Z Z Z Z Z Z Z Z Z Z Z Z Z Z Z Z Z Z Z Z Z Z Z Z Z Z Z Z Z Z Z Z Z Z Z Z Z Z Z Z Z Z Z Z Z Z Z Z Z Z Z Z Z Z Z Z Z Z Z Z Z Z Z Z Z Z Z Z Z Z Z Z Z Z Z Z Z Z Z Z Z Z Z Z Z Z Z Z Z Z Z Z Z Z Z Z Z Z Z Z Z Z Z Z Z Z Z Z Z Z Z Z Z Z Z Z Z Z Z Z Z Z Z Z Z Z Z Z Z Z Z Z Z Z Z Z Z Z Z Z Z Z Z Z Z Z Z Z Z Z Z Z Z Z Z Z Z Z Z Z Z Z Z Z Z Z Z Z Z Z Z Z Z Z Z Z Z Z Z Z Z Z Z Z Z Z Z Z Z Z Z Z Z Z Z Z Z Z Z Z Z Z Z Z Z Z Z Z Z Z Z Z Z Z Z Z Z Z Z Z Z Z Z Z Z Z Z Z Z Z Z Z Z Z Z Z Z Z Z Z Z Z Z Z Z Z Z Z Z Z Z Z Z Z Z Z Z Z Z Z Z Z Z Z Z Z Z Z Z Z Z Z Z Z Z Z Z Z Z Z Z Z Z Z Z Z Z Z Z Z Z Z Z Z Z Z Z Z Z Z Z Z  .G+W+Y+Z+`+ @.@+@@@#@                  ",
"            $@%@&@+@*@=@-@;@Z+>@,@'@Z. .Z Z Z Z Z Z Z Z Z Z Z Z Z Z Z Z Z Z Z Z Z Z Z Z Z Z Z Z Z Z Z Z Z Z Z Z Z Z Z Z Z Z Z Z Z Z Z Z Z Z Z Z Z Z Z Z Z Z Z Z Z Z Z Z Z Z Z Z Z Z Z Z Z Z Z Z Z Z Z Z Z Z Z Z Z Z Z Z Z Z Z Z Z Z Z Z Z Z Z Z Z Z Z Z Z Z Z Z Z Z Z Z Z Z Z Z Z Z Z Z Z Z Z Z Z Z Z Z Z Z Z Z Z Z Z Z Z Z Z Z Z Z Z Z Z Z Z Z Z Z Z Z Z Z Z Z Z Z Z Z Z Z Z Z Z Z Z Z Z Z Z Z Z Z Z Z Z Z Z Z Z Z Z Z Z Z Z Z Z Z Z Z Z Z Z Z Z Z Z Z Z Z Z Z Z Z Z Z Z Z Z Z Z Z Z Z Z Z Z Z Z Z Z Z Z Z Z Z Z Z Z Z Z Z Z Z Z Z Z Z Z Z Z Z Z Z Z Z Z Z Z Z Z Z Z Z Z Z Z Z Z Z Z Z Z Z Z Z Z Z Z Z Z Z Z Z Z Z Z Z Z Z Z Z Z Z Z Z Z Z Z Z Z Z Z Z Z Z Z Z Z Z Z Z Z Z Z Z Z Z Z Z Z Z Z Z Z Z Z Z Z Z Z Z Z Z Z Z Z Z Z Z Z Z Z Z Z Z Z Z Z Z Z Z Z Z Z Z Z Z Z Z Z Z Z Z Z Z Z Z Z )@!@~@{@]@S+^@/@(@_@:@                ",
"            <@[@}@|@1@2@3@4@5@6@7@8@)@Z Z Z Z Z Z Z Z Z Z Z Z Z Z Z Z Z Z Z Z Z Z Z Z Z Z Z Z Z Z Z Z Z Z Z Z Z Z Z Z Z Z Z Z Z Z Z Z Z Z Z Z Z Z Z Z Z Z Z Z Z Z Z Z Z Z Z Z Z Z Z Z Z Z Z Z Z Z Z Z Z Z Z Z Z Z Z Z Z Z Z Z Z Z Z Z Z Z Z Z Z Z Z Z Z Z Z Z Z Z Z Z Z Z Z Z Z Z Z Z Z Z Z Z Z Z Z Z Z Z Z Z Z Z Z Z Z Z Z Z Z Z Z Z Z Z Z Z Z Z Z Z Z Z Z Z Z Z Z Z Z Z Z Z Z Z Z Z Z Z Z Z Z Z Z Z Z Z Z Z Z Z Z Z Z Z Z Z Z Z Z Z Z Z Z Z Z Z Z Z Z Z Z Z Z Z Z Z Z Z Z Z Z Z Z Z Z Z Z Z Z Z Z Z Z Z Z Z Z Z Z Z Z Z Z Z Z Z Z Z Z Z Z Z Z Z Z Z Z Z Z Z Z Z Z Z Z Z Z Z Z Z Z Z Z Z Z Z Z Z Z Z Z Z Z Z Z Z Z Z Z Z Z Z Z Z Z Z Z Z Z Z Z Z Z Z Z Z Z Z Z Z Z Z Z Z Z Z Z Z Z Z Z Z Z Z Z Z Z Z Z Z Z Z Z Z Z Z Z Z Z Z Z Z Z Z Z Z Z Z Z Z Z Z Z Z Z Z Z Z Z Z Z Z Z Z Z Z Z Z Z Z  .9@7@0@a@;@b@1@c@d@e@                ",
"          f@g@h@c@i@j@k@l@m@n@o@'@p@q@Z Z Z Z Z Z Z Z Z Z Z Z Z Z Z Z Z Z Z Z Z Z Z Z Z Z Z Z Z Z Z Z Z Z Z Z Z Z Z Z Z Z Z Z Z Z Z Z Z Z Z Z Z Z Z Z Z Z Z Z Z Z Z Z Z Z Z Z Z Z Z Z Z Z Z Z Z Z Z Z Z Z Z Z Z Z Z Z Z Z Z Z Z Z Z Z Z Z Z Z Z Z Z Z Z Z Z Z Z Z Z Z Z Z Z Z Z Z Z Z Z Z Z Z Z Z Z Z Z Z Z Z Z Z Z Z Z Z Z Z Z Z Z Z Z Z Z Z Z Z Z Z Z Z Z Z Z Z Z Z Z Z Z Z Z Z Z Z Z Z Z Z Z Z Z Z Z Z Z Z Z Z Z Z Z Z Z Z Z Z Z Z Z Z Z Z Z Z Z Z Z Z Z Z Z Z Z Z Z Z Z Z Z Z Z Z Z Z Z Z Z Z Z Z Z Z Z Z Z Z Z Z Z Z Z Z Z Z Z Z Z Z Z Z Z Z Z Z Z Z Z Z Z Z Z Z Z Z Z Z Z Z Z Z Z Z Z Z Z Z Z Z Z Z Z Z Z Z Z Z Z Z Z Z Z Z Z Z Z Z Z Z Z Z Z Z Z Z Z Z Z Z Z Z Z Z Z Z Z Z Z Z Z Z Z Z Z Z Z Z Z Z Z Z Z Z Z Z Z Z Z Z Z Z Z Z Z Z Z Z Z Z Z Z Z Z Z Z Z Z Z Z Z Z Z Z Z Z Z Z Z Z Z )@r@o@s@t@u@v@w@}@x@y@              ",
"          v.z@A@B@C@D@E@t@5@F@G@X+)@H@Z Z Z Z Z Z Z Z Z Z Z Z Z Z Z Z Z Z Z Z Z Z Z Z Z Z Z Z Z Z Z Z Z Z Z Z Z Z Z Z Z Z Z Z Z Z Z Z Z Z Z Z Z Z Z Z Z Z Z Z Z Z Z Z Z Z Z Z Z Z Z Z Z Z Z Z Z Z Z Z Z Z Z Z Z Z Z Z Z Z Z Z Z Z Z Z Z Z Z Z Z Z Z Z Z Z Z Z Z Z Z Z Z Z Z Z Z Z Z Z Z Z Z Z Z Z Z Z Z Z Z Z Z Z Z Z Z Z Z Z Z Z Z Z Z Z Z Z Z Z Z Z Z Z Z Z Z Z Z Z Z Z Z Z Z Z Z Z Z Z Z Z Z Z Z Z Z Z Z Z Z Z Z Z Z Z Z Z Z Z Z Z Z Z Z Z Z Z Z Z Z Z Z Z Z Z Z Z Z Z Z Z Z Z Z Z Z Z Z Z Z Z Z Z Z Z Z Z Z Z Z Z Z Z Z Z Z Z Z Z Z Z Z Z Z Z Z Z Z Z Z Z Z Z Z Z Z Z Z Z Z Z Z Z Z Z Z Z Z Z Z Z Z Z Z Z Z Z Z Z Z Z Z Z Z Z Z Z Z Z Z Z Z Z Z Z Z Z Z Z Z Z Z Z Z Z Z Z Z Z Z Z Z Z Z Z Z Z Z Z Z Z Z Z Z Z Z Z Z Z Z Z Z Z Z Z Z Z Z Z Z Z Z Z Z Z Z Z Z Z Z Z Z Z Z Z Z Z Z Z Z Z Z q@I@7@0@m@J@K@C@L@(@M@              ",
"        N@O@P@Q@R@S@T@U@V@W@o@X@9@Y@Z Z Z Z Z Z Z Z Z Z Z Z Z Z Z Z Z Z Z Z Z Z Z Z Z Z Z Z Z Z Z Z Z Z Z Z Z Z Z Z Z Z Z Z Z Z Z Z Z Z Z Z Z Z Z Z Z Z Z Z Z Z Z Z Z Z Z Z Z Z Z Z Z Z Z Z Z Z Z Z Z Z Z Z Z Z Z Z Z Z Z Z Z Z Z Z Z Z Z Z Z Z Z Z Z Z Z Z Z Z Z Z Z Z Z Z Z Z Z Z Z Z Z Z Z Z Z Z Z Z Z Z Z Z Z Z Z Z Z Z Z Z Z Z Z Z Z Z Z Z Z Z Z Z Z Z Z Z Z Z Z Z Z Z Z Z Z Z Z Z Z Z Z Z Z Z Z Z Z Z Z Z Z Z Z Z Z Z Z Z Z Z Z Z Z Z Z Z Z Z Z Z Z Z Z Z Z Z Z Z Z Z Z Z Z Z Z Z Z Z Z Z Z Z Z Z Z Z Z Z Z Z Z Z Z Z Z Z Z Z Z Z Z Z Z Z Z Z Z Z Z Z Z Z Z Z Z Z Z Z Z Z Z Z Z Z Z Z Z Z Z Z Z Z Z Z Z Z Z Z Z Z Z Z Z Z Z Z Z Z Z Z Z Z Z Z Z Z Z Z Z Z Z Z Z Z Z Z Z Z Z Z Z Z Z Z Z Z Z Z Z Z Z Z Z Z Z Z Z Z Z Z Z Z Z Z Z Z Z Z Z Z Z Z Z Z Z Z Z Z Z Z Z Z Z Z Z Z Z Z Z Z Z Z H@Z@r@o@`@ #.#S@+#@###$#            ",
"        %#h@&#*#=#-#;# #>#,#'#)#p@ .Z Z Z Z Z Z Z Z Z Z Z Z Z Z Z Z Z Z Z Z Z Z Z Z Z Z Z Z Z Z Z Z Z Z Z Z Z Z Z Z Z Z Z Z Z Z Z Z Z Z Z Z Z Z Z Z Z Z Z Z Z Z Z Z Z Z Z Z Z Z Z Z Z Z Z Z Z Z Z Z Z Z Z Z Z Z Z Z Z Z Z Z Z Z Z Z Z Z Z Z Z Z Z Z Z Z Z Z Z Z Z Z Z Z Z Z Z Z Z Z Z Z Z Z Z Z Z Z Z Z Z Z Z Z Z Z Z Z Z Z Z Z Z Z Z Z Z Z Z Z Z Z Z Z Z Z Z Z Z Z Z Z Z Z Z Z Z Z Z Z Z Z Z Z Z Z Z Z Z Z Z Z Z Z Z Z Z Z Z Z Z Z Z Z Z Z Z Z Z Z Z Z Z Z Z Z Z Z Z Z Z Z Z Z Z Z Z Z Z Z Z Z Z Z Z Z Z Z Z Z Z Z Z Z Z Z Z Z Z Z Z Z Z Z Z Z Z Z Z Z Z Z Z Z Z Z Z Z Z Z Z Z Z Z Z Z Z Z Z Z Z Z Z Z Z Z Z Z Z Z Z Z Z Z Z Z Z Z Z Z Z Z Z Z Z Z Z Z Z Z Z Z Z Z Z Z Z Z Z Z Z Z Z Z Z Z Z Z Z Z Z Z Z Z Z Z Z Z Z Z Z Z Z Z Z Z Z Z Z Z Z Z Z Z Z Z Z Z Z Z Z Z Z Z Z Z Z Z Z Z Z Z Z Z Z !#~#'#{#V@]#-#^#/#(#_#            ",
"      :#<#[#}#|#1#2#]#3#4#5#6#~#7#H@Z Z Z Z Z Z Z Z Z Z Z Z Z Z Z Z Z Z Z Z Z Z Z Z Z Z Z Z Z Z Z Z Z Z Z Z Z Z Z Z Z Z Z Z Z Z Z Z Z Z Z Z Z Z Z Z Z Z Z Z Z Z Z Z Z Z Z Z Z Z Z Z Z Z Z Z Z Z Z Z Z Z Z Z Z Z Z Z Z Z Z Z Z Z Z Z Z Z Z Z Z Z Z Z Z Z Z Z Z Z Z Z Z Z Z Z Z Z Z Z Z Z Z Z Z Z Z Z Z Z Z Z Z Z Z Z Z Z Z Z Z Z Z Z Z Z Z Z Z Z Z Z Z Z Z Z Z Z Z Z Z Z Z Z Z Z Z Z Z Z Z Z Z Z Z Z Z Z Z Z Z Z Z Z Z Z Z Z Z Z Z Z Z Z Z Z Z Z Z Z Z Z Z Z Z Z Z Z Z Z Z Z Z Z Z Z Z Z Z Z Z Z Z Z Z Z Z Z Z Z Z Z Z Z Z Z Z Z Z Z Z Z Z Z Z Z Z Z Z Z Z Z Z Z Z Z Z Z Z Z Z Z Z Z Z Z Z Z Z Z Z Z Z Z Z Z Z Z Z Z Z Z Z Z Z Z Z Z Z Z Z Z Z Z Z Z Z Z Z Z Z Z Z Z Z Z Z Z Z Z Z Z Z Z Z Z Z Z Z Z Z Z Z Z Z Z Z Z Z Z Z Z Z Z Z Z Z Z Z Z Z Z Z Z Z Z Z Z Z Z Z Z Z Z Z Z Z Z Z Z Z Z Z Z Z 8#9#6#5#0#a#b#1#c#d#e#f#          ",
"      g#h#d#i#j#k#l#a#m#n#o#X@9#!#Z Z Z Z Z Z Z Z Z Z Z Z Z Z Z Z Z Z Z Z Z Z Z Z Z Z Z Z Z Z Z Z Z Z Z Z Z Z Z Z Z Z Z Z Z Z Z Z Z Z Z Z Z Z Z Z Z Z Z Z Z Z Z Z Z Z Z Z Z Z Z Z Z Z Z Z Z Z Z Z Z Z Z Z Z Z Z Z Z Z Z Z Z Z Z Z Z Z Z Z Z Z Z Z Z Z Z Z Z Z Z Z Z Z Z Z Z Z Z Z Z Z Z Z Z Z Z Z Z Z Z Z Z Z Z Z Z Z Z Z Z Z Z Z Z Z Z Z Z Z Z Z Z Z Z Z Z Z Z Z Z Z Z Z Z Z Z Z Z Z Z Z Z Z Z Z Z Z Z Z Z Z Z Z Z Z Z Z Z Z Z Z Z Z Z Z Z Z Z Z Z Z Z Z Z Z Z Z Z Z Z Z Z Z Z Z Z Z Z Z Z Z Z Z Z Z Z Z Z Z Z Z Z Z Z Z Z Z Z Z Z Z Z Z Z Z Z Z Z Z Z Z Z Z Z Z Z Z Z Z Z Z Z Z Z Z Z Z Z Z Z Z Z Z Z Z Z Z Z Z Z Z Z Z Z Z Z Z Z Z Z Z Z Z Z Z Z Z Z Z Z Z Z Z Z Z Z Z Z Z Z Z Z Z Z Z Z Z Z Z Z Z Z Z Z Z Z Z Z Z Z Z Z Z Z Z Z Z Z Z Z Z Z Z Z Z Z Z Z Z Z Z Z Z Z Z Z Z Z Z Z Z Z Z Z Z H@p@p#q#4#3#r#k#s#t#u#v#          ",
"      w#x#y#z#A#B#C#D#E#F#G#)#H#8#Z Z Z Z Z Z Z Z Z Z Z Z Z Z Z Z Z Z Z Z Z Z Z Z Z Z Z Z Z Z Z Z Z Z Z Z Z Z Z Z Z Z Z Z Z Z Z Z Z Z Z Z Z Z Z Z Z Z Z Z Z Z Z Z Z Z Z Z Z Z Z Z Z Z Z Z Z Z Z Z Z Z Z Z Z Z Z Z Z Z Z Z Z Z Z Z Z Z Z Z Z Z Z Z Z Z Z Z Z Z Z Z Z Z Z Z Z Z Z Z Z Z Z Z Z Z Z Z Z Z Z Z Z Z Z Z Z Z Z Z Z Z Z Z Z Z Z Z Z Z Z Z Z Z Z Z Z Z Z Z Z Z Z Z Z Z Z Z Z Z Z Z Z Z Z Z Z Z Z Z Z Z Z Z Z Z Z Z Z Z Z Z Z Z Z Z Z Z Z Z Z Z Z Z Z Z Z Z Z Z Z Z Z Z Z Z Z Z Z Z Z Z Z Z Z Z Z Z Z Z Z Z Z Z Z Z Z Z Z Z Z Z Z Z Z Z Z Z Z Z Z Z Z Z Z Z Z Z Z Z Z Z Z Z Z Z Z Z Z Z Z Z Z Z Z Z Z Z Z Z Z Z Z Z Z Z Z Z Z Z Z Z Z Z Z Z Z Z Z Z Z Z Z Z Z Z Z Z Z Z Z Z Z Z Z Z Z Z Z Z Z Z Z Z Z Z Z Z Z Z Z Z Z Z Z Z Z Z Z Z Z Z Z Z Z Z Z Z Z Z Z Z Z Z Z Z Z Z Z Z Z Z Z Z Z Z I#7#~#G#J#m#K#L#M#N#O#=.          ",
"    P#Q#R#S#T#U#V#K#W#X#Y#Z#`# $8#Z Z Z Z Z Z Z Z Z Z Z Z Z Z Z Z Z Z Z Z Z Z Z Z Z Z Z Z Z Z Z Z Z Z Z Z Z Z Z Z Z Z Z Z Z Z Z Z Z Z Z Z Z Z Z Z Z Z Z Z Z Z Z Z Z Z Z Z Z Z Z Z Z Z Z Z Z Z Z Z Z Z Z Z Z Z Z Z Z Z Z Z Z Z Z Z Z Z Z Z Z Z Z Z Z Z Z Z Z Z Z Z Z Z Z Z Z Z Z Z Z Z Z Z Z Z Z Z Z Z Z Z Z Z Z Z Z Z Z Z Z Z Z Z Z Z Z Z Z Z Z Z Z Z Z Z Z Z Z Z Z Z Z Z Z Z Z Z Z Z Z Z Z Z Z Z Z Z Z Z Z Z Z Z Z Z Z Z Z Z Z Z Z Z Z Z Z Z Z Z Z Z Z Z Z Z Z Z Z Z Z Z Z Z Z Z Z Z Z Z Z Z Z Z Z Z Z Z Z Z Z Z Z Z Z Z Z Z Z Z Z Z Z Z Z Z Z Z Z Z Z Z Z Z Z Z Z Z Z Z Z Z Z Z Z Z Z Z Z Z Z Z Z Z Z Z Z Z Z Z Z Z Z Z Z Z Z Z Z Z Z Z Z Z Z Z Z Z Z Z Z Z Z Z Z Z Z Z Z Z Z Z Z Z Z Z Z Z Z Z Z Z Z Z Z Z Z Z Z Z Z Z Z Z Z Z Z Z Z Z Z Z Z Z Z Z Z Z Z Z Z Z Z Z Z Z Z Z Z Z Z Z Z Z Z Z Z .$+$Z#@$#$$$%$U#&$*$=$-$        ",
"    ;$[#>$,$'$)$!$~${$]$^$/$+$7#H@Z Z Z Z Z Z Z Z Z Z Z Z Z Z Z Z Z Z Z Z Z Z Z Z Z Z Z Z Z Z Z Z Z Z Z Z Z Z Z Z Z Z Z Z Z Z Z Z Z Z Z Z Z Z Z Z Z Z Z Z Z Z Z Z Z Z Z Z Z Z Z Z Z Z Z Z Z Z Z Z Z Z Z Z Z Z Z Z Z Z Z Z Z Z Z Z Z Z Z Z Z Z Z Z Z Z Z Z Z Z Z Z Z Z Z Z Z Z Z Z Z Z Z Z Z Z Z Z Z Z Z Z Z Z Z Z Z Z Z Z Z Z Z Z Z Z Z Z Z Z Z Z Z Z Z Z Z Z Z Z Z Z Z Z Z Z Z Z Z Z Z Z Z Z Z Z Z Z Z Z Z Z Z Z Z Z Z Z Z Z Z Z Z Z Z Z Z Z Z Z Z Z Z Z Z Z Z Z Z Z Z Z Z Z Z Z Z Z Z Z Z Z Z Z Z Z Z Z Z Z Z Z Z Z Z Z Z Z Z Z Z Z Z Z Z Z Z Z Z Z Z Z Z Z Z Z Z Z Z Z Z Z Z Z Z Z Z Z Z Z Z Z Z Z Z Z Z Z Z Z Z Z Z Z Z Z Z Z Z Z Z Z Z Z Z Z Z Z Z Z Z Z Z Z Z Z Z Z Z Z Z Z Z Z Z Z Z Z Z Z Z Z Z Z Z Z Z Z Z Z Z Z Z Z Z Z Z Z Z Z Z Z Z Z Z Z Z Z Z Z Z Z Z Z Z Z Z Z Z Z Z Z Z Z Z Z Z q@($_$^$:$<$[$)$}$|$@#1$        ",
"    _.2$3$4$5$6$7$8$9$0$a$b$c$d$H@Z Z Z Z Z Z Z Z Z Z Z Z Z Z Z Z Z Z Z Z Z Z Z Z Z Z Z Z Z Z Z Z Z Z Z Z Z Z Z Z Z Z Z Z Z Z Z Z Z Z Z Z Z Z Z Z Z Z Z Z Z Z Z Z Z Z Z Z Z Z Z Z Z Z Z Z Z Z Z Z Z Z Z Z Z Z Z Z Z Z Z Z Z Z Z Z Z Z Z Z Z Z Z Z Z Z Z Z Z Z Z Z Z Z Z Z Z Z Z Z Z Z Z Z Z Z Z Z Z Z Z Z Z Z Z Z Z Z Z Z Z Z Z Z Z Z Z Z Z Z Z Z Z Z Z Z Z Z Z Z Z Z Z Z Z Z Z Z Z Z Z Z Z Z Z Z Z Z Z Z Z Z Z Z Z Z Z Z Z Z Z Z Z Z Z Z Z Z Z Z Z Z Z Z Z Z Z Z Z Z Z Z Z Z Z Z Z Z Z Z Z Z Z Z Z Z Z Z Z Z Z Z Z Z Z Z Z Z Z Z Z Z Z Z Z Z Z Z Z Z Z Z Z Z Z Z Z Z Z Z Z Z Z Z Z Z Z Z Z Z Z Z Z Z Z Z Z Z Z Z Z Z Z Z Z Z Z Z Z Z Z Z Z Z Z Z Z Z Z Z Z Z Z Z Z Z Z Z Z Z Z Z Z Z Z Z Z Z Z Z Z Z Z Z Z Z Z Z Z Z Z Z Z Z Z Z Z Z Z Z Z Z Z Z Z Z Z Z Z Z Z Z Z Z Z Z Z Z Z Z Z Z Z Z Z Z Z 8#($e$f$g$h$i$6$j$,$k$8.        ",
"  l$m$k$n$o$p$q$i$r$s$t$u$e$($!#H@Z Z Z Z Z Z Z Z Z Z Z Z Z Z Z Z Z Z Z Z Z Z Z Z Z Z Z Z Z Z Z Z Z Z Z Z Z Z Z Z Z Z Z Z Z Z Z Z Z Z Z Z Z Z Z Z Z Z Z Z Z Z Z Z Z Z Z Z Z Z Z Z Z Z Z Z Z Z Z Z Z Z Z Z Z Z Z Z Z Z Z Z Z Z Z Z Z Z Z Z Z Z Z Z Z Z Z Z Z Z Z Z Z Z Z Z Z Z Z Z Z Z Z Z Z Z Z Z Z Z Z Z Z Z Z Z Z Z Z Z Z Z Z Z Z Z Z Z Z Z Z Z Z Z Z Z Z Z Z Z Z Z Z Z Z Z Z Z Z Z Z Z Z Z Z Z Z Z Z Z Z Z Z Z Z Z Z Z Z Z Z Z Z Z Z Z Z Z Z Z Z Z Z Z Z Z Z Z Z Z Z Z Z Z Z Z Z Z Z Z Z Z Z Z Z Z Z Z Z Z Z Z Z Z Z Z Z Z Z Z Z Z Z Z Z Z Z Z Z Z Z Z Z Z Z Z Z Z Z Z Z Z Z Z Z Z Z Z Z Z Z Z Z Z Z Z Z Z Z Z Z Z Z Z Z Z Z Z Z Z Z Z Z Z Z Z Z Z Z Z Z Z Z Z Z Z Z Z Z Z Z Z Z Z Z Z Z Z Z Z Z Z Z Z Z Z Z Z Z Z Z Z Z Z Z Z Z Z Z Z Z Z Z Z Z Z Z Z Z Z Z Z Z Z Z Z Z Z Z Z Z Z Z Z Z Z Z 8# $v$u$0$w$x$q$y$z$A$K.B$      ",
"  C$@#D$E$F$G$H$I$J$K$L$M$v$($!#Z Z Z Z Z Z Z Z Z Z Z Z Z Z Z Z Z Z Z Z Z Z Z Z Z Z Z Z Z Z Z Z Z Z Z Z Z Z Z Z Z Z Z Z Z Z Z Z Z Z Z Z Z Z Z Z Z Z Z Z Z Z Z Z Z Z Z Z Z Z Z Z Z Z Z Z Z Z Z Z Z Z Z Z Z Z Z Z Z Z Z Z Z Z Z Z Z Z Z Z Z Z Z Z Z Z Z Z Z Z Z Z Z Z Z Z Z Z Z Z Z Z Z Z Z Z Z Z Z Z Z Z Z Z Z Z Z Z Z Z Z Z Z Z Z Z Z Z Z Z Z Z Z Z Z Z Z Z Z Z Z Z Z Z Z Z Z Z Z Z Z Z Z Z Z Z Z Z Z Z Z Z Z Z Z Z Z Z Z Z Z Z Z Z Z Z Z Z Z Z Z Z Z Z Z Z Z Z Z Z Z Z Z Z Z Z Z Z Z Z Z Z Z Z Z Z Z Z Z Z Z Z Z Z Z Z Z Z Z Z Z Z Z Z Z Z Z Z Z Z Z Z Z Z Z Z Z Z Z Z Z Z Z Z Z Z Z Z Z Z Z Z Z Z Z Z Z Z Z Z Z Z Z Z Z Z Z Z Z Z Z Z Z Z Z Z Z Z Z Z Z Z Z Z Z Z Z Z Z Z Z Z Z Z Z Z Z Z Z Z Z Z Z Z Z Z Z Z Z Z Z Z Z Z Z Z Z Z Z Z Z Z Z Z Z Z Z Z Z Z Z Z Z Z Z Z Z Z Z Z Z Z Z Z Z Z Z Z H@N$O$u$L$P$Q$R$S$T$n$U$C$      ",
"  V$W$X$Y$Z$`$R$ %.%K$+%M$v$($!#Z Z Z Z Z Z Z Z Z Z Z Z Z Z Z Z Z Z Z Z Z Z Z Z Z Z Z Z Z Z Z Z Z Z Z Z Z Z Z Z Z Z Z Z Z Z Z Z Z Z Z Z Z Z Z Z Z Z Z Z Z Z Z Z Z Z Z Z Z Z Z Z Z Z Z Z Z Z Z Z Z Z Z Z Z Z Z Z Z Z Z Z Z Z Z Z Z Z Z Z Z Z Z Z Z Z Z Z Z Z Z Z Z Z Z Z Z Z Z Z Z Z Z Z Z Z Z Z Z Z Z Z Z Z Z Z Z Z Z Z Z Z Z Z Z Z Z Z Z Z Z Z Z Z Z Z Z Z Z Z Z Z Z Z Z Z Z Z Z Z Z Z Z Z Z Z Z Z Z Z Z Z Z Z Z Z Z Z Z Z Z Z Z Z Z Z Z Z Z Z Z Z Z Z Z Z Z Z Z Z Z Z Z Z Z Z Z Z Z Z Z Z Z Z Z Z Z Z Z Z Z Z Z Z Z Z Z Z Z Z Z Z Z Z Z Z Z Z Z Z Z Z Z Z Z Z Z Z Z Z Z Z Z Z Z Z Z Z Z Z Z Z Z Z Z Z Z Z Z Z Z Z Z Z Z Z Z Z Z Z Z Z Z Z Z Z Z Z Z Z Z Z Z Z Z Z Z Z Z Z Z Z Z Z Z Z Z Z Z Z Z Z Z Z Z Z Z Z Z Z Z Z Z Z Z Z Z Z Z Z Z Z Z Z Z Z Z Z Z Z Z Z Z Z Z Z Z Z Z Z Z Z Z Z Z Z Z Z  .@%#%M$L$$%%%&%`$Z$*%=%V$      ",
"  -%;%>%,%'%)%!%~%{%]%^%/%v$H#!#Z Z Z Z Z Z Z Z Z Z Z Z Z Z Z Z Z Z Z Z Z Z Z Z Z Z Z Z Z Z Z Z Z Z Z Z Z Z Z Z Z Z Z Z Z Z Z Z Z Z Z Z Z Z Z Z Z Z Z Z Z Z Z Z Z Z Z Z Z Z Z Z Z Z Z Z Z Z Z Z Z Z Z Z Z Z Z Z Z Z Z Z Z Z Z Z Z Z Z Z Z Z Z Z Z Z Z Z Z Z Z Z Z Z Z Z Z Z Z Z Z Z Z Z Z Z Z Z Z Z Z Z Z Z Z Z Z Z Z Z Z Z Z Z Z Z Z Z Z Z Z Z Z Z Z Z Z Z Z Z Z Z Z Z Z Z Z Z Z Z Z Z Z Z Z Z Z Z Z Z Z Z Z Z Z Z Z Z Z Z Z Z Z Z Z Z (%_%:%<%[%}%|%[%1%2%3%4%Z Z Z Z Z Z Z Z Z Z Z Z Z Z Z Z Z Z Z Z Z Z Z Z Z Z Z Z Z Z Z Z Z Z Z Z Z Z Z Z Z Z Z Z Z Z Z Z Z Z Z Z Z Z Z Z Z Z Z Z Z Z Z Z Z Z Z Z Z Z Z Z Z Z Z Z Z Z Z Z Z Z Z Z Z Z Z Z Z Z Z Z Z Z Z Z Z Z Z Z Z Z Z Z Z Z Z Z Z Z Z Z Z Z Z Z Z Z Z Z Z Z Z Z Z Z Z Z Z Z Z Z Z Z Z Z Z Z Z Z Z Z Z Z Z Z Z Z Z Z Z Z Z Z Z Z Z Z Z Z  .@%`#5%^%6%7%8%)%9%0%a%b%      ",
"c%d%e%f%g%h%)%8%i%j%k%l%m%v$H#!#Z Z Z Z Z Z Z Z Z Z Z Z Z Z Z Z Z Z Z Z Z Z Z Z Z Z Z Z Z Z Z Z Z Z Z Z Z Z Z Z Z Z Z Z Z Z Z Z Z Z Z Z Z Z Z Z Z Z Z Z Z Z Z Z Z Z Z Z Z Z Z Z Z Z Z Z Z Z Z n%n%n%n%n%n%n%n%n%n%n%n%n%n%n%n%n%n%n%n%n%n%o%Z Z p%n%n%n%n%n%n%n%}%q%r%s%p%t%Z Z Z Z Z Z Z Z u%n%n%n%v%Z Z Z Z Z Z Z Z Z Z Z Z w%[%n%n%x%Z Z Z Z Z Z Z Z Z Z Z Z Z Z Z Z Z Z Z Z Z Z y%n%n%n%n%z%Z Z Z Z Z Z Z Z Z Z Z Z Z Z Z Z Z A%B%C%n%n%n%n%n%n%n%n%n%n%n%n%D%E%t%Z Z Z Z Z Z Z Z Z Z Z Z y%n%n%n%n%z%Z Z Z Z Z Z Z Z Z Z Z Z F%n%n%n%n%n%n%n%n%n%G%Z Z Z Z Z p%n%n%n%n%H%I%Z Z Z Z Z Z Z Z Z Z J%n%n%p%Z Z Z Z Z Z Z Z Z Z Z Z Z Z Z Z Z Z Z Z Z Z Z Z Z Z Z Z Z Z Z Z Z Z Z Z Z Z Z Z Z Z Z Z Z Z Z Z Z Z Z Z Z Z Z Z Z Z Z Z Z Z Z Z Z Z Z Z Z Z Z Z Z Z Z Z Z Z Z Z Z Z Z Z Z Z Z Z Z Z  .@%`#m%^%K%L%M%N%h%,%O%P%Q%    ",
"R%y#S%T%U%V%N%M%W%X%Y%l%m%v$($!#Z Z Z Z Z Z Z Z Z Z Z Z Z Z Z Z Z Z Z Z Z Z Z Z Z Z Z Z Z Z Z Z Z Z Z Z Z Z Z Z Z Z Z Z Z Z Z Z Z Z Z Z Z Z Z Z Z Z Z Z Z Z Z Z Z Z Z Z Z Z Z Z Z Z Z Z Z Z Z n%n%n%n%n%n%n%n%n%n%n%n%n%n%n%n%n%n%n%n%n%n%o%Z Z p%n%n%n%n%n%n%n%n%n%n%n%n%H%Z%`%Z Z Z Z Z Z  &[%n%n%.&+&Z Z Z Z Z Z Z Z Z Z Z @&n%n%#&$&Z Z Z Z Z Z Z Z Z Z Z Z Z Z Z Z Z Z Z Z Z Z %&n%n%n%n%n%4%Z Z Z Z Z Z Z Z Z Z Z Z Z Z Z &&*&n%n%n%n%n%n%n%n%n%n%n%n%n%n%n%n%n%=&Z Z Z Z Z Z Z Z Z Z Z %&n%n%n%n%n%4%Z Z Z Z Z Z Z Z Z Z Z F%n%n%n%n%n%n%n%n%n%G%Z Z Z Z Z p%n%n%n%n%n%-&Z Z Z Z Z Z Z Z Z Z J%n%n%p%Z Z Z Z Z Z Z Z Z Z Z Z Z Z Z Z Z Z Z Z Z Z Z Z Z Z Z Z Z Z Z Z Z Z Z Z Z Z Z Z Z Z Z Z Z Z Z Z Z Z Z Z Z Z Z Z Z Z Z Z Z Z Z Z Z Z Z Z Z Z Z Z Z Z Z Z Z Z Z Z Z Z Z Z Z Z Z Z Z Z  .@%`#m%^%;&>&,&'&)&!&~&{&]&    ",
"^&/&(&_&:&<&[&M%}&|&k%^%M$e$1&!#Y Z Z Z Z Z Z Z Z Z Z Z Z Z Z Z Z Z Z Z Z Z Z Z Z Z Z Z Z Z Z Z Z Z Z Z Z Z Z Z Z Z Z Z Z Z Z Z Z Z Z Z Z Z Z Z Z Z Z Z Z Z Z Z Z Z Z Z Z Z Z Z Z Z Z Z Z Z Z n%n%n%n%n%n%n%n%n%n%n%n%n%n%n%n%n%n%n%n%n%n%o%Z Z p%n%n%n%n%n%n%n%n%n%n%n%n%n%n%<%2&Z Z Z Z Z Z 3&n%n%n%4&Z Z Z Z Z Z Z Z Z Z 5&H%n%n%_%Z Z Z Z Z Z Z Z Z Z Z Z Z Z Z Z Z Z Z Z Z Z A%6&n%n%n%n%n%E%Z Z Z Z Z Z Z Z Z Z Z Z Z Z 7&8&n%n%n%9&0&a&b&c&A% &t%d&e&f&n%n%n%n%g&Z Z Z Z Z Z Z Z Z Z A%6&n%n%n%n%n%E%Z Z Z Z Z Z Z Z Z Z Z F%n%n%n%n%n%n%n%n%n%G%Z Z Z Z Z p%n%n%h&n%n%n%i&Z Z Z Z Z Z Z Z Z J%n%n%p%Z Z Z Z Z Z Z Z Z Z Z Z Z Z Z Z Z Z Z Z Z Z Z Z Z Z Z Z Z Z Z Z Z Z Z Z Z Z Z Z Z Z Z Z Z Z Z Z Z Z Z Z Z Z Z Z Z Z Z Z Z Z Z Z Z Z Z Z Z Z Z Z Z Z Z Z Z Z Z Z Z Z Z Z Z Z Z Z Z Z  .@%`#M$^%;&j&k&[&V%l&m&A$n&    ",
"o&e%p&q&r&s&[&k&t&|&k%u&u$b$1&7#H@Z Z Z Z Z Z Z Z Z Z Z Z Z Z Z Z Z Z Z Z Z Z Z Z Z Z Z Z Z Z Z Z Z Z Z Z Z Z Z Z Z Z Z Z Z Z Z Z Z Z Z Z Z Z Z Z Z Z Z Z Z Z Z Z Z Z Z Z Z Z Z Z Z Z Z Z Z Z Z Z Z Z Z Z Z Z Z v&n%n%<%Z Z Z Z Z Z Z Z Z Z Z Z p%n%n%n%Z Z Z Z A%2&(%e&w&n%n%n%x&Z Z Z Z Z Z Z x%n%n%9&b&Z Z Z Z Z Z Z Z A%y&n%n%y&A%Z Z Z Z Z Z Z Z Z Z Z Z Z Z Z Z Z Z Z Z Z Z z&n%n%}%A&n%n%D%B&Z Z Z Z Z Z Z Z Z Z Z Z C&D&n%n%n%E&&&Z Z Z Z Z Z Z Z Z Z F&G&H&n%g&Z Z Z Z Z Z Z Z Z Z z&n%n%}%A&n%n%D%B&Z Z Z Z Z Z Z Z Z Z Z Z Z I&n%n%n%J&Z Z Z Z Z Z Z Z p%n%n%K&y&n%n%L&Z Z Z Z Z Z Z Z Z J%n%n%p%Z Z Z Z Z Z Z Z Z Z Z Z Z Z Z Z Z Z Z Z Z Z Z Z Z Z Z Z Z Z Z Z Z Z Z Z Z Z Z Z Z Z Z Z Z Z Z Z Z Z Z Z Z Z Z Z Z Z Z Z Z Z Z Z Z Z Z Z Z Z Z Z Z Z Z Z Z Z Z Z Z Z Z Z Z Z Z Z Z Z q@H#e$u$+%;&M&N&O&P&:&Q&R&S&    ",
"B@T&U&V&W&X&Y&Z&`&|&]%+%u$b$#%@%8#Z Z Z Z Z Z Z Z Z Z Z Z Z Z Z Z Z Z Z Z Z Z Z Z Z Z Z Z Z Z Z Z Z Z Z Z Z Z Z Z Z Z Z Z Z Z Z Z Z Z Z Z Z Z Z Z Z Z Z Z Z Z Z Z Z Z Z Z Z Z Z Z Z Z Z Z Z Z Z Z Z Z Z Z Z Z Z v&n%n%<%Z Z Z Z Z Z Z Z Z Z Z Z p%n%n%n%Z Z Z Z Z Z Z Z t%[%n%n%n% *Z Z Z Z Z Z b&9&n%n%s%Z Z Z Z Z Z Z Z .*n%n%H%+*Z Z Z Z Z Z Z Z Z Z Z Z Z Z Z Z Z Z Z Z Z Z Z E&n%n%@*v%n%n%n%#*Z Z Z Z Z Z Z Z Z Z Z A%y&n%n%n%$*Z Z Z Z Z Z Z Z Z Z Z Z Z Z $&x&%*Z Z Z Z Z Z Z Z Z Z E&n%n%@*v%n%n%n%#*Z Z Z Z Z Z Z Z Z Z Z Z Z I&n%n%n%J&Z Z Z Z Z Z Z Z p%n%n%J%&*n%n%n%**Z Z Z Z Z Z Z Z J%n%n%p%Z Z Z Z Z Z Z Z Z Z Z Z Z Z Z Z Z Z Z Z Z Z Z Z Z Z Z Z Z Z Z Z Z Z Z Z Z Z Z Z Z Z Z Z Z Z Z Z Z Z Z Z Z Z Z Z Z Z Z Z Z Z Z Z Z Z Z Z Z Z Z Z Z Z Z Z Z Z Z Z Z Z Z Z Z Z Z Z Z Z !#1&e$u$+%K%=*-*Y&s&;*>*,*'*    ",
")*!*~*{*]*^*Y&/*`&M&K%(*_*b$#% $8#Z Z Z Z Z Z Z Z Z Z Z Z Z Z Z Z Z Z Z Z Z Z Z Z Z Z Z Z Z Z Z Z Z Z Z Z Z Z Z Z Z Z Z Z Z Z Z Z Z Z Z Z Z Z Z Z Z Z Z Z Z Z Z Z Z Z Z Z Z Z Z Z Z Z Z Z Z Z Z Z Z Z Z Z Z Z Z v&n%n%<%Z Z Z Z Z Z Z Z Z Z Z Z p%n%n%n%Z Z Z Z Z Z Z Z Z :*n%n%n%<*Z Z Z Z Z Z Z [*n%n%n%a&Z Z Z Z Z Z }*|*n%n%1*Z Z Z Z Z Z Z Z Z Z Z Z Z Z Z Z Z Z Z Z Z Z Z w%2*n%n%g&B&3*n%n%v&Z Z Z Z Z Z Z Z Z Z Z 4*n%n%n%E&Z Z Z Z Z Z Z Z Z Z Z Z Z Z Z Z Z Z Z Z Z Z Z Z Z Z Z w%2*n%n%g&B&3*n%n%v&Z Z Z Z Z Z Z Z Z Z Z Z Z I&n%n%n%J&Z Z Z Z Z Z Z Z p%n%n%J%Z 5*n%n%6*B&Z Z Z Z Z Z Z J%n%n%p%Z Z Z Z Z Z Z Z Z Z Z Z Z Z Z Z Z Z Z Z Z Z Z Z Z Z Z Z Z Z Z Z Z Z Z Z Z Z Z Z Z Z Z Z Z Z Z Z Z Z Z Z Z Z Z Z Z Z Z Z Z Z Z Z Z Z Z Z Z Z Z Z Z Z Z Z Z Z Z Z Z Z Z Z Z Z Z Z Z Z d$1&b$u$(*6%=*7*Y&X&8*9*0*w@    ",
"c#a*b*c*d*^*e*f*g*j&6%h*f$/$`#H#.$Z Z Z Z Z Z Z Z Z Z Z Z Z Z Z Z Z Z Z Z Z Z Z Z Z Z Z Z Z Z Z Z Z Z Z Z Z Z Z Z Z Z Z Z Z Z Z Z Z Z Z Z Z Z Z Z Z Z Z Z Z Z Z Z Z Z Z Z Z Z Z Z Z Z Z Z Z Z Z Z Z Z Z Z Z Z Z v&n%n%<%Z Z Z Z Z Z Z Z Z Z Z Z p%n%n%n%Z Z Z Z Z Z Z Z Z 2&n%n%n%F%Z Z Z Z Z Z Z +&.&n%n%D%c&Z Z Z Z Z i*n%n%j*`%Z Z Z Z Z Z Z Z Z Z Z Z Z Z Z Z Z Z Z Z Z Z Z k*n%n%w&l*Z m*n%n%|%`%Z Z Z Z Z Z Z Z Z A%n*n%n%q%w%Z Z Z Z Z Z Z Z Z Z Z Z Z Z Z Z Z Z Z Z Z Z Z Z Z Z Z k*n%n%w&l*Z m*n%n%|%`%Z Z Z Z Z Z Z Z Z Z Z Z I&n%n%n%J&Z Z Z Z Z Z Z Z p%n%n%J%Z 7&n%n%n%o*Z Z Z Z Z Z Z J%n%n%p%Z Z Z Z Z Z Z Z Z Z Z Z Z Z Z Z Z Z Z Z Z Z Z Z Z Z Z Z Z Z Z Z Z Z Z Z Z Z Z Z Z Z Z Z Z Z Z Z Z Z Z Z Z Z Z Z Z Z Z Z Z Z Z Z Z Z Z Z Z Z Z Z Z Z Z Z Z Z Z Z Z Z Z Z Z Z Z Z Z p*@%+$/$f$q*r*t&-*s*^*t*u*v*w*x*  ",
"y*z*A*B*C*D*E*/*g*F*6%h*f$Z#e$9#7# .Z Z Z Z Z Z Z Z Z Z Z Z Z Z Z Z Z Z Z Z Z Z Z Z Z Z Z Z Z Z Z Z Z Z Z Z Z Z Z Z Z Z Z Z Z Z Z Z Z Z Z Z Z Z Z Z Z Z Z Z Z Z Z Z Z Z Z Z Z Z Z Z Z Z Z Z Z Z Z Z Z Z Z Z Z Z v&n%n%<%Z Z Z Z Z Z Z Z Z Z Z Z p%n%n%n%Z Z Z Z Z Z Z Z Z Z G*n%n%H*Z Z Z Z Z Z Z Z v%n%n%n%%&Z Z Z Z %*n%n%n%**Z Z Z Z Z Z Z Z Z Z Z Z Z Z Z Z Z Z Z Z Z Z Z Z J%n%n%0&Z Z I*n%n%n%o*Z Z Z Z Z Z Z Z Z i&n%n%n%E%Z Z Z Z Z Z Z Z Z Z Z Z Z Z Z Z Z Z Z Z Z Z Z Z Z Z Z Z J%n%n%0&Z Z I*n%n%n%o*Z Z Z Z Z Z Z Z Z Z Z Z I&n%n%n%J&Z Z Z Z Z Z Z Z p%n%n%J%Z Z J*n%n%K*L*Z Z Z Z Z Z J%n%n%p%Z Z Z Z Z Z Z Z Z Z Z Z Z Z Z Z Z Z Z Z Z Z Z Z Z Z Z Z Z Z Z Z Z Z Z Z Z Z Z Z Z Z Z Z Z Z Z Z Z Z Z Z Z Z Z Z Z Z Z Z Z Z Z Z Z Z Z Z Z Z Z Z Z Z Z Z Z Z Z Z Z Z Z Z Z Z Z Z Z q@H#`#/$f$q*X%t&N&e*M*N*O*v*P*x*  ",
"Q*R*S*T*U*M*E*V*-*t&$%q*W*G#e$+$@%!#Y Z Z Z Z Z Z Z Z Z Z Z Z Z Z Z Z Z Z Z Z Z Z Z Z Z Z Z Z Z Z Z Z Z Z Z Z Z Z Z Z Z Z Z Z Z Z Z Z Z Z Z Z Z Z Z Z Z Z Z Z Z Z Z Z Z Z Z Z Z Z Z Z Z Z Z Z Z Z Z Z Z Z Z Z Z v&n%n%<%Z Z Z Z Z Z Z Z Z Z Z Z p%n%n%n%Z Z Z Z Z Z Z Z Z X*n%n%n%Y*Z Z Z Z Z Z Z Z Z v&n%n%G*I*Z Z `%3*n%n%Z*Z Z Z Z Z Z Z Z Z Z Z Z Z Z Z Z Z Z Z Z Z Z Z Z $&n%n%n%`*Z Z Z  =n%n%.=Z Z Z Z Z Z Z Z Z +=n%n%n%@=Z Z Z Z Z Z Z Z Z Z Z Z Z Z Z Z Z Z Z Z Z Z Z Z Z Z Z $&n%n%n%`*Z Z Z  =n%n%.=Z Z Z Z Z Z Z Z Z Z Z Z I&n%n%n%J&Z Z Z Z Z Z Z Z p%n%n%J%Z Z 4%H%n%n%#=Z Z Z Z Z Z J%n%n%p%Z Z Z Z Z Z Z Z Z Z Z Z Z Z Z Z Z Z Z Z Z Z Z Z Z Z Z Z Z Z Z Z Z Z Z Z Z Z Z Z Z Z Z Z Z Z Z Z Z Z Z Z Z Z Z Z Z Z Z Z Z Z Z Z Z Z Z Z Z Z Z Z Z Z Z Z Z Z Z Z Z Z Z Z Z Z Z Z  .7#9#)#$=W*]%X%g*Z&e*M*C*%=&=>%*=  ",
",*==-=;=U*>=,='=N&t&j%]%+%)=/$`#H#7#.$Z Z Z Z Z Z Z Z Z Z Z Z Z Z Z Z Z Z Z Z Z Z Z Z Z Z Z Z Z Z Z Z Z Z Z Z Z Z Z Z Z Z Z Z Z Z Z Z Z Z Z Z Z Z Z Z Z Z Z Z Z Z Z Z Z Z Z Z Z Z Z Z Z Z Z Z Z Z Z Z Z Z Z Z Z v&n%n%<%Z Z Z Z Z Z Z Z Z Z Z Z p%n%n%n%Z Z Z Z Z Z Z Z Z !=n%n%n%4*Z Z Z Z Z Z Z Z Z ~={=n%n%]=B&Z 1*n%n%w&^=Z Z Z Z Z Z Z Z Z Z Z Z Z Z Z Z Z Z Z Z Z Z Z Z /=n%n%[%(=Z Z Z 4&n%n%H%&&Z Z Z Z Z Z Z Z _=n%n%:=Z Z Z Z Z Z Z Z Z Z Z Z Z Z Z Z Z Z Z Z Z Z Z Z Z Z Z Z /=n%n%[%(=Z Z Z 4&n%n%H%&&Z Z Z Z Z Z Z Z Z Z Z I&n%n%n%J&Z Z Z Z Z Z Z Z p%n%n%J%Z Z Z 2%n%n%8&`%Z Z Z Z Z J%n%n%p%Z Z Z Z Z Z Z Z Z Z Z Z Z Z Z Z Z Z Z Z Z Z Z Z Z Z Z Z Z Z Z Z Z Z Z Z Z Z Z Z Z Z Z Z Z Z Z Z Z Z Z Z Z Z Z Z Z Z Z Z Z Z Z Z Z Z Z Z Z Z Z Z Z Z Z Z Z Z Z Z Z Z Z Z Z Z Z H@!#@%+$_$)=L$K$j%<=V*,=M*[=}=|=0*1=  ",
"2=3=-=4=5=6=7=e*N&}&j%K$t$f$Z#p#+$H#!#q@H@Z Z Z Z Z Z Z Z Z Z Z Z Z Z Z Z Z Z Z Z Z Z Z Z Z Z Z Z Z Z Z Z Z Z Z Z Z Z Z Z Z Z Z Z Z Z Z Z Z Z Z Z Z Z Z Z Z Z Z Z Z Z Z Z Z Z Z Z Z Z Z Z Z Z Z Z Z Z Z Z Z Z Z v&n%n%<%Z Z Z Z Z Z Z Z Z Z Z Z p%n%n%n%Z Z Z Z Z Z Z Z Z E&n%n%H&~=Z Z Z Z Z Z Z Z Z Z 8=n%n%n%9=y%H%n%n%9=Z Z Z Z Z Z Z Z Z Z Z Z Z Z Z Z Z Z Z Z Z Z Z Z Z 0=n%n%a=Z Z Z Z b&n%n%n%<*Z Z Z Z Z Z Z Z C%n%n%L&Z Z Z Z Z Z Z Z Z Z Z Z Z Z Z Z Z Z Z Z Z Z Z Z Z Z Z Z 0=n%n%a=Z Z Z Z b&n%n%n%<*Z Z Z Z Z Z Z Z Z Z Z I&n%n%n%J&Z Z Z Z Z Z Z Z p%n%n%J%Z Z Z }*2*n%n%b=Z Z Z Z Z J%n%n%p%Z Z Z Z Z Z Z Z Z Z Z Z Z Z Z Z Z Z Z Z Z Z Z Z Z Z Z Z Z Z Z Z Z Z Z Z Z Z Z Z Z Z Z Z Z Z Z Z Z Z Z Z Z Z Z Z Z Z Z Z Z Z Z Z Z Z Z Z Z Z Z Z Z Z Z Z Z Z Z Z Z Z Z Z Z Y 8#!#@%9#)#Z#f$t$c=>&<='=7=6=d=e=f=R*1=  ",
"g=h=i=j=[=6=D*Y&,&<=>&c=k=l=G#_$e$+$H#)@!#q@8#H@H@H@H@H@H@H@H@ . .8#q@q@q@q@.$.$.$.$.$.$.$.$.$.$.$.$.$.$.$.$.$.$.$.$.$.$.$.$.$.$.$.$.$.$.$.$.$.$.$.$.$.$.$.$.$.$.$.$.$.$.$.$.$.$.$.$.$.$.$.$.$.$.$.$.$.$.$.$.$.$m=n%n%n=.$.$.$.$.$.$.$.$.$.$.$.$o=n%n%n%.$.$.$.$.$.$.$.$p=n%n%n%q=.$.$.$.$.$.$.$.$.$.$.$.$r=n%n%s=t=n%n%u=.$.$.$.$.$.$.$.$.$.$.$.$.$.$.$.$.$.$.$.$.$.$.$.$.$v=n%n%n%w=.$.$.$.$.$x=n%n%y=.$.$.$.$.$.$.$.$z=n%n%A=.$.$.$.$.$.$.$.$.$.$.$.$.$.$.$.$.$.$.$.$.$.$.$.$.$.$.$v=n%n%n%w=.$.$.$.$.$x=n%n%y=.$.$.$.$.$.$.$.$.$.$.$B=n%n%n%C=.$.$.$.$.$.$.$.$o=n%n%D=.$.$.$.$E=n%n%F=G=.$.$.$.$D=n%n%o=.$.$.$.$.$.$.$.$.$.$.$.$.$.$.$.$.$.$.$.$.$.$.$.$.$.$.$.$.$.$.$.$.$.$.$.$.$.$.$.$.$.$.$.$.$.$.$.$.$.$.$.$.$.$.$.$.$.$.$.$.$.$.$.$.$.$.$.$q@q@q@q@8#8# . .H@H@H@H@H@H@H@ .q@!#!#@%9#`#_$G#l=k=P$}&k&H=7=I=J=K=L=M=N=  ",
"O=P=Q=j=[=I=^*R=S=T=}&P$U=t$a$$=_$v$9#9#@%)@!#!#!#!#!#!#!#!#!#!#!#!#!#!#!#!#!#!#!#!#!#!#!#!#!#!#!#!#!#!#!#!#!#!#!#!#!#!#!#!#!#!#!#!#!#!#!#!#!#!#!#!#!#!#!#!#!#!#!#!#!#!#!#!#!#!#!#!#!#!#!#!#!#!#!#!#!#!#!#!#!#!#m=n%n%n=!#!#!#!#!#!#!#!#!#!#!#!#V=n%n%n%!#!#!#!#W=X=Y=Z=n%n%n%`=W=!#!#!#!#!#!#!#!#!#!#!#!# -.-n%n%n%n%+-@-!#!#!#!#!#!#!#!#!#!#!#!#!#!#!#!#!#!#!#!#!#!#!#!#!##-n%n%$-!#!#!#!#!#!#%-n%n%n%&-!#!#!#!#!#!#!#*-n%n%=-!#!#!#!#!#!#!#!#--n%n%n%n%n%n%n%n%n%n%;-!#!#!#!#!#!#!##-n%n%$-!#!#!#!#!#!#%-n%n%n%&-!#!#!#!#!#!#!#!#!#!#>-n%n%n%,-!#!#!#!#!#!#!#!#V=n%n%D=!#!#!#!#'-)-n%n%!-!#!#!#!#D=n%n%V=!#!#!#!#!#!#!#!#!#!#!#!#!#!#!#!#!#!#!#!#!#!#!#!#!#!#!#!#!#!#!#!#!#!#!#!#!#!#!#!#!#!#!#!#!#!#!#!#!#!#!#!#!#!#!#!#!#!#!#!#!#!#!#!#!#!#!#!#!#!#!#!#!#!#!#!#!#!#!#!#!#!#!#!#!#7#p@9#`#e$Z#a$t$K${%<=,&~-^*I={-K=L=]-^-  ",
"/-(-_-:-<-U*[-}-H=k&W%>&$%k=Y#a$Z#_$e$+$9#9#p@@%7#)@)@)@)@)@)@)@)@7#7#7#@%@%@%@%@%@%@%@%@%@%@%@%@%@%@%@%@%@%@%@%@%@%@%@%@%@%@%@%@%@%@%@%@%@%@%@%@%@%@%@%@%@%@%@%@%@%@%@%@%@%@%@%@%@%@%@%@%@%@%@%@%@%@%@%@%@%@%@%|-n%n%1-@%@%@%@%@%@%@%@%@%@%@%@%2-n%n%n%n%n%n%n%n%n%n%n%n%n%3-4-@%@%@%@%@%@%@%@%@%@%@%@%@%@%5-n%n%n%n%6-@%@%@%@%@%@%@%@%@%@%@%@%@%@%@%@%@%@%@%@%@%@%@%@%@%7-8-n%n%9-@%@%@%@%@%@%0-G*n%n%a-@%@%@%@%@%@%@%b-n%n%c-@%@%@%@%@%@%@%@%d-n%n%n%n%n%n%n%n%n%n%e-@%@%@%@%@%@%7-8-n%n%9-@%@%@%@%@%@%0-G*n%n%a-@%@%@%@%@%@%@%@%@%@%f-n%n%n%g-@%@%@%@%@%@%@%@%2-n%n%h-@%@%@%@%@%i-n%n%j-k-@%@%@%h-n%n%2-@%@%@%@%@%@%@%@%@%@%@%@%@%@%@%@%@%@%@%@%@%@%@%@%@%@%@%@%@%@%@%@%@%@%@%@%@%@%@%@%@%@%@%@%@%@%@%@%@%@%@%@%@%@%@%@%@%@%@%@%@%@%@%@%@%@%@%@%@%@%@%7#7#)@)@)@)@)@)@)@)@7#@%@%H#9#9#`#_$Z#a$Y#k=P$L%T=H=R=^*U*l-m-n-]-o-  ",
"O=(-p-m-q-C*r-^*R=S=T=7%P$c=s-^$G#$=_$_$`#+$9#9#9#9#9#9#9#9#9#9#9#9#9#9#9#9#9#9#9#9#9#9#9#9#9#9#9#9#9#9#9#9#9#9#9#9#9#9#9#9#9#9#9#9#9#9#9#9#9#9#9#9#9#9#9#9#9#9#9#9#9#9#9#9#9#9#9#9#9#9#9#9#9#9#9#9#9#9#9#9#9#9#t-n%n%u-9#9#9#9#9#9#9#9#9#9#9#9#v-n%n%n%n%n%n%n%n%n%n%n%w-x-9#9#9#9#9#9#9#9#9#9#9#9#9#9#9#9#y-z-n%n%A-B-9#9#9#9#9#9#9#9#9#9#9#9#9#9#9#9#9#9#9#9#9#9#9#9#9#C-n%n%n%D-9#9#9#9#9#9#9#E-n%n%F-G-9#9#9#9#9#9#u-n%n%H-9#9#9#9#9#9#9#9#I-n%n%n%n%n%n%n%n%n%n%J-9#9#9#9#9#9#C-n%n%n%D-9#9#9#9#9#9#9#E-n%n%F-G-9#9#9#9#9#9#9#9#9#K-n%n%n%L-9#9#9#9#9#9#9#9#v-n%n%M-9#9#9#9#9#y-N-n%n%O-9#9#9#M-n%n%v-9#9#9#9#9#9#9#9#9#9#9#9#9#9#9#9#9#9#9#9#9#9#9#9#9#9#9#9#9#9#9#9#9#9#9#9#9#9#9#9#9#9#9#9#9#9#9#9#9#9#9#9#9#9#9#9#9#9#9#9#9#9#9#9#9#9#9#9#9#9#9#9#9#9#9#9#9#9#9#9#9#9#9#9#I@~#e$_$Z#G#q#s-c={%W%k&~-}-r-C*4=Q=n-P-o-  ",
"P-(-n-Q=;=Q-R-X&S-T-U-7%.%s$U=s-q#G#G#/$_$_$)#`#+$+$+$I@9#9#9#9#9#9#9#9#9#9#9#9#9#9#9#9#9#9#9#9#9#9#9#9#9#9#9#9#9#9#9#9#9#9#9#9#9#9#9#9#9#9#9#9#9#9#9#9#9#9#9#9#9#9#9#9#9#9#9#9#9#9#9#9#9#9#9#9#9#9#9#9#9#9#9#9#t-n%n%u-9#9#9#9#9#9#9#9#9#9#9#9#v-n%n%n%n%n%n%n%n%n%n%n%V-W-9#9#9#9#9#9#9#9#9#9#9#9#9#9#9#9#9#t-n%n%u-9#9#9#9#9#9#9#9#9#9#9#9#9#9#9#9#9#9#9#9#9#9#9#9#9#9#X-n%n%Y-9#9#9#9#9#9#9#9#Z-n%n%n%`-9#9#9#9#9#9# ;n%n%.;G-9#9#9#9#9#9#9#9#9#9#9#9#9#9#+;n%n%n%J-9#9#9#9#9#9#X-n%n%Y-9#9#9#9#9#9#9#9#Z-n%n%n%`-9#9#9#9#9#9#9#9#9#K-n%n%n%L-9#9#9#9#9#9#9#9#v-n%n%M-9#9#9#9#9#9#@;n%n%#;$;9#9#M-n%n%v-9#9#9#9#9#9#9#9#9#9#9#9#9#9#9#9#9#9#9#9#9#9#9#9#9#9#9#9#9#9#9#9#9#9#9#9#9#9#9#9#9#9#9#9#9#9#9#9#9#9#9#9#9#9#9#9#9#9#9#9#9#9#9#9#9#9#9#9#9#9#9#9#9#9#9#9#9#9#9#I@+$+$~#)#_$_$%;Z#G#q#s-U=s$.%i%M%O&X&R-&;}=p-*;=;-;  ",
";;>;*;,;%=';C*r-);O&S=!;J$~;c=g$s-Y#{;{;];/$_$_$_$_$_$_$_$_$_$_$_$_$_$_$_$_$_$_$_$_$_$_$_$_$_$_$_$_$_$_$_$_$_$_$_$_$_$_$_$_$_$_$_$_$_$_$_$_$_$_$_$_$_$_$_$_$_$_$_$_$_$_$_$_$_$_$_$_$_$_$_$_$_$_$_$_$_$_$_$_$_$_$^;n%n%/;_$_$_$_$_$_$_$_$_$_$_$_$(;n%n%n%_$_$_$_$_$_;n%n%n%:;<;_$_$_$_$_$_$_$_$_$_$_$_$_$_$_$_$^;n%n%/;_$_$_$_$_$_$_$_$_$_$_$_$_$_$_$_$_$_$_$_$_$_$_$_$_$[;};n%n%n%n%n%n%n%n%n%n%n%n%n%n%n%|;_$_$_$_$_$_$1;n%n%n%2;_$_$_$_$_$_$_$_$_$_$_$_$_$_$3;n%n%n%4;_$_$_$_$_$[;};n%n%n%n%n%n%n%n%n%n%n%n%n%n%n%|;_$_$_$_$_$_$_$_$_$5;n%n%n%6;_$_$_$_$_$_$_$_$(;n%n%7;_$_$_$_$_$_$8;9;n%n%0;_$_$7;n%n%(;_$_$_$_$_$_$_$_$_$_$_$_$_$_$_$_$_$_$_$_$_$_$_$_$_$_$_$_$_$_$_$_$_$_$_$_$_$_$_$_$_$_$_$_$_$_$_$_$_$_$_$_$_$_$_$_$_$_$_$_$_$_$_$_$_$_$_$_$_$_$_$_$_$_$_$_$_$_$_$_$_$_$_$_$%;Z#{;{;Y#s-g$s$w$%%,&T-S-s&N*T*a;b;(-h=c;  ",
"d;e;(-f;a;T*t*g;X&S-T-,&i%J$~;h;g$s-Y#q#{;{;G#];Z#%;_$_$_$_$_$_$_$_$_$_$_$_$_$_$_$_$_$_$_$_$_$_$_$_$_$_$_$_$_$_$_$_$_$_$_$_$_$_$_$_$_$_$_$_$_$_$_$_$_$_$_$_$_$_$_$_$_$_$_$_$_$_$_$_$_$_$_$_$_$_$_$_$_$_$_$_$_$_$^;n%n%/;_$_$_$_$_$_$_$_$_$_$_$_$(;n%n%n%_$_$_$_$_$i;j;n%n%n%k;_$_$_$_$_$_$_$_$_$_$_$_$_$_$_$_$^;n%n%/;_$_$_$_$_$_$_$_$_$_$_$_$_$_$_$_$_$_$_$_$_$_$_$_$_$l;n%n%n%n%n%n%n%n%n%n%n%n%n%n%n%n%m;n;_$_$_$_$_$o;n%n%n%p;_$_$_$_$_$_$_$_$_$_$_$_$_$_$3;n%n%n%4;_$_$_$_$_$l;n%n%n%n%n%n%n%n%n%n%n%n%n%n%n%n%m;n;_$_$_$_$_$_$_$_$5;n%n%n%6;_$_$_$_$_$_$_$_$(;n%n%7;_$_$_$_$_$_$_$q;n%n%n%r;_$7;n%n%(;_$_$_$_$_$_$_$_$_$_$_$_$_$_$_$_$_$_$_$_$_$_$_$_$_$_$_$_$_$_$_$_$_$_$_$_$_$_$_$_$_$_$_$_$_$_$_$_$_$_$_$_$_$_$_$_$_$_$_$_$_$_$_$_$_$_$_$_$_$_$_$_$_$_$_$_$_$_$_$_$%;Z#Z#G#{;{;q#Y#s-g$h;w$7%~%M%[&s;g;N*%=-=L=>;d;t;  ",
"u;v;P-w;-=c*';]*P&s;[&T-U-%%h$9$c=h;x;s-@$q#{;{;{;{;{;G#G#G#];];];];];];];];];];];];];];];];];];];];];];];];];];];];];];];];];];];];];];];];];];];];];];];];];];];];];];];];];];];];];];];];];];];];];];];];];];y;n%n%z;];];];];];];];];];];];];A;n%n%n%];];];];];];B;C;n%n%n%D;];];];];];];];];];];];];];];];y;n%n%z;];];];];];];];];];];];];];];];];];];];];];];];];];E;n%n%n%n%n%n%n%n%n%n%n%n%n%n%n%n%n%F;];];];];];G;H;n%n%m;I;];];];];];];];];];];];];];J;n%n%n%K;];];];];];E;n%n%n%n%n%n%n%n%n%n%n%n%n%n%n%n%n%F;];];];];];];];];L;n%n%n%M;];];];];];];];];A;n%n%N;];];];];];];];O;P;n%n%Q;];N;n%n%A;];];];];];];];];];];];];];];];];];];];];];];];];];];];];];];];];];];];];];];];];];];];];];];];];];];];];];];];];];];];];];];];];];];];];];];];];];];];];G#G#G#{;{;{;{;{;q#@$s-x;h;c=~;J$~%M%R;S;s&T;';O*f;P=U;>*V;  ",
"W;X;]-P=f;Y;B*t*Z;s&S;R;M% %%%h${$s$s$g$x;x;@$Y#q#o#{;{;{;{;{;{;{;{;{;{;{;{;{;{;{;{;{;{;{;{;{;{;{;{;{;{;{;{;{;{;{;{;{;{;{;{;{;{;{;{;{;{;{;{;{;{;{;{;{;{;{;{;{;{;{;{;{;{;{;{;{;{;{;{;{;{;{;{;{;{;{;{;{;{;{;{;{;{;`;n%n% >{;{;{;{;{;{;{;{;{;{;{;{;.>n%n%n%{;{;{;{;{;{;{;+>@>n%n%n%#>{;{;{;{;{;{;{;{;{;{;{;{;{;{;`;n%n% >{;{;{;{;{;{;{;{;{;{;{;{;{;{;{;{;{;{;{;{;{;{;{;{;$>n%n%n%#>{;{;{;{;{;{;{;{;{;{;%>&>n%n%Q;{;{;{;{;{;{;*>n%n%n%=>->{;{;{;{;{;{;{;{;{;{;{;{;;>n%n%n%>>{;{;{;{;$>n%n%n%#>{;{;{;{;{;{;{;{;{;{;%>&>n%n%Q;{;{;{;{;{;{;{;{;,>n%n%n%'>{;{;{;{;{;{;{;{;.>n%n%)>{;{;{;{;{;{;{;{;!>n%n%n%~>)>n%n%.>{;{;{;{;{;{;{;{;{;{;{;{;{;{;{;{;{;{;{;{;{;{;{;{;{;{;{;{;{;{;{;{;{;{;{;{;{;{;{;{;{;{;{;{;{;{;{;{;{;{;{;{;{;{;{;{;{;{;{;{;{;{;{;{;{;{;{;{;{;{;{;{;{;{;{;{;{;{;{;{;{;q#Y#@$x;x;g$s$s$w$h${>U-T-[&]>Z;t*B*^>w;=;/-W;/>  ",
",%(>_>;;f=S*c*:>]*<>[>'&!%M% %%%J$w$s$s$h;g$x;x;x;x;s-@$@$Y#}>}>}>q#q#q#q#q#q#q#q#q#q#q#q#q#q#q#q#q#q#q#q#q#q#q#q#q#q#q#q#q#q#q#q#q#q#q#q#q#q#q#q#q#q#q#q#q#q#q#q#q#q#q#q#q#q#q#q#q#q#q#q#q#q#q#q#q#q#q#q#q#q#q#|>n%n%1>q#q#q#q#q#q#q#q#q#q#q#q#2>n%n%n%q#q#q#q#q#q#q#q#3>4>n%n%5>6>q#q#q#q#q#q#q#q#q#q#q#q#q#|>n%n%1>q#q#q#q#q#q#q#q#q#q#q#q#q#q#q#q#q#q#q#q#q#q#q#q#7>n%n%8>9>q#q#q#q#q#q#q#q#q#q#q#0>n%n%n%a>q#q#q#q#q#b>c>n%n%n%|>d>q#q#q#q#q#q#q#q#q#q#q#e>n%n%n%f>q#q#q#q#7>n%n%8>9>q#q#q#q#q#q#q#q#q#q#q#0>n%n%n%a>q#q#q#q#q#q#q#$>n%n%n%g>q#q#q#q#q#q#q#q#2>n%n%Q;q#q#q#q#q#q#q#q#q#)>n%n%1>h>n%n%2>q#q#q#q#q#q#q#q#q#q#q#q#q#q#q#q#q#q#q#q#q#q#q#q#q#q#q#q#q#q#q#q#q#q#q#q#q#q#q#q#q#q#q#q#q#q#q#q#q#q#q#q#q#q#q#q#q#q#q#q#q#q#q#q#q#q#q#q#q#q#q#q#q#q#}>}>Y#Y#@$s-x;x;x;x;g$h;s$s$w$J${>i>8%j>[>P&T;:>c*S*h=]-X;,%    ",
"k>l>m>]-h=d;Y;n>;*T;<&[>[&R;i> %{>r$r$w$9$9$:$]$g$x;x;x;x;x;x;x;x;x;x;x;x;x;x;x;x;x;x;x;x;x;x;x;x;x;x;x;x;x;x;x;x;x;x;x;x;x;x;x;x;x;x;x;x;x;x;x;x;x;x;x;x;x;x;x;x;x;x;x;x;x;x;x;x;x;x;x;x;x;x;x;x;x;x;x;x;x;x;x;o>n%n%p>x;x;x;x;x;x;x;x;x;x;x;x;q>n%n%n%x;x;x;x;x;x;x;x;x;r>s>n%n%t>u>x;x;x;x;x;x;x;x;x;x;x;x;o>n%n%p>x;x;x;x;x;x;x;x;x;x;x;x;x;x;x;x;x;x;x;x;x;x;x;v>w>n%n%o>x;x;x;x;x;x;x;x;x;x;x;x;x>n%n%n%y>x;x;x;x;x;x;u>z>n%n%n%A>B>x;x;x;x;x;x;x;x;x;x;C>n%n%n%D>x;x;x;v>w>n%n%o>x;x;x;x;x;x;x;x;x;x;x;x;x>n%n%n%y>x;x;x;x;x;x;x;E>n%n%n%F>x;x;x;x;x;x;x;x;q>n%n%G>x;x;x;x;x;x;x;x;x;H>n%n%n%s>n%n%q>x;x;x;x;x;x;x;x;x;x;x;x;x;x;x;x;x;x;x;x;x;x;x;x;x;x;x;x;x;x;x;x;x;x;x;x;x;x;x;x;x;x;x;x;x;x;x;x;x;x;x;x;x;x;x;x;x;x;x;x;x;x;x;x;x;x;x;x;x;x;x;x;x;x;x;x;x;x;x;x;x;g$]$:$9$9$w$r$r${>I$8%j>N%]><>W&n>u*d;I>/-(>J>    ",
"K>L>M>/-N>O>P>Q>R>S>T><&N%j>R;U>I$Q$r$r$h$w$9$9$9$9$:$h;g$g$g$x;x;x;x;x;x;x;x;x;x;x;x;x;x;x;x;x;x;x;x;x;x;x;x;x;x;x;x;x;x;x;x;x;x;x;x;x;x;x;x;x;x;x;x;x;x;x;x;x;x;x;x;x;x;x;x;x;x;x;x;x;x;x;x;x;x;x;x;x;x;x;x;x;o>n%n%p>x;x;x;x;x;x;x;x;x;x;x;x;q>n%n%n%x;x;x;x;x;x;x;x;x;x;V>n%n%n%W>X>x;x;x;x;x;x;x;x;x;x;x;o>n%n%p>x;x;x;x;x;x;x;x;x;x;x;x;x;x;x;x;x;x;x;x;x;x;x;Y>n%n%n%Z>x;x;x;x;x;x;x;x;x;x;x;x;x;`>n%n% ,x;x;x;x;x;x;x;.,+,n%n%n%n%@,#,C>$,%,&,*,Z>=,-,;,n%n%n%D>x;x;x;Y>n%n%n%Z>x;x;x;x;x;x;x;x;x;x;x;x;x;`>n%n% ,x;x;x;x;x;x;x;E>n%n%n%F>x;x;x;x;x;x;x;x;q>n%n%G>x;x;x;x;x;x;x;x;x;x;>,n%n%n%n%n%q>x;x;x;x;x;x;x;x;x;x;x;x;x;x;x;x;x;x;x;x;x;x;x;x;x;x;x;x;x;x;x;x;x;x;x;x;x;x;x;x;x;x;x;x;x;x;x;x;x;x;x;x;x;x;x;x;x;x;x;x;x;x;x;x;x;x;x;x;x;x;x;x;x;x;x;g$g$]$h;:$9$9$9$9$w$h$r$r$Q$I$!%R;N%<&<>S>R>Q>A*3=O=,,l>',    ",
"),!,L>~,O={,b*P>Q>R>S>T><&],^,j>U>i>I$/,/,/,(,w$9$9$9$9$9$9$9$9$9$9$s$s$s$s$s$s$s$s$s$s$s$s$s$s$s$s$s$s$s$s$s$s$s$s$s$s$s$s$s$s$s$s$s$s$s$s$s$s$s$s$s$s$s$s$s$s$s$s$s$s$s$s$s$s$s$s$s$s$s$s$s$s$s$s$s$s$s$s$s$s$_,n%n%:,s$s$s$s$s$s$s$s$s$s$s$s$<,n%n%n%s$s$s$s$s$s$s$s$s$s$s$[,n%n%n%},|,s$s$s$s$s$s$s$s$s$s$_,n%n%:,s$s$s$s$s$s$s$s$s$s$s$s$s$s$s$s$s$s$s$s$s$s$s$1,n%n%2,3,s$s$s$s$s$s$s$s$s$s$s$s$s$4,n%n%n%5,s$s$s$s$s$s$s$6,},n%n%n%n%n%n%n%n%n%n%n%n%n%n%n%n%7,8,s$s$s$1,n%n%2,3,s$s$s$s$s$s$s$s$s$s$s$s$s$4,n%n%n%5,s$s$s$9,n%n%n%n%n%n%n%n%n%0,s$s$s$s$s$<,n%n%a,s$s$s$s$s$s$s$s$s$s$b,c,n%n%n%n%<,s$s$s$s$s$s$s$s$s$s$s$s$s$s$s$s$s$s$s$s$s$s$s$s$s$s$s$s$s$s$s$s$s$s$s$s$s$s$s$s$s$s$s$s$s$s$s$s$s$s$s$s$s$s$s$s$s$s$s$s$s$s$s$s$s$s$s$s$s$s$s$s$9$9$9$9$9$9$9$9$9${$h$(,/,/,Q$I$i>!%j>N%]><>S>:&Q>P>&=N>d,e,f,g,    ",
"),h,i,e,d,M===b*u*{*;*S>T><&[>^,^,!%U>U>I$/,/,/,/,r$h$w${$9$9$9$9$9$9$9$9$9$9$9$9$9$9$9$9$9$9$9$9$9$9$9$9$9$9$9$9$9$9$9$9$9$9$9$9$9$9$9$9$9$9$9$9$9$9$9$9$9$9$9$9$9$9$9$9$9$9$9$9$9$9$9$9$9$9$9$9$9$9$9$9$9$9$9$_,n%n%j,9$9$9$9$9$9$9$9$9$9$9$9$k,n%n%n%9$9$9$9$9$9$9$9$9$9$9$9$l,n%n%n%m,n,9$9$9$9$9$9$9$9$9$_,n%n%j,9$9$9$9$9$9$9$9$9$9$9$9$9$9$9$9$9$9$9$9$9$9$n,o,n%n%p,9$9$9$9$9$9$9$9$9$9$9$9$9$9$q,c,n%n%r,9$9$9$9$9$9$9$9$n,s,t,n%n%n%n%n%n%n%n%n%n%n%u,v,w,9$9$9$9$n,o,n%n%p,9$9$9$9$9$9$9$9$9$9$9$9$9$9$q,c,n%n%r,9$9$9$x,n%n%n%n%n%n%n%n%n%y,9$9$9$9$9$k,n%n%a,9$9$9$9$9$9$9$9$9$9$9$z,n%n%n%n%k,9$9$9$9$9$9$9$9$9$9$9$9$9$9$9$9$9$9$9$9$9$9$9$9$9$9$9$9$9$9$9$9$9$9$9$9$9$9$9$9$9$9$9$9$9$9$9$9$9$9$9$9$9$9$9$9$9$9$9$9$9$9$9$9$9$9$9$9$9$9$9$9$9$9$9$9$9${$w$h$r$/,/,/,/,I$U>U>&%^,N%],V%S>;*{*P>b*==g=~,i,A,),    ",
"B,S%C,D,f,g=R*v*E,>*F,:&G,T>H,],I,^,&%J,U>U>I$Q$/,/,/,/,/,/,r$r$(,h$h$h$h$h$h$h$h$h$h$h$h$h$h$h$h$h$h$h$h$h$h$h$h$h$h$h$h$h$h$h$h$h$h$h$h$h$h$h$h$h$h$h$h$h$h$h$h$h$h$h$h$h$h$h$h$h$h$h$h$h$h$h$h$h$h$h$h$h$h$h$K,n%n%L,h$h$h$h$h$h$h$h$h$h$h$h$M,n%n%n%h$h$h$h$h$h$h$h$h$h$h$h$N,O,n%n%n%P,Q,h$h$h$h$h$h$h$h$K,n%n%L,h$h$h$h$h$h$h$h$h$h$h$h$h$h$h$h$h$h$h$h$h$h$R,n%n%n%S,h$h$h$h$h$h$h$h$h$h$h$h$h$h$h$T,n%n%U,V,h$h$h$h$h$h$h$h$h$Q,W,X,Y,Z,`, '.'+'T,@'#'N,h$h$h$h$h$h$R,n%n%n%S,h$h$h$h$h$h$h$h$h$h$h$h$h$h$h$T,n%n%U,V,h$h$$'n%n%n%n%n%n%n%n%n%%'h$h$h$h$h$M,n%n%&'h$h$h$h$h$h$h$h$h$h$h$*'='n%n%n%M,h$h$h$h$h$h$h$h$h$h$h$h$h$h$h$h$h$h$h$h$h$h$h$h$h$h$h$h$h$h$h$h$h$h$h$h$h$h$h$h$h$h$h$h$h$h$h$h$h$h$h$h$h$h$h$h$h$h$h$h$h$h$h$h$h$h$h$h$h$h$h$h$h$(,r$r$/,/,/,/,/,/,Q$I$U>J,J,^,^,)%H,V%G,:&F,V&E,v*-';'>','S%B,    ",
"  a%'')'>'f,g=!'~*E,q&!&:&r&G,~'H,)%N%N%&%J,J,J,{'I$Q$/,/,/,/,/,/,/,/,/,/,/,/,/,/,/,/,/,/,/,/,/,/,/,/,/,/,/,/,/,/,/,/,/,/,/,/,/,/,/,/,/,/,/,/,/,/,/,/,/,/,/,/,/,/,/,/,/,/,/,/,/,/,/,/,/,/,/,/,/,/,/,/,/,/,/,/,/,/,/,/,/,/,/,/,/,/,/,/,/,/,/,/,/,/,/,/,/,/,/,/,/,/,/,/,/,/,/,/,/,/,/,/,/,/,/,/,/,/,/,/,/,/,/,/,/,/,/,/,/,/,/,/,/,/,/,/,/,/,/,/,/,/,/,/,/,/,/,/,/,/,/,/,/,/,/,/,/,/,/,/,/,/,/,/,/,/,/,/,/,/,/,/,/,/,/,/,/,/,/,/,/,/,/,/,/,/,/,/,/,/,/,/,/,/,/,/,/,/,/,/,/,/,/,/,/,/,/,/,/,/,/,/,/,/,/,/,/,/,/,/,/,/,/,/,/,/,/,/,/,/,/,/,/,/,/,/,/,/,/,/,/,/,/,/,/,/,/,/,/,/,/,/,/,/,/,/,/,/,/,/,/,/,/,/,/,/,/,/,/,/,/,/,/,/,/,/,/,/,/,/,/,/,/,/,/,/,/,/,/,/,/,/,/,/,/,/,/,/,/,/,/,/,/,/,/,/,/,/,/,/,/,/,/,/,/,/,/,/,/,/,/,/,/,/,/,/,/,/,/,/,/,/,/,/,/,/,/,/,/,/,/,/,/,/,/,/,Q$I$U>J,J,J,^,N%N%)%H,V%S>]'l&q&E,^'R*d,f,/'''a%      ",
"  ('_':'/'!,;'2=!'~*E,q&!&l&r&G,~'~')%N%N%I,&%J,J,J,J,J,{'{'I$x$Q$Q$Q$8$8$8$/,/,/,/,/,/,/,/,/,/,/,/,/,/,/,/,/,/,/,/,/,/,/,/,/,/,/,/,/,/,/,/,/,/,/,/,/,/,/,/,/,/,/,/,/,/,/,/,/,/,/,/,/,/,/,/,/,/,/,/,/,/,/,/,/,/,/,/,/,/,/,/,/,/,/,/,/,/,/,/,/,/,/,/,/,/,/,/,/,/,/,/,/,/,/,/,/,/,/,/,/,/,/,/,/,/,/,/,/,/,/,/,/,/,/,/,/,/,/,/,/,/,/,/,/,/,/,/,/,/,/,/,/,/,/,/,/,/,/,/,/,/,/,/,/,/,/,/,/,/,/,/,/,/,/,/,/,/,/,/,/,/,/,/,/,/,/,/,/,/,/,/,/,/,/,/,/,/,/,/,/,/,/,/,/,/,/,/,/,/,/,/,/,/,/,/,/,/,/,/,/,/,/,/,/,/,/,/,/,/,/,/,/,/,/,/,/,/,/,/,/,/,/,/,/,/,/,/,/,/,/,/,/,/,/,/,/,/,/,/,/,/,/,/,/,/,/,/,/,/,/,/,/,/,/,/,/,/,/,/,/,/,/,/,/,/,/,/,/,/,/,/,/,/,/,/,/,/,/,/,/,/,/,/,/,/,/,/,/,/,/,/,/,/,/,/,/,/,/,/,/,/,/,/,/,/,/,/,/,/,/,/,/,/,/,/,/,/,/,/,/,/,/,/,8$8$8$Q$Q$Q$I$I${'U>J,J,J,J,&%^,N%N%)%H,~'h%r&]'!&q&E,~*!'K>f,/'C,<'('      ",
"  ['}'_':'/'|'1'z*!'^'u;_&2'l&]'3')&)&~'],)%)%)%I,&%J,J,J,J,J,J,J,J,J,J,J,J,J,J,J,J,J,J,J,J,J,J,J,J,J,J,J,J,J,J,J,J,J,J,J,J,J,J,J,J,J,J,J,J,J,J,J,J,J,J,J,J,J,J,J,J,J,J,J,J,J,J,J,J,J,J,J,J,J,J,J,J,J,J,J,J,J,J,J,J,J,J,J,J,J,J,J,J,J,J,J,J,J,J,J,J,J,J,J,J,J,J,J,J,J,J,J,J,J,J,J,J,J,J,J,J,J,J,J,J,J,J,J,J,J,J,J,J,J,J,J,J,J,J,J,J,J,J,J,J,J,J,J,J,J,J,J,J,J,J,J,J,J,J,J,J,J,J,J,J,J,J,J,J,J,J,J,J,J,J,J,J,J,J,J,J,J,J,J,J,J,J,J,J,J,J,J,J,J,J,J,J,J,J,J,J,J,J,J,J,J,J,J,J,J,J,J,J,J,J,J,J,J,J,J,J,J,J,J,J,J,J,J,J,J,J,J,J,J,J,J,J,J,J,J,J,J,J,J,J,J,J,J,J,J,J,J,J,J,J,J,J,J,J,J,J,J,J,J,J,J,J,J,J,J,J,J,J,J,J,J,J,J,J,J,J,J,J,J,J,J,J,J,J,J,J,J,J,J,J,J,J,J,J,J,J,J,J,J,J,J,J,J,J,J,J,J,J,J,J,J,J,J,J,J,J,J,J,J,J,J,J,J,J,J,J,J,J,J,J,J,J,J,J,J,J,J,J,J,J,J,J,J,J,J,J,J,&%R$I,)%)%)%~'V%)&G,]'l&2'q&u;^'!'',1'4')'_'}'5'      ",
"  6'7'8'<'9'4'|'0'',a'U&Q&_&b'!&U%]'G,)&)&~'c')%)%)%)%I,^,R$&%d'J,J,J,J,J,J,J,J,J,J,J,J,J,J,J,J,J,J,J,J,J,J,J,J,J,J,J,J,J,J,J,J,J,J,J,J,J,J,J,J,J,J,J,J,J,J,J,J,J,J,J,J,J,J,J,J,J,J,J,J,J,J,J,J,J,J,J,J,J,J,J,J,J,J,J,J,J,J,J,J,J,J,J,J,J,J,J,J,J,J,J,J,J,J,J,J,J,J,J,J,J,J,J,J,J,J,J,J,J,J,J,J,J,J,J,J,J,J,J,J,J,J,J,J,J,J,J,J,J,J,J,J,J,J,J,J,J,J,J,J,J,J,J,J,J,J,J,J,J,J,J,J,J,J,J,J,J,J,J,J,J,J,J,J,J,J,J,J,J,J,J,J,J,J,J,J,J,J,J,J,J,J,J,J,J,J,J,J,J,J,J,J,J,J,J,J,J,J,J,J,J,J,J,J,J,J,J,J,J,J,J,J,J,J,J,J,J,J,J,J,J,J,J,J,J,J,J,J,J,J,J,J,J,J,J,J,J,J,J,J,J,J,J,J,J,J,J,J,J,J,J,J,J,J,J,J,J,J,J,J,J,J,J,J,J,J,J,J,J,J,J,J,J,J,J,J,J,J,J,J,J,J,J,J,J,J,J,J,J,J,J,J,J,J,J,J,J,J,J,J,J,J,J,J,J,J,J,J,J,J,J,J,J,J,J,J,J,J,J,J,J,J,J,J,J,J,J,J,J,J,J,J,J,J,J,J,&%&%R$I,N%)%)%)%)%H,)&)&h%e'U%l&b'_&Q&U&a'',f'|'g'<'h'7'5'      ",
"    i'j'k'l'm'n'f'0'',a*p&m&_&W;o'U%U%]'h%h%h%)&~'c')%)%)%)%)%)%)%N%I,I,I,I,I,I,I,I,I,I,I,I,I,I,I,I,I,I,I,I,I,I,I,I,I,I,I,I,I,I,I,I,I,I,I,I,I,I,I,I,I,I,I,I,I,I,I,I,I,I,I,I,I,I,I,I,I,I,I,I,I,I,I,I,I,I,I,I,I,I,I,I,I,I,I,I,I,I,I,I,I,I,I,I,I,I,I,I,I,I,I,I,I,I,I,I,I,I,I,I,I,I,I,I,I,I,I,I,I,I,I,I,I,I,I,I,I,I,I,I,I,I,I,I,I,I,I,I,I,I,I,I,I,I,I,I,I,I,I,I,I,I,I,I,I,I,I,I,I,I,I,I,I,I,I,I,I,I,I,I,I,I,I,I,I,I,I,I,I,I,I,I,I,I,I,I,I,I,I,I,I,I,I,I,I,I,I,I,I,I,I,I,I,I,I,I,I,I,I,I,I,I,I,I,I,I,I,I,I,I,I,I,I,I,I,I,I,I,I,I,I,I,I,I,I,I,I,I,I,I,I,I,I,I,I,I,I,I,I,I,I,I,I,I,I,I,I,I,I,I,I,I,I,I,I,I,I,I,I,I,I,I,I,I,I,I,I,I,I,I,I,I,I,I,I,I,I,I,I,I,I,I,I,I,I,I,I,I,I,I,I,I,I,I,I,I,I,I,I,I,I,I,I,I,I,I,I,I,I,I,I,I,I,I,I,I,I,I,I,I,I,I,I,I,I,I,I,I,I,I,I,N%N%)%)%)%)%)%)%)%H,~')&h%h%3'U%U%!&W;W;m&U&a*',0'p'g'l'q'j'r'        ",
"    s't'j'u'l'm'n'v'h,w'a*p&U&T%W;W;!&!&!&e'h%h%h%h%)&~'H,)%)%)%)%)%)%)%)%)%)%)%)%)%)%)%)%)%)%)%)%)%)%)%)%)%)%)%)%)%)%)%)%)%)%)%)%)%)%)%)%)%)%)%)%)%)%)%)%)%)%)%)%)%)%)%)%)%)%)%)%)%)%)%)%)%)%)%)%)%)%)%)%)%)%)%)%)%)%)%)%)%)%)%)%)%)%)%)%)%)%)%)%)%)%)%)%)%)%)%)%)%)%)%)%)%)%)%)%)%)%)%)%)%)%)%)%)%)%)%)%)%)%)%)%)%)%)%)%)%)%)%)%)%)%)%)%)%)%)%)%)%)%)%)%)%)%)%)%)%)%)%)%)%)%)%)%)%)%)%)%)%)%)%)%)%)%)%)%)%)%)%)%)%)%)%)%)%)%)%)%)%)%)%)%)%)%)%)%)%)%)%)%)%)%)%)%)%)%)%)%)%)%)%)%)%)%)%)%)%)%)%)%)%)%)%)%)%)%)%)%)%)%)%)%)%)%)%)%)%)%)%)%)%)%)%)%)%)%)%)%)%)%)%)%)%)%)%)%)%)%)%)%)%)%)%)%)%)%)%)%)%)%)%)%)%)%)%)%)%)%)%)%)%)%)%)%)%)%)%)%)%)%)%)%)%)%)%)%)%)%)%)%)%)%)%)%)%)%)%)%)%)%)%)%)%)%)%)%)%)%)%)%)%)%)%)%)%)%)%)%)%)%)%)%)%)%)%)%)%)%)%)%)%)%)%)%)%)%)%)%)%c'~'x')&h%h%h%3'U%!&!&b'W;T%U&p&a*w'h,v'n'y'q'j'z'A'        ",
"    B'C'D'j'E'F'G'H'I'J'!*w'p&p&k>K'K'b'o'o'!&U%'%h%h%h%h%h%)&x'~'~'~'H,H,c'c'c'c'c'c'c'c'c'c'c'c'c'c'c'c'c'c'c'c'c'c'c'c'c'c'c'c'c'c'c'c'c'c'c'c'c'c'c'c'c'c'c'c'c'c'c'c'c'c'c'c'c'c'c'c'c'c'c'c'c'c'c'c'c'c'c'c'c'c'c'c'c'c'c'c'c'c'c'c'c'c'c'c'c'c'c'c'c'c'c'c'c'c'c'c'c'c'c'c'c'c'c'c'c'c'c'c'c'c'c'c'c'c'c'c'c'c'c'c'c'c'c'c'c'c'c'c'c'c'c'c'c'c'c'c'c'c'c'c'c'c'c'c'c'c'c'c'c'c'c'c'c'c'c'c'c'c'c'c'c'c'c'c'c'c'c'c'c'c'c'c'c'c'c'c'c'c'c'c'c'c'c'c'c'c'c'c'c'c'c'c'c'c'c'c'c'c'c'c'c'c'c'c'c'c'c'c'c'c'c'c'c'c'c'c'c'c'c'c'c'c'c'c'c'c'c'c'c'c'c'c'c'c'c'c'c'c'c'c'c'c'c'c'c'c'c'c'c'c'c'c'c'c'c'c'c'c'c'c'c'c'c'c'c'c'c'c'c'c'c'c'c'c'c'c'c'c'c'c'c'c'c'c'c'c'c'c'c'c'c'c'c'c'c'c'c'c'c'c'c'c'c'c'c'c'c'c'c'c'c'c'c'c'c'c'c'c'c'c'c'c'c'c'c'c'H,H,~'~'x')&)&h%h%h%h%'%e'g%o'o'o'K'K'k>p&0*w'!*J'v'('y'L'M'N'C'B'        ",
"      O'P'Q'M'L'R'}'('I'I'!*!*S'S'T'k>k>T%W;o'o'o'g%U%3'h%h%h%h%h%h%h%h%h%h%h%h%h%h%h%h%h%h%h%h%h%h%h%h%h%h%h%h%h%h%h%h%h%h%h%h%h%h%h%h%h%h%h%h%h%h%h%h%h%h%h%h%h%h%h%h%h%h%h%h%h%h%h%h%h%h%h%h%h%h%h%h%h%h%h%h%h%h%h%h%h%h%h%h%h%h%h%h%h%h%h%h%h%h%h%h%h%h%h%h%h%h%h%h%h%h%h%h%h%h%h%h%h%h%h%h%h%h%h%h%h%h%h%h%h%h%h%h%h%h%h%h%h%h%h%h%h%h%h%h%h%h%h%h%h%h%h%h%h%h%h%h%h%h%h%h%h%h%h%h%h%h%h%h%h%h%h%h%h%h%h%h%h%h%h%h%h%h%h%h%h%h%h%h%h%h%h%h%h%h%h%h%h%h%h%h%h%h%h%h%h%h%h%h%h%h%h%h%h%h%h%h%h%h%h%h%h%h%h%h%h%h%h%h%h%h%h%h%h%h%h%h%h%h%h%h%h%h%h%h%h%h%h%h%h%h%h%h%h%h%h%h%h%h%h%h%h%h%h%h%h%h%h%h%h%h%h%h%h%h%h%h%h%h%h%h%h%h%h%h%h%h%h%h%h%h%h%h%h%h%h%h%h%h%h%h%h%h%h%h%h%h%h%h%h%h%h%h%h%h%h%h%h%h%h%h%h%h%h%h%h%h%h%h%h%h%h%h%h%h%h%h%h%h%h%h%h%h%h%h%h%h%h%'%e'U%o'o'o'o'K'k>k>T'S'S'!*A,I'U'('y'F'V'N'D'O'          ",
"      W'X'Y'Q't'L'F'}'('Z'I'h,h,,*(&(&f%k>k>J>W;o'o'o'o'!&g%U%e'3''%h%h%h%h%h%h%h%h%h%h%h%h%h%h%h%h%h%h%h%h%h%h%h%h%h%h%h%h%h%h%h%h%h%h%h%h%h%h%h%h%h%h%h%h%h%h%h%h%h%h%h%h%h%h%h%h%h%h%h%h%h%h%h%h%h%h%h%h%h%h%h%h%h%h%h%h%h%h%h%h%h%h%h%h%h%h%h%h%h%h%h%h%h%h%h%h%h%h%h%h%h%h%h%h%h%h%h%h%h%h%h%h%h%h%h%h%h%h%h%h%h%h%h%h%h%h%h%h%h%h%h%h%h%h%h%h%h%h%h%h%h%h%h%h%h%h%h%h%h%h%h%h%h%h%h%h%h%h%h%h%h%h%h%h%h%h%h%h%h%h%h%h%h%h%h%h%h%h%h%h%h%h%h%h%h%h%h%h%h%h%h%h%h%h%h%h%h%h%h%h%h%h%h%h%h%h%h%h%h%h%h%h%h%h%h%h%h%h%h%h%h%h%h%h%h%h%h%h%h%h%h%h%h%h%h%h%h%h%h%h%h%h%h%h%h%h%h%h%h%h%h%h%h%h%h%h%h%h%h%h%h%h%h%h%h%h%h%h%h%h%h%h%h%h%h%h%h%h%h%h%h%h%h%h%h%h%h%h%h%h%h%h%h%h%h%h%h%h%h%h%h%h%h%h%h%h%h%h%h%h%h%h%h%h%h%h%h%h%h%h%h%h%h%h%h%h%h%h%h%h%h%'%3'3'e'U%g%o'o'o'o'W;K'k>k>f%~&(&,*A,h,Z'Z'}'y'L'V'`'Y'X' )          ",
"      .)+)@)Y'#)`'z'$)%)*=&)Z'*)h,=)=)(&(&f%f%f%k>K',%o'o'o'o'o'o'o'o'!&!&!&g%g%g%g%g%g%g%g%g%g%g%g%g%g%g%g%g%g%g%g%g%g%g%g%g%g%g%g%g%g%g%g%g%g%g%g%g%g%g%g%g%g%g%g%g%g%g%g%g%g%g%g%g%g%g%g%g%g%g%g%g%g%g%g%g%g%g%g%g%g%g%g%g%g%g%g%g%g%g%g%g%g%g%g%g%g%g%g%g%g%g%g%g%g%g%g%g%g%g%g%g%g%g%g%g%g%g%g%g%g%g%g%g%g%g%g%g%g%g%g%g%g%g%g%g%g%g%g%g%g%g%g%g%g%g%g%g%g%g%g%g%g%g%g%g%g%g%g%g%g%g%g%g%g%g%g%g%g%g%g%g%g%g%g%g%g%g%g%g%g%g%g%g%g%g%g%g%g%g%g%g%g%g%g%g%g%g%g%g%g%g%g%g%g%g%g%g%g%g%g%g%g%g%g%g%g%g%g%g%g%g%g%g%g%g%g%g%g%g%g%g%g%g%g%g%g%g%g%g%g%g%g%g%g%g%g%g%g%g%g%g%g%g%g%g%g%g%g%g%g%g%g%g%g%g%g%g%g%g%g%g%g%g%g%g%g%g%g%g%g%g%g%g%g%g%g%g%g%g%g%g%g%g%g%g%g%g%g%g%g%g%g%g%g%g%g%g%g%g%g%g%g%g%g%g%g%g%g%g%g%g%g%g%g%g%g%g%g%g%g%g%g%g%!&!&!&!&o'o'o'o'o'o'o',%K'J>f%f%f%~&(&=)=)h,*)Z'&)*=%)L't'-)Y'@);)>)          ",
"        ,)')@)))-)!)z'$)~)*={)&)*)*)])=)=)=)(&f%f%f%f%k>K'W;,%o'o'o'o'o'o'o'o'o'o'o'o'o'o'o'o'o'o'o'o'o'o'o'o'o'o'o'o'o'o'o'o'o'o'o'o'o'o'o'o'o'o'o'o'o'o'o'o'o'o'o'o'o'o'o'o'o'o'o'o'o'o'o'o'o'o'o'o'o'o'o'o'o'o'o'o'o'o'o'o'o'o'o'o'o'o'o'o'o'o'o'o'o'o'o'o'o'o'o'o'o'o'o'o'o'o'o'o'o'o'o'o'o'o'o'o'o'o'o'o'o'o'o'o'o'o'o'o'o'o'o'o'o'o'o'o'o'o'o'o'o'o'o'o'o'o'o'o'o'o'o'o'o'o'o'o'o'o'o'o'o'o'o'o'o'o'o'o'o'o'o'o'o'o'o'o'o'o'o'o'o'o'o'o'o'o'o'o'o'o'o'o'o'o'o'o'o'o'o'o'o'o'o'o'o'o'o'o'o'o'o'o'o'o'o'o'o'o'o'o'o'o'o'o'o'o'o'o'o'o'o'o'o'o'o'o'o'o'o'o'o'o'o'o'o'o'o'o'o'o'o'o'o'o'o'o'o'o'o'o'o'o'o'o'o'o'o'o'o'o'o'o'o'o'o'o'o'o'o'o'o'o'o'o'o'o'o'o'o'o'o'o'o'o'o'o'o'o'o'o'o'o'o'o'o'o'o'o'o'o'o'o'o'o'o'o'o'o'o'o'o'o'o'o'o'o'o'o'o'o'o'o'o'o'o'o'o',%W;K'k>f%f%f%f%O%R&=)=)T&*)^)&){)/)~)z't'-)()_)'):)            ",
"        <)[)})_)()|)!)t'1)~)/)2){)^)^)^)])3)3)3)(&~&f%f%f%f%f%f%k>k>J>K'K'K'K'K'K'K'K'K'K'K'K'K'K'K'K'K'K'K'K'K'K'K'K'K'K'K'K'K'K'K'K'K'K'K'K'K'K'K'K'K'K'K'K'K'K'K'K'K'K'K'K'K'K'K'K'K'K'K'K'K'K'K'K'K'K'K'K'K'K'K'K'K'K'K'K'K'K'K'K'K'K'K'K'K'K'K'K'K'K'K'K'K'K'K'K'K'K'K'K'K'K'K'K'K'K'K'K'K'K'K'K'K'K'K'K'K'K'K'K'K'K'K'K'K'K'K'K'K'K'K'K'K'K'K'K'K'K'K'K'K'K'K'K'K'K'K'K'K'K'K'K'K'K'K'K'K'K'K'K'K'K'K'K'K'K'K'K'K'K'K'K'K'K'K'K'K'K'K'K'K'K'K'K'K'K'K'K'K'K'K'K'K'K'K'K'K'K'K'K'K'K'K'K'K'K'K'K'K'K'K'K'K'K'K'K'K'K'K'K'K'K'K'K'K'K'K'K'K'K'K'K'K'K'K'K'K'K'K'K'K'K'K'K'K'K'K'K'K'K'K'K'K'K'K'K'K'K'K'K'K'K'K'K'K'K'K'K'K'K'K'K'K'K'K'K'K'K'K'K'K'K'K'K'K'K'K'K'K'K'K'K'K'K'K'K'K'K'K'K'K'K'K'K'K'K'K'K'K'K'K'K'K'K'K'K'K'K'K'K'K'K'K'K'K'K'K'K'K'K'J>k>f%f%f%f%f%f%~&(&3)3)3)])^)^)4){)2)5)6)7)t'|)()_)})[)8)            ",
"          9)0)})a)b)c)!)!)d)1)5)2)2)e)&)&)^)])3)3)3)R&(&~&f%f%f%f%f%f%f%f%f%f%f%f%f%f%f%f%f%f%f%f%f%f%f%f%f%f%f%f%f%f%f%f%f%f%f%f%f%f%f%f%f%f%f%f%f%f%f%f%f%f%f%f%f%f%f%f%f%f%f%f%f%f%f%f%f%f%f%f%f%f%f%f%f%f%f%f%f%f%f%f%f%f%f%f%f%f%f%f%f%f%f%f%f%f%f%f%f%f%f%f%f%f%f%f%f%f%f%f%f%f%f%f%f%f%f%f%f%f%f%f%f%f%f%f%f%f%f%f%f%f%f%f%f%f%f%f%f%f%f%f%f%f%f%f%f%f%f%f%f%f%f%f%f%f%f%f%f%f%f%f%f%f%f%f%f%f%f%f%f%f%f%f%f%f%f%f%f%f%f%f%f%f%f%f%f%f%f%f%f%f%f%f%f%f%f%f%f%f%f%f%f%f%f%f%f%f%f%f%f%f%f%f%f%f%f%f%f%f%f%f%f%f%f%f%f%f%f%f%f%f%f%f%f%f%f%f%f%f%f%f%f%f%f%f%f%f%f%f%f%f%f%f%f%f%f%f%f%f%f%f%f%f%f%f%f%f%f%f%f%f%f%f%f%f%f%f%f%f%f%f%f%f%f%f%f%f%f%f%f%f%f%f%f%f%f%f%f%f%f%f%f%f%f%f%f%f%f%f%f%f%f%f%f%f%f%f%f%f%f%f%f%f%f%f%f%f%f%f%f%f%f%f%f%f%f%f%f%f%f%f%f%~&(&R&3)3)3)])^)&)&){)2)2)6)1)7)!)|)c)a)f)0)g)              ",
"          h)i)j)f)f)b)b)k)k)d)d)6)l)l)2)e)e)e)4)])3)3)3)3)3)R&R&O%~&~&m)f%f%f%f%f%f%f%f%f%f%f%f%f%f%f%f%f%f%f%f%f%f%f%f%f%f%f%f%f%f%f%f%f%f%f%f%f%f%f%f%f%f%f%f%f%f%f%f%f%f%f%f%f%f%f%f%f%f%f%f%f%f%f%f%f%f%f%f%f%f%f%f%f%f%f%f%f%f%f%f%f%f%f%f%f%f%f%f%f%f%f%f%f%f%f%f%f%f%f%f%f%f%f%f%f%f%f%f%f%f%f%f%f%f%f%f%f%f%f%f%f%f%f%f%f%f%f%f%f%f%f%f%f%f%f%f%f%f%f%f%f%f%f%f%f%f%f%f%f%f%f%f%f%f%f%f%f%f%f%f%f%f%f%f%f%f%f%f%f%f%f%f%f%f%f%f%f%f%f%f%f%f%f%f%f%f%f%f%f%f%f%f%f%f%f%f%f%f%f%f%f%f%f%f%f%f%f%f%f%f%f%f%f%f%f%f%f%f%f%f%f%f%f%f%f%f%f%f%f%f%f%f%f%f%f%f%f%f%f%f%f%f%f%f%f%f%f%f%f%f%f%f%f%f%f%f%f%f%f%f%f%f%f%f%f%f%f%f%f%f%f%f%f%f%f%f%f%f%f%f%f%f%f%f%f%f%f%f%f%f%f%f%f%f%f%f%f%f%f%f%f%f%f%f%f%f%f%f%f%f%f%f%f%f%f%f%f%f%f%f%f%f%f%f%f%f%f%m)~&~&O%(&R&3)3)3)3)3)])4)e)e)e)2)l)l)n)d)o)k)c)b)a)f)p)i)q)              ",
"            r)s)t)0)u)')v)w)w)o)x)d)y)y)5)2)e)e)e)&)z)])3)3)3)3)3)3)3)3)3)3)3)3)3)3)3)3)3)3)3)3)3)3)3)3)3)3)3)3)3)3)3)3)3)3)3)3)3)3)3)3)3)3)3)3)3)3)3)3)3)3)3)3)3)3)3)3)3)3)3)3)3)3)3)3)3)3)3)3)3)3)3)3)3)3)3)3)3)3)3)3)3)3)3)3)3)3)3)3)3)3)3)3)3)3)3)3)3)3)3)3)3)3)3)3)3)3)3)3)3)3)3)3)3)3)3)3)3)3)3)3)3)3)3)3)3)3)3)3)3)3)3)3)3)3)3)3)3)3)3)3)3)3)3)3)3)3)3)3)3)3)3)3)3)3)3)3)3)3)3)3)3)3)3)3)3)3)3)3)3)3)3)3)3)3)3)3)3)3)3)3)3)3)3)3)3)3)3)3)3)3)3)3)3)3)3)3)3)3)3)3)3)3)3)3)3)3)3)3)3)3)3)3)3)3)3)3)3)3)3)3)3)3)3)3)3)3)3)3)3)3)3)3)3)3)3)3)3)3)3)3)3)3)3)3)3)3)3)3)3)3)3)3)3)3)3)3)3)3)3)3)3)3)3)3)3)3)3)3)3)3)3)3)3)3)3)3)3)3)3)3)3)3)3)3)3)3)3)3)3)3)3)3)3)3)3)3)3)3)3)3)3)3)3)3)3)3)3)3)3)3)3)3)3)3)3)3)3)3)3)3)3)3)3)3)3)3)3)3)3)3)3)3)3)3)3)3)3)3)3)3)3)3)3)])^)4)e)e)e)2)y)y)y)x)x)X'w)c)')a)0)j)s)r)                ",
"            A)B)C)D)s)E)F)')v)v)X'G)x)n)H)H)I)2)e)e)e)e)e)4)z)])3)3)3)3)3)3)3)3)3)3)3)3)3)3)3)3)3)3)3)3)3)3)3)3)3)3)3)3)3)3)3)3)3)3)3)3)3)3)3)3)3)3)3)3)3)3)3)3)3)3)3)3)3)3)3)3)3)3)3)3)3)3)3)3)3)3)3)3)3)3)3)3)3)3)3)3)3)3)3)3)3)3)3)3)3)3)3)3)3)3)3)3)3)3)3)3)3)3)3)3)3)3)3)3)3)3)3)3)3)3)3)3)3)3)3)3)3)3)3)3)3)3)3)3)3)3)3)3)3)3)3)3)3)3)3)3)3)3)3)3)3)3)3)3)3)3)3)3)3)3)3)3)3)3)3)3)3)3)3)3)3)3)3)3)3)3)3)3)3)3)3)3)3)3)3)3)3)3)3)3)3)3)3)3)3)3)3)3)3)3)3)3)3)3)3)3)3)3)3)3)3)3)3)3)3)3)3)3)3)3)3)3)3)3)3)3)3)3)3)3)3)3)3)3)3)3)3)3)3)3)3)3)3)3)3)3)3)3)3)3)3)3)3)3)3)3)3)3)3)3)3)3)3)3)3)3)3)3)3)3)3)3)3)3)3)3)3)3)3)3)3)3)3)3)3)3)3)3)3)3)3)3)3)3)3)3)3)3)3)3)3)3)3)3)3)3)3)3)3)3)3)3)3)3)3)3)3)3)3)3)3)3)3)3)3)3)3)3)3)3)3)3)3)3)3)3)3)3)3)3)3)3)3)3)3)])z)4)e)e)e)e)e)l)y)H)H)J)G)G)w)v)v)F)F)0)D)C)K)L)                ",
"              M)N)O)D)j)E)P)F)Q)Q)w)R)R)G)H)H)H)H)l)S)e)e)e)e)e)e)e)4)4)4)4)4)4)4)4)4)4)4)4)4)4)4)4)4)4)4)4)4)4)4)4)4)4)4)4)4)4)4)4)4)4)4)4)4)4)4)4)4)4)4)4)4)4)4)4)4)4)4)4)4)4)4)4)4)4)4)4)4)4)4)4)4)4)4)4)4)4)4)4)4)4)4)4)4)4)4)4)4)4)4)4)4)4)4)4)4)4)4)4)4)4)4)4)4)4)4)4)4)4)4)4)4)4)4)4)4)4)4)4)4)4)4)4)4)4)4)4)4)4)4)4)4)4)4)4)4)4)4)4)4)4)4)4)4)4)4)4)4)4)4)4)4)4)4)4)4)4)4)4)4)4)4)4)4)4)4)4)4)4)4)4)4)4)4)4)4)4)4)4)4)4)4)4)4)4)4)4)4)4)4)4)4)4)4)4)4)4)4)4)4)4)4)4)4)4)4)4)4)4)4)4)4)4)4)4)4)4)4)4)4)4)4)4)4)4)4)4)4)4)4)4)4)4)4)4)4)4)4)4)4)4)4)4)4)4)4)4)4)4)4)4)4)4)4)4)4)4)4)4)4)4)4)4)4)4)4)4)4)4)4)4)4)4)4)4)4)4)4)4)4)4)4)4)4)4)4)4)4)4)4)4)4)4)4)4)4)4)4)4)4)4)4)4)4)4)4)4)4)4)4)4)4)4)4)4)4)4)4)4)4)4)4)4)4)4)4)4)4)4)4)4)4)4)4)4)4)4)4)e)e)e)e)e)e)e)S)l)H)H)H)J)G)R)R)T)Q)Q)F)P)j)D)O)N)M)                  ",
"                U)V)W)X)D)s)Y)P)Z)Z)`) ! !R)G)H)H)H)H)y)l)2)S)e)e)e)e)e)e)e)e)e)e)e)e)e)e)e)e)e)e)e)e)e)e)e)e)e)e)e)e)e)e)e)e)e)e)e)e)e)e)e)e)e)e)e)e)e)e)e)e)e)e)e)e)e)e)e)e)e)e)e)e)e)e)e)e)e)e)e)e)e)e)e)e)e)e)e)e)e)e)e)e)e)e)e)e)e)e)e)e)e)e)e)e)e)e)e)e)e)e)e)e)e)e)e)e)e)e)e)e)e)e)e)e)e)e)e)e)e)e)e)e)e)e)e)e)e)e)e)e)e)e)e)e)e)e)e)e)e)e)e)e)e)e)e)e)e)e)e)e)e)e)e)e)e)e)e)e)e)e)e)e)e)e)e)e)e)e)e)e)e)e)e)e)e)e)e)e)e)e)e)e)e)e)e)e)e)e)e)e)e)e)e)e)e)e)e)e)e)e)e)e)e)e)e)e)e)e)e)e)e)e)e)e)e)e)e)e)e)e)e)e)e)e)e)e)e)e)e)e)e)e)e)e)e)e)e)e)e)e)e)e)e)e)e)e)e)e)e)e)e)e)e)e)e)e)e)e)e)e)e)e)e)e)e)e)e)e)e)e)e)e)e)e)e)e)e)e)e)e)e)e)e)e)e)e)e)e)e)e)e)e)e)e)e)e)e)e)e)e)e)e)e)e)e)e)e)e)e)e)e)e)e)e)e)e)e)e)e)e)e)e)e)e)e)e)e)e)e)e)e)e)e)e)e)e)e)e)e)S)2)l)y)H)H)H)J).! ! !T)Q)Z)F)E)Y)D)D)W)W)+!                    ",
"                @!U)#!$!X)X)%!%!Y)P)F)Z)`) ! ! !G)J)H)H)H)H)H)y)I)l)l)2)S)S)S)S)S)S)S)S)S)S)S)S)S)S)S)S)S)S)S)S)S)S)S)S)S)S)S)S)S)S)S)S)S)S)S)S)S)S)S)S)S)S)S)S)S)S)S)S)S)S)S)S)S)S)S)S)S)S)S)S)S)S)S)S)S)S)S)S)S)S)S)S)S)S)S)S)S)S)S)S)S)S)S)S)S)S)S)S)S)S)S)S)S)S)S)S)S)S)S)S)S)S)S)S)S)S)S)S)S)S)S)S)S)S)S)S)S)S)S)S)S)S)S)S)S)S)S)S)S)S)S)S)S)S)S)S)S)S)S)S)S)S)S)S)S)S)S)S)S)S)S)S)S)S)S)S)S)S)S)S)S)S)S)S)S)S)S)S)S)S)S)S)S)S)S)S)S)S)S)S)S)S)S)S)S)S)S)S)S)S)S)S)S)S)S)S)S)S)S)S)S)S)S)S)S)S)S)S)S)S)S)S)S)S)S)S)S)S)S)S)S)S)S)S)S)S)S)S)S)S)S)S)S)S)S)S)S)S)S)S)S)S)S)S)S)S)S)S)S)S)S)S)S)S)S)S)S)S)S)S)S)S)S)S)S)S)S)S)S)S)S)S)S)S)S)S)S)S)S)S)S)S)S)S)S)S)S)S)S)S)S)S)S)S)S)S)S)S)S)S)S)S)S)S)S)S)S)S)S)S)S)S)S)S)S)S)S)S)S)S)S)S)S)S)S)S)2)2)l)l)I)y)H)H)H)H)H)J).! ! ! !`)Z)F)P)%!%!X)X)V)#!U)&!                    ",
"                  *!=!-!-!;!;!>!%!%!,!P)P)'!`) ! ! !.!G)J)H)H)H)H)H)H)H)H)H)H)H)H)H)H)H)H)H)H)H)H)H)H)H)H)H)H)H)H)H)H)H)H)H)H)H)H)H)H)H)H)H)H)H)H)H)H)H)H)H)H)H)H)H)H)H)H)H)H)H)H)H)H)H)H)H)H)H)H)H)H)H)H)H)H)H)H)H)H)H)H)H)H)H)H)H)H)H)H)H)H)H)H)H)H)H)H)H)H)H)H)H)H)H)H)H)H)H)H)H)H)H)H)H)H)H)H)H)H)H)H)H)H)H)H)H)H)H)H)H)H)H)H)H)H)H)H)H)H)H)H)H)H)H)H)H)H)H)H)H)H)H)H)H)H)H)H)H)H)H)H)H)H)H)H)H)H)H)H)H)H)H)H)H)H)H)H)H)H)H)H)H)H)H)H)H)H)H)H)H)H)H)H)H)H)H)H)H)H)H)H)H)H)H)H)H)H)H)H)H)H)H)H)H)H)H)H)H)H)H)H)H)H)H)H)H)H)H)H)H)H)H)H)H)H)H)H)H)H)H)H)H)H)H)H)H)H)H)H)H)H)H)H)H)H)H)H)H)H)H)H)H)H)H)H)H)H)H)H)H)H)H)H)H)H)H)H)H)H)H)H)H)H)H)H)H)H)H)H)H)H)H)H)H)H)H)H)H)H)H)H)H)H)H)H)H)H)H)H)H)H)H)H)H)H)H)H)H)H)H)H)H)H)H)H)H)H)H)H)H)H)H)H)H)H)H)H)H)H)H)H)H)J)G)R) ! ! !9)P)P)P)Y)%!>!;!;!)!-!=!!!                      ",
"                    ~!{!]!]!V)V);!^!^!%!,!,!,!'!`) ! ! ! !R).!/!J)J)H)H)H)H)H)H)H)H)H)H)H)H)H)H)H)H)H)H)H)H)H)H)H)H)H)H)H)H)H)H)H)H)H)H)H)H)H)H)H)H)H)H)H)H)H)H)H)H)H)H)H)H)H)H)H)H)H)H)H)H)H)H)H)H)H)H)H)H)H)H)H)H)H)H)H)H)H)H)H)H)H)H)H)H)H)H)H)H)H)H)H)H)H)H)H)H)H)H)H)H)H)H)H)H)H)H)H)H)H)H)H)H)H)H)H)H)H)H)H)H)H)H)H)H)H)H)H)H)H)H)H)H)H)H)H)H)H)H)H)H)H)H)H)H)H)H)H)H)H)H)H)H)H)H)H)H)H)H)H)H)H)H)H)H)H)H)H)H)H)H)H)H)H)H)H)H)H)H)H)H)H)H)H)H)H)H)H)H)H)H)H)H)H)H)H)H)H)H)H)H)H)H)H)H)H)H)H)H)H)H)H)H)H)H)H)H)H)H)H)H)H)H)H)H)H)H)H)H)H)H)H)H)H)H)H)H)H)H)H)H)H)H)H)H)H)H)H)H)H)H)H)H)H)H)H)H)H)H)H)H)H)H)H)H)H)H)H)H)H)H)H)H)H)H)H)H)H)H)H)H)H)H)H)H)H)H)H)H)H)H)H)H)H)H)H)H)H)H)H)H)H)H)H)H)H)H)H)H)H)H)H)H)H)H)H)H)H)H)H)H)H)H)H)H)H)H)H)H)H)H)(!J)J)/!.! ! ! ! ! !9)P),!,!%!^!^!_!V)V)-!]!{!:!                        ",
"                      <![!}!]!)!)!V)_!_!_!%!,!,!,!'!9)`) ! ! ! ! ! ! ! !.!.!.!.!.!.!.!.!.!.!.!.!.!.!.!.!.!.!.!.!.!.!.!.!.!.!.!.!.!.!.!.!.!.!.!.!.!.!.!.!.!.!.!.!.!.!.!.!.!.!.!.!.!.!.!.!.!.!.!.!.!.!.!.!.!.!.!.!.!.!.!.!.!.!.!.!.!.!.!.!.!.!.!.!.!.!.!.!.!.!.!.!.!.!.!.!.!.!.!.!.!.!.!.!.!.!.!.!.!.!.!.!.!.!.!.!.!.!.!.!.!.!.!.!.!.!.!.!.!.!.!.!.!.!.!.!.!.!.!.!.!.!.!.!.!.!.!.!.!.!.!.!.!.!.!.!.!.!.!.!.!.!.!.!.!.!.!.!.!.!.!.!.!.!.!.!.!.!.!.!.!.!.!.!.!.!.!.!.!.!.!.!.!.!.!.!.!.!.!.!.!.!.!.!.!.!.!.!.!.!.!.!.!.!.!.!.!.!.!.!.!.!.!.!.!.!.!.!.!.!.!.!.!.!.!.!.!.!.!.!.!.!.!.!.!.!.!.!.!.!.!.!.!.!.!.!.!.!.!.!.!.!.!.!.!.!.!.!.!.!.!.!.!.!.!.!.!.!.!.!.!.!.!.!.!.!.!.!.!.!.!.!.!.!.!.!.!.!.!.!.!.!.!.!.!.!.!.!.!.!.!.!.!.!.!.!.!.!.!.!.!.!.!.!.!.!R) ! ! ! ! ! ! ! !`)Z),!,!,!%!^!_!_!|!)!)!]!}!}!<!                          ",
"                      1!2!3![![!4!4!4!5!6!6!7!%!,!,!,!,!'!9)`) ! ! ! ! ! ! ! ! ! ! ! ! ! ! ! ! ! ! ! ! ! ! ! ! ! ! ! ! ! ! ! ! ! ! ! ! ! ! ! ! ! ! ! ! ! ! ! ! ! ! ! ! ! ! ! ! ! ! ! ! ! ! ! ! ! ! ! ! ! ! ! ! ! ! ! ! ! ! ! ! ! ! ! ! ! ! ! ! ! ! ! ! ! ! ! ! ! ! ! ! ! ! ! ! ! ! ! ! ! ! ! ! ! ! ! ! ! ! ! ! ! ! ! ! ! ! ! ! ! ! ! ! ! ! ! ! ! ! ! ! ! ! ! ! ! ! ! ! ! ! ! ! ! ! ! ! ! ! ! ! ! ! ! ! ! ! ! ! ! ! ! ! ! ! ! ! ! ! ! ! ! ! ! ! ! ! ! ! ! ! ! ! ! ! ! ! ! ! ! ! ! ! ! ! ! ! ! ! ! ! ! ! ! ! ! ! ! ! ! ! ! ! ! ! ! ! ! ! ! ! ! ! ! ! ! ! ! ! ! ! ! ! ! ! ! ! ! ! ! ! ! ! ! ! ! ! ! ! ! ! ! ! ! ! ! ! ! ! ! ! ! ! ! ! ! ! ! ! ! ! ! ! ! ! ! ! ! ! ! ! ! ! ! ! ! ! ! ! ! ! ! ! ! ! ! ! ! ! ! ! ! ! ! ! ! ! ! ! ! ! ! ! ! ! ! ! ! ! ! ! ! ! ! ! ! !`)9)'!P),!,!,!8!^!6!6!6!5!4!4!9![!0!2!a!                          ",
"                        b!c!d!e!e!f!}!}!4!6!6!6!_!^!8!,!,!,!,!,!,!'!Z)Z)9)9)9)9)9)9)9)9)9)9)9)9)9)9)9)9)9)9)9)9)9)9)9)9)9)9)9)9)9)9)9)9)9)9)9)9)9)9)9)9)9)9)9)9)9)9)9)9)9)9)9)9)9)9)9)9)9)9)9)9)9)9)9)9)9)9)9)9)9)9)9)9)9)9)9)9)9)9)9)9)9)9)9)9)9)9)9)9)9)9)9)9)9)9)9)9)9)9)9)9)9)9)9)9)9)9)9)9)9)9)9)9)9)9)9)9)9)9)9)9)9)9)9)9)9)9)9)9)9)9)9)9)9)9)9)9)9)9)9)9)9)9)9)9)9)9)9)9)9)9)9)9)9)9)9)9)9)9)9)9)9)9)9)9)9)9)9)9)9)9)9)9)9)9)9)9)9)9)9)9)9)9)9)9)9)9)9)9)9)9)9)9)9)9)9)9)9)9)9)9)9)9)9)9)9)9)9)9)9)9)9)9)9)9)9)9)9)9)9)9)9)9)9)9)9)9)9)9)9)9)9)9)9)9)9)9)9)9)9)9)9)9)9)9)9)9)9)9)9)9)9)9)9)9)9)9)9)9)9)9)9)9)9)9)9)9)9)9)9)9)9)9)9)9)9)9)9)9)9)9)9)9)9)9)9)9)9)9)9)9)9)9)9)9)9)9)9)9)9)9)9)9)9)9)9)9)9)9)9)9)9)9)9)9)9)9)9)9)9)9)9)9)9)9)9)9)9)Z)'!'!P),!,!,!,!,!%!7!6!6!6!5!}!}!}!e!e!d!c!g!                            ",
"                          h!i!j!k!k!e!f!f!}!{!6!6!6!6!_!^!8!,!,!,!,!,!,!,!,!,!,!,!,!,!,!,!,!,!,!,!,!,!,!,!,!,!,!,!,!,!,!,!,!,!,!,!,!,!,!,!,!,!,!,!,!,!,!,!,!,!,!,!,!,!,!,!,!,!,!,!,!,!,!,!,!,!,!,!,!,!,!,!,!,!,!,!,!,!,!,!,!,!,!,!,!,!,!,!,!,!,!,!,!,!,!,!,!,!,!,!,!,!,!,!,!,!,!,!,!,!,!,!,!,!,!,!,!,!,!,!,!,!,!,!,!,!,!,!,!,!,!,!,!,!,!,!,!,!,!,!,!,!,!,!,!,!,!,!,!,!,!,!,!,!,!,!,!,!,!,!,!,!,!,!,!,!,!,!,!,!,!,!,!,!,!,!,!,!,!,!,!,!,!,!,!,!,!,!,!,!,!,!,!,!,!,!,!,!,!,!,!,!,!,!,!,!,!,!,!,!,!,!,!,!,!,!,!,!,!,!,!,!,!,!,!,!,!,!,!,!,!,!,!,!,!,!,!,!,!,!,!,!,!,!,!,!,!,!,!,!,!,!,!,!,!,!,!,!,!,!,!,!,!,!,!,!,!,!,!,!,!,!,!,!,!,!,!,!,!,!,!,!,!,!,!,!,!,!,!,!,!,!,!,!,!,!,!,!,!,!,!,!,!,!,!,!,!,!,!,!,!,!,!,!,!,!,!,!,!,!,!,!,!,!,!,!,!,!,!,!,!,!,!,!,!,!,!,!,!,!8!^!_!6!6!6!5!}!f!f!f!k!k!j!i!h!                              ",
"                            l!i!m!n!n!d!e!f!f!f!4!6!6!6!6!6!_!7!^!%!8!8!,!,!,!,!,!,!,!,!,!,!,!,!,!,!,!,!,!,!,!,!,!,!,!,!,!,!,!,!,!,!,!,!,!,!,!,!,!,!,!,!,!,!,!,!,!,!,!,!,!,!,!,!,!,!,!,!,!,!,!,!,!,!,!,!,!,!,!,!,!,!,!,!,!,!,!,!,!,!,!,!,!,!,!,!,!,!,!,!,!,!,!,!,!,!,!,!,!,!,!,!,!,!,!,!,!,!,!,!,!,!,!,!,!,!,!,!,!,!,!,!,!,!,!,!,!,!,!,!,!,!,!,!,!,!,!,!,!,!,!,!,!,!,!,!,!,!,!,!,!,!,!,!,!,!,!,!,!,!,!,!,!,!,!,!,!,!,!,!,!,!,!,!,!,!,!,!,!,!,!,!,!,!,!,!,!,!,!,!,!,!,!,!,!,!,!,!,!,!,!,!,!,!,!,!,!,!,!,!,!,!,!,!,!,!,!,!,!,!,!,!,!,!,!,!,!,!,!,!,!,!,!,!,!,!,!,!,!,!,!,!,!,!,!,!,!,!,!,!,!,!,!,!,!,!,!,!,!,!,!,!,!,!,!,!,!,!,!,!,!,!,!,!,!,!,!,!,!,!,!,!,!,!,!,!,!,!,!,!,!,!,!,!,!,!,!,!,!,!,!,!,!,!,!,!,!,!,!,!,!,!,!,!,!,!,!,!,!,!,!,!,!,!,!,!,!,!,!8!%!^!^!7!6!6!6!6!6!5!o!f!f!p!k!n!n!m!i!q!                                ",
"                              r!s!t!m!n!n!k!p!f!f!f!o!5!6!6!6!6!6!6!6!6!6!6!6!6!6!6!6!6!6!6!6!6!6!6!6!6!6!6!6!6!6!6!6!6!6!6!6!6!6!6!6!6!6!6!6!6!6!6!6!6!6!6!6!6!6!6!6!6!6!6!6!6!6!6!6!6!6!6!6!6!6!6!6!6!6!6!6!6!6!6!6!6!6!6!6!6!6!6!6!6!6!6!6!6!6!6!6!6!6!6!6!6!6!6!6!6!6!6!6!6!6!6!6!6!6!6!6!6!6!6!6!6!6!6!6!6!6!6!6!6!6!6!6!6!6!6!6!6!6!6!6!6!6!6!6!6!6!6!6!6!6!6!6!6!6!6!6!6!6!6!6!6!6!6!6!6!6!6!6!6!6!6!6!6!6!6!6!6!6!6!6!6!6!6!6!6!6!6!6!6!6!6!6!6!6!6!6!6!6!6!6!6!6!6!6!6!6!6!6!6!6!6!6!6!6!6!6!6!6!6!6!6!6!6!6!6!6!6!6!6!6!6!6!6!6!6!6!6!6!6!6!6!6!6!6!6!6!6!6!6!6!6!6!6!6!6!6!6!6!6!6!6!6!6!6!6!6!6!6!6!6!6!6!6!6!6!6!6!6!6!6!6!6!6!6!6!6!6!6!6!6!6!6!6!6!6!6!6!6!6!6!6!6!6!6!6!6!6!6!6!6!6!6!6!6!6!6!6!6!6!6!6!6!6!6!6!6!6!6!6!6!6!6!6!6!6!6!6!6!6!6!6!6!6!5!4!}!f!f!f!k!n!n!m!t!s!r!                                  ",
"                                u!v!w!x!l!l!l!y!p!f!f!f!f!o!{!5!6!6!6!6!6!6!6!6!6!6!6!6!6!6!6!6!6!6!6!6!6!6!6!6!6!6!6!6!6!6!6!6!6!6!6!6!6!6!6!6!6!6!6!6!6!6!6!6!6!6!6!6!6!6!6!6!6!6!6!6!6!6!6!6!6!6!6!6!6!6!6!6!6!6!6!6!6!6!6!6!6!6!6!6!6!6!6!6!6!6!6!6!6!6!6!6!6!6!6!6!6!6!6!6!6!6!6!6!6!6!6!6!6!6!6!6!6!6!6!6!6!6!6!6!6!6!6!6!6!6!6!6!6!6!6!6!6!6!6!6!6!6!6!6!6!6!6!6!6!6!6!6!6!6!6!6!6!6!6!6!6!6!6!6!6!6!6!6!6!6!6!6!6!6!6!6!6!6!6!6!6!6!6!6!6!6!6!6!6!6!6!6!6!6!6!6!6!6!6!6!6!6!6!6!6!6!6!6!6!6!6!6!6!6!6!6!6!6!6!6!6!6!6!6!6!6!6!6!6!6!6!6!6!6!6!6!6!6!6!6!6!6!6!6!6!6!6!6!6!6!6!6!6!6!6!6!6!6!6!6!6!6!6!6!6!6!6!6!6!6!6!6!6!6!6!6!6!6!6!6!6!6!6!6!6!6!6!6!6!6!6!6!6!6!6!6!6!6!6!6!6!6!6!6!6!6!6!6!6!6!6!6!6!6!6!6!6!6!6!6!6!6!6!6!6!6!6!6!6!6!6!6!6!6!5!{!o!}!f!f!f!p!k!l!l!l!x!w!v!z!                                    ",
"                                    A!B!C!D!l!l!l!y!p!f!f!f!f!f!f!f!o!o!o!o!o!o!o!o!o!o!o!o!o!o!o!o!o!o!o!o!o!o!o!o!o!o!o!o!o!o!o!o!o!o!o!o!o!o!o!o!o!o!o!o!o!o!o!o!o!o!o!o!o!o!o!o!o!o!o!o!o!o!o!o!o!o!o!o!o!o!o!o!o!o!o!o!o!o!o!o!o!o!o!o!o!o!o!o!o!o!o!o!o!o!o!o!o!o!o!o!o!o!o!o!o!o!o!o!o!o!o!o!o!o!o!o!o!o!o!o!o!o!o!o!o!o!o!o!o!o!o!o!o!o!o!o!o!o!o!o!o!o!o!o!o!o!o!o!o!o!o!o!o!o!o!o!o!o!o!o!o!o!o!o!o!o!o!o!o!o!o!o!o!o!o!o!o!o!o!o!o!o!o!o!o!o!o!o!o!o!o!o!o!o!o!o!o!o!o!o!o!o!o!o!o!o!o!o!o!o!o!o!o!o!o!o!o!o!o!o!o!o!o!o!o!o!o!o!o!o!o!o!o!o!o!o!o!o!o!o!o!o!o!o!o!o!o!o!o!o!o!o!o!o!o!o!o!o!o!o!o!o!o!o!o!o!o!o!o!o!o!o!o!o!o!o!o!o!o!o!o!o!o!o!o!o!o!o!o!o!o!o!o!o!o!o!o!o!o!o!o!o!o!o!o!o!o!o!o!o!o!o!o!o!o!o!o!o!o!o!o!o!o!o!o!o!o!o!o!o!o!f!f!f!f!f!f!p!y!l!l!l!D!C!B!A!                                        ",
"                                      A!E!F!G!D!l!l!l!l!y!e!p!f!f!f!f!f!f!f!f!f!f!f!f!f!f!f!f!f!f!f!f!f!f!f!f!f!f!f!f!f!f!f!f!f!f!f!f!f!f!f!f!f!f!f!f!f!f!f!f!f!f!f!f!f!f!f!f!f!f!f!f!f!f!f!f!f!f!f!f!f!f!f!f!f!f!f!f!f!f!f!f!f!f!f!f!f!f!f!f!f!f!f!f!f!f!f!f!f!f!f!f!f!f!f!f!f!f!f!f!f!f!f!f!f!f!f!f!f!f!f!f!f!f!f!f!f!f!f!f!f!f!f!f!f!f!f!f!f!f!f!f!f!f!f!f!f!f!f!f!f!f!f!f!f!f!f!f!f!f!f!f!f!f!f!f!f!f!f!f!f!f!f!f!f!f!f!f!f!f!f!f!f!f!f!f!f!f!f!f!f!f!f!f!f!f!f!f!f!f!f!f!f!f!f!f!f!f!f!f!f!f!f!f!f!f!f!f!f!f!f!f!f!f!f!f!f!f!f!f!f!f!f!f!f!f!f!f!f!f!f!f!f!f!f!f!f!f!f!f!f!f!f!f!f!f!f!f!f!f!f!f!f!f!f!f!f!f!f!f!f!f!f!f!f!f!f!f!f!f!f!f!f!f!f!f!f!f!f!f!f!f!f!f!f!f!f!f!f!f!f!f!f!f!f!f!f!f!f!f!f!f!f!f!f!f!f!f!f!f!f!f!f!f!f!f!f!f!f!f!f!f!f!f!f!f!f!f!f!e!k!n!l!l!l!D!G!F!E!A!                                          ",
"                                          H!I!J!G!D!l!l!l!l!l!n!y!k!k!e!e!e!e!e!e!e!e!e!e!e!e!e!e!e!e!e!e!e!e!e!e!e!e!e!e!e!e!e!e!e!e!e!e!e!e!e!e!e!e!e!e!e!e!e!e!e!e!e!e!e!e!e!e!e!e!e!e!e!e!e!e!e!e!e!e!e!e!e!e!e!e!e!e!e!e!e!e!e!e!e!e!e!e!e!e!e!e!e!e!e!e!e!e!e!e!e!e!e!e!e!e!e!e!e!e!e!e!e!e!e!e!e!e!e!e!e!e!e!e!e!e!e!e!e!e!e!e!e!e!e!e!e!e!e!e!e!e!e!e!e!e!e!e!e!e!e!e!e!e!e!e!e!e!e!e!e!e!e!e!e!e!e!e!e!e!e!e!e!e!e!e!e!e!e!e!e!e!e!e!e!e!e!e!e!e!e!e!e!e!e!e!e!e!e!e!e!e!e!e!e!e!e!e!e!e!e!e!e!e!e!e!e!e!e!e!e!e!e!e!e!e!e!e!e!e!e!e!e!e!e!e!e!e!e!e!e!e!e!e!e!e!e!e!e!e!e!e!e!e!e!e!e!e!e!e!e!e!e!e!e!e!e!e!e!e!e!e!e!e!e!e!e!e!e!e!e!e!e!e!e!e!e!e!e!e!e!e!e!e!e!e!e!e!e!e!e!e!e!e!e!e!e!e!e!e!e!e!e!e!e!e!e!e!e!e!e!e!e!e!e!e!e!e!e!e!e!e!k!k!y!n!l!l!l!l!l!D!C!K!I!H!                                              ",
"                                            H!H!I!L!G!M!D!l!l!l!l!l!l!l!l!l!l!l!l!l!l!l!l!l!l!l!l!l!l!l!l!l!l!l!l!l!l!l!l!l!l!l!l!l!l!l!l!l!l!l!l!l!l!l!l!l!l!l!l!l!l!l!l!l!l!l!l!l!l!l!l!l!l!l!l!l!l!l!l!l!l!l!l!l!l!l!l!l!l!l!l!l!l!l!l!l!l!l!l!l!l!l!l!l!l!l!l!l!l!l!l!l!l!l!l!l!l!l!l!l!l!l!l!l!l!l!l!l!l!l!l!l!l!l!l!l!l!l!l!l!l!l!l!l!l!l!l!l!l!l!l!l!l!l!l!l!l!l!l!l!l!l!l!l!l!l!l!l!l!l!l!l!l!l!l!l!l!l!l!l!l!l!l!l!l!l!l!l!l!l!l!l!l!l!l!l!l!l!l!l!l!l!l!l!l!l!l!l!l!l!l!l!l!l!l!l!l!l!l!l!l!l!l!l!l!l!l!l!l!l!l!l!l!l!l!l!l!l!l!l!l!l!l!l!l!l!l!l!l!l!l!l!l!l!l!l!l!l!l!l!l!l!l!l!l!l!l!l!l!l!l!l!l!l!l!l!l!l!l!l!l!l!l!l!l!l!l!l!l!l!l!l!l!l!l!l!l!l!l!l!l!l!l!l!l!l!l!l!l!l!l!l!l!l!l!l!l!l!l!l!l!l!l!l!l!l!l!l!l!l!l!l!l!l!l!l!l!l!l!l!l!l!l!l!l!l!l!D!M!G!L!N!H!H!                                                ",
"                                                H!O!I!P!Q!G!C!M!D!t!l!l!l!l!l!l!l!l!l!l!l!l!l!l!l!l!l!l!l!l!l!l!l!l!l!l!l!l!l!l!l!l!l!l!l!l!l!l!l!l!l!l!l!l!l!l!l!l!l!l!l!l!l!l!l!l!l!l!l!l!l!l!l!l!l!l!l!l!l!l!l!l!l!l!l!l!l!l!l!l!l!l!l!l!l!l!l!l!l!l!l!l!l!l!l!l!l!l!l!l!l!l!l!l!l!l!l!l!l!l!l!l!l!l!l!l!l!l!l!l!l!l!l!l!l!l!l!l!l!l!l!l!l!l!l!l!l!l!l!l!l!l!l!l!l!l!l!l!l!l!l!l!l!l!l!l!l!l!l!l!l!l!l!l!l!l!l!l!l!l!l!l!l!l!l!l!l!l!l!l!l!l!l!l!l!l!l!l!l!l!l!l!l!l!l!l!l!l!l!l!l!l!l!l!l!l!l!l!l!l!l!l!l!l!l!l!l!l!l!l!l!l!l!l!l!l!l!l!l!l!l!l!l!l!l!l!l!l!l!l!l!l!l!l!l!l!l!l!l!l!l!l!l!l!l!l!l!l!l!l!l!l!l!l!l!l!l!l!l!l!l!l!l!l!l!l!l!l!l!l!l!l!l!l!l!l!l!l!l!l!l!l!l!l!l!l!l!l!l!l!l!l!l!l!l!l!l!l!l!l!l!l!l!l!l!l!l!l!l!l!l!l!l!l!l!l!l!l!l!l!t!D!R!M!C!Q!S!I!O!H!                                                    ",
"                                                      O!Q!T!U!V!J!W!W!X!C!C!C!C!C!C!C!C!C!C!C!C!C!C!C!C!C!C!C!C!C!C!C!C!C!C!C!C!C!C!C!C!C!C!C!C!C!C!C!C!C!C!C!C!C!C!C!C!C!C!C!C!C!C!C!C!C!C!C!C!C!C!C!C!C!C!C!C!C!C!C!C!C!C!C!C!C!C!C!C!C!C!C!C!C!C!C!C!C!C!C!C!C!C!C!C!C!C!C!C!C!C!C!C!C!C!C!C!C!C!C!C!C!C!C!C!C!C!C!C!C!C!C!C!C!C!C!C!C!C!C!C!C!C!C!C!C!C!C!C!C!C!C!C!C!C!C!C!C!C!C!C!C!C!C!C!C!C!C!C!C!C!C!C!C!C!C!C!C!C!C!C!C!C!C!C!C!C!C!C!C!C!C!C!C!C!C!C!C!C!C!C!C!C!C!C!C!C!C!C!C!C!C!C!C!C!C!C!C!C!C!C!C!C!C!C!C!C!C!C!C!C!C!C!C!C!C!C!C!C!C!C!C!C!C!C!C!C!C!C!C!C!C!C!C!C!C!C!C!C!C!C!C!C!C!C!C!C!C!C!C!C!C!C!C!C!C!C!C!C!C!C!C!C!C!C!C!C!C!C!C!C!C!C!C!C!C!C!C!C!C!C!C!C!C!C!C!C!C!C!C!C!C!C!C!C!C!C!C!C!C!C!C!C!C!C!C!C!C!C!C!C!C!C!C!C!X!W!W!J!V!U!T!Q!O!                                                          ",
"                                                            Y!Y!Z!`! ~.~T!T!T!T!T!T!T!T!T!T!T!T!T!T!T!T!T!T!T!T!T!T!T!T!T!T!T!T!T!T!T!T!T!T!T!T!T!T!T!T!T!T!T!T!T!T!T!T!T!T!T!T!T!T!T!T!T!T!T!T!T!T!T!T!T!T!T!T!T!T!T!T!T!T!T!T!T!T!T!T!T!T!T!T!T!T!T!T!T!T!T!T!T!T!T!T!T!T!T!T!T!T!T!T!T!T!T!T!T!T!T!T!T!T!T!T!T!T!T!T!T!T!T!T!T!T!T!T!T!T!T!T!T!T!T!T!T!T!T!T!T!T!T!T!T!T!T!T!T!T!T!T!T!T!T!T!T!T!T!T!T!T!T!T!T!T!T!T!T!T!T!T!T!T!T!T!T!T!T!T!T!T!T!T!T!T!T!T!T!T!T!T!T!T!T!T!T!T!T!T!T!T!T!T!T!T!T!T!T!T!T!T!T!T!T!T!T!T!T!T!T!T!T!T!T!T!T!T!T!T!T!T!T!T!T!T!T!T!T!T!T!T!T!T!T!T!T!T!T!T!T!T!T!T!T!T!T!T!T!T!T!T!T!T!T!T!T!T!T!T!T!T!T!T!T!T!T!T!T!T!T!T!T!T!T!T!T!T!T!T!T!T!T!T!T!T!T!T!T!T!T!T!T!T!T!T!T!T!T!T!T!T!T!T!T!T!T!T!T!T!T!T!T!T!T!T!.~ ~`!Z!Y!Y!                                                                "};
